; generated by PrusaSlicer 2.7.4+linux-x64-GTK3 on 2024-08-15 at 12:38:19 UTC


;
;
; 

; external perimeters extrusion width = 0.45mm
; perimeters extrusion width = 0.45mm
; infill extrusion width = 0.45mm
; solid infill extrusion width = 0.45mm
; top infill extrusion width = 0.40mm
; support material extrusion width = 0.35mm
; first layer extrusion width = 0.42mm

; external perimeters extrusion width = 0.45mm
; perimeters extrusion width = 0.45mm
; infill extrusion width = 0.45mm
; solid infill extrusion width = 0.45mm
; top infill extrusion width = 0.40mm
; support material extrusion width = 0.35mm
; first layer extrusion width = 0.42mm

; external perimeters extrusion width = 0.45mm
; perimeters extrusion width = 0.45mm
; infill extrusion width = 0.45mm
; solid infill extrusion width = 0.45mm
; top infill extrusion width = 0.40mm
; support material extrusion width = 0.35mm
; first layer extrusion width = 0.42mm

M73 P0 R170
M73 Q0 S172
M201 X1000 Y1000 Z200 E5000 ; sets maximum accelerations, mm/sec^2
M203 X200 Y200 Z12 E120 ; sets maximum feedrates, mm / sec
M204 S1250 T1250 ; sets acceleration (S) and retract acceleration (R), mm/sec^2
M205 X8.00 Y8.00 Z0.40 E4.50 ; sets the jerk limits, mm/sec
M205 S0 T0 ; sets the minimum extruding and travel feed rate, mm/sec

; printing object CameraMount - Holder.stl id:0 copy 0
; stop printing object CameraMount - Holder.stl id:0 copy 0
; printing object CameraMount - Holder Lid.stl id:1 copy 0
; stop printing object CameraMount - Holder Lid.stl id:1 copy 0
; printing object CameraMount - Holder Lid.stl id:2 copy 0
; stop printing object CameraMount - Holder Lid.stl id:2 copy 0

;TYPE:Custom
M862.3 P "MK3" ; printer model check
M862.1 P0.4 ; nozzle diameter check
M115 U3.13.3 ; tell printer latest fw version
G90 ; use absolute coordinates
M83 ; extruder relative mode
M104 S215 ; set extruder temp
M140 S60 ; set bed temp
M190 S60 ; wait for bed temp
M109 S215 ; wait for extruder temp
G28 W ; home all without mesh bed level
G80 X23.8566 Y5.40699 W162.474 H73.7231 ; mesh bed levelling

G1 Z0.2 F720
G1 Y-3 F1000 ; go outside print area
G92 E0
G1 X60 E9 F1000 ; intro line
G1 X100 E12.5 F1000 ; intro line
M73 P0 R169

G92 E0
M221 S95

; Don't change E values below. Excessive value can damage the printer.
M907 E430 ; set extruder motor current
G21 ; set units to millimeters
G90 ; use absolute coordinates
M83 ; use relative distances for extrusion

M900 K0.05 ; Filament gcode LA 1.5
M900 K30 ; Filament gcode LA 1.0




M107
;LAYER_CHANGE
;Z:0.2
;HEIGHT:0.2
G1 E-.8 F2100
G1 Z.6 F720
G1 X24.399 Y10.106 F10800
G1 Z.2 F720
G1 E.8 F2100
M204 S800
;TYPE:Skirt/Brim
;WIDTH:0.42
G1 F1200
G1 X24.741 Y9.279 E.02806
G1 X27.729 Y6.292 E.13247
G1 X29.41 Y5.596 E.05705
G1 X62.564 Y5.618 E1.03952
M73 Q0 S171
G1 X177.723 Y21.742 E3.64595
G1 X184.157 Y23.129 E.20637
G1 X185.446 Y23.882 E.04681
G1 X186.142 Y25.563 E.05705
G1 X186.142 Y38.435 E.40359
G1 X185.939 Y39.395 E.03077
G1 X176.668 Y60.39 E.71961
G1 X176.064 Y61.221 E.03221
G1 X174.741 Y61.891 E.0465
G1 X62.832 Y78.915 E3.5492
G1 X29.65 Y78.942 E1.0404
G1 X27.969 Y78.245 E.05706
G1 X24.981 Y75.258 E.13247
G1 X24.285 Y73.595 E.05652
G1 X24.045 Y41.803 E.99684
G1 X24.045 Y10.96 E.96706
G1 X24.376 Y10.162 E.02709
M204 S1000
;WIPE_START
G1 F8640
G1 X24.399 Y10.106 E-.01398
G1 X24.741 Y9.279 E-.20664
G1 X26.515 Y7.505 E-.57938
;WIPE_END
G1 Z.6 F720
G1 X27.187 Y10.97 F10800
G1 Z.2 F720
G1 E.8 F2100
M204 S800
G1 F1200
G1 X27.201 Y10.92 E.00163
G1 X27.767 Y10.051 E.03252
G1 X28.58 Y9.254 E.0357
G1 X29.743 Y8.588 E.04202
G1 X31.104 Y8.259 E.0439
G1 X60.512 Y8.263 E.92207
G1 X61.532 Y8.457 E.03255
G1 X62.51 Y8.872 E.03331
G1 X63.635 Y9.768 E.04509
G1 X64.527 Y11.106 E.05042
G1 X64.936 Y12.651 E.05011
G1 X64.936 Y40.114 E.86108
G1 X64.466 Y41.775 E.05412
G1 X64.285 Y42.091 E.01142
G1 X64.8 Y42.973 E.03202
G1 X65.176 Y44.443 E.04757
G1 X65.176 Y71.905 E.86105
G1 X64.683 Y73.618 E.05589
G1 X64.118 Y74.486 E.03247
G1 X63.305 Y75.283 E.0357
G1 X62.141 Y75.95 E.04206
G1 X60.781 Y76.278 E.04386
G1 X31.322 Y76.278 E.92367
G1 X29.609 Y75.785 E.05589
G1 X28.741 Y75.22 E.03247
G1 X27.944 Y74.407 E.0357
G1 X27.277 Y73.244 E.04204
G1 X26.949 Y71.883 E.04389
G1 X26.949 Y44.423 E.86099
G1 X27.42 Y42.759 E.05422
G1 X27.607 Y42.433 E.01178
G1 X27.12 Y41.647 E.02899
G1 X26.709 Y40.098 E.05025
G1 X26.709 Y12.632 E.86118
G1 X27.17 Y11.028 E.05233
M204 S1000
G1 X27.17 Y11.028 F10800
G1 X27.525 Y11.13
M204 S800
G1 F1200
G1 X27.533 Y11.1 E.00097
G1 X28.047 Y10.304 E.02971
G1 X28.791 Y9.567 E.03284
G1 X29.86 Y8.947 E.03875
G1 X31.127 Y8.636 E.04091
G1 X60.493 Y8.64 E.92075
G1 X61.44 Y8.823 E.03024
G1 X62.337 Y9.208 E.03061
G1 X63.376 Y10.044 E.04181
G1 X64.171 Y11.234 E.04487
G1 X64.559 Y12.676 E.04682
G1 X64.559 Y40.087 E.85945
G1 X64.111 Y41.644 E.0508
G1 X63.843 Y42.088 E.01626
G1 X64.442 Y43.095 E.03674
G1 X64.799 Y44.467 E.04445
G1 X64.799 Y71.879 E.85948
G1 X64.351 Y73.437 E.05083
G1 X63.838 Y74.233 E.02969
G1 X63.094 Y74.97 E.03284
G1 X62.025 Y75.59 E.03875
G1 X60.758 Y75.901 E.04091
G1 X31.348 Y75.901 E.92213
G1 X29.79 Y75.453 E.05083
G1 X28.994 Y74.94 E.02969
G1 X28.257 Y74.196 E.03284
G1 X27.637 Y73.127 E.03875
G1 X27.326 Y71.86 E.04091
G1 X27.326 Y44.45 E.85942
G1 X27.775 Y42.889 E.05093
G1 X28.053 Y42.43 E.01683
G1 X27.477 Y41.52 E.03377
G1 X27.086 Y40.072 E.04703
G1 X27.086 Y12.659 E.85952
G1 X27.508 Y11.188 E.04798
M204 S1000
G1 X27.508 Y11.188 F10800
G1 X27.87 Y11.293
M204 S800
G1 F1200
G1 X27.887 Y11.233 E.00196
G1 X28.328 Y10.556 E.02533
G1 X29.003 Y9.88 E.02995
G1 X29.979 Y9.306 E.0355
G1 X31.151 Y9.013 E.03788
G1 X60.475 Y9.017 E.91943
G1 X61.346 Y9.189 E.02784
G1 X62.162 Y9.543 E.02789
G1 X63.115 Y10.317 E.03849
G1 X63.84 Y11.416 E.04128
G1 X64.182 Y12.701 E.04169
G1 X64.182 Y40.06 E.85782
G1 X63.757 Y41.511 E.04741
G1 X63.362 Y42.142 E.02334
G1 X64.085 Y43.218 E.04065
G1 X64.422 Y44.492 E.04132
G1 X64.422 Y71.851 E.85782
G1 X63.997 Y73.304 E.04747
G1 X63.557 Y73.981 E.02532
G1 X62.881 Y74.658 E.03
G1 X61.906 Y75.231 E.03546
G1 X60.734 Y75.524 E.03788
G1 X31.376 Y75.524 E.9205
G1 X29.923 Y75.099 E.04747
G1 X29.246 Y74.659 E.02532
G1 X28.569 Y73.983 E.03
G1 X27.996 Y73.008 E.03546
G1 X27.703 Y71.836 E.03788
G1 X27.703 Y44.477 E.85782
G1 X28.129 Y43.022 E.04754
G1 X28.501 Y42.428 E.02198
G1 X27.832 Y41.391 E.03869
G1 X27.463 Y40.047 E.0437
G1 X27.463 Y12.686 E.85788
G1 X27.853 Y11.351 E.04361
M204 S1000
G1 X27.853 Y11.351 F10800
G1 X28.214 Y11.458
M204 S800
G1 F1200
G1 X28.24 Y11.368 E.00294
G1 X28.609 Y10.808 E.02103
G1 X29.218 Y10.19 E.0272
G1 X30.099 Y9.664 E.03217
G1 X31.175 Y9.39 E.03481
G1 X60.455 Y9.394 E.91805
G1 X61.251 Y9.554 E.02546
G1 X61.986 Y9.878 E.02519
G1 X62.852 Y10.589 E.03513
G1 X63.507 Y11.595 E.03764
G1 X63.804 Y12.725 E.03663
M73 P0 R168
G1 X63.804 Y40.032 E.85619
G1 X63.404 Y41.377 E.044
G1 X62.822 Y42.165 E.03072
G1 X63.246 Y42.559 E.01815
G1 X63.728 Y43.343 E.02886
G1 X64.045 Y44.517 E.03813
G1 X64.045 Y71.823 E.85616
G1 X63.644 Y73.169 E.04404
G1 X63.275 Y73.729 E.02103
G1 X62.666 Y74.347 E.0272
G1 X61.786 Y74.873 E.03215
G1 X60.71 Y75.147 E.03481
G1 X31.403 Y75.147 E.9189
G1 X30.058 Y74.746 E.04401
G1 X29.498 Y74.377 E.02103
G1 X28.88 Y73.768 E.0272
G1 X28.354 Y72.888 E.03215
G1 X28.08 Y71.812 E.03481
G1 X28.08 Y44.505 E.85619
G1 X28.482 Y43.157 E.04411
M73 Q0 S170
G1 X29.045 Y42.39 E.02983
G1 X28.711 Y42.064 E.01463
G1 X28.187 Y41.261 E.03006
G1 X27.84 Y40.021 E.04037
G1 X27.84 Y12.714 E.85619
G1 X28.196 Y11.516 E.03919
M204 S1000
G1 X28.196 Y11.516 F10800
G1 X28.55 Y11.621
M204 S800
G1 F1200
G1 X28.571 Y11.551 E.00229
G1 X28.893 Y11.057 E.01849
G1 X29.435 Y10.499 E.02439
G1 X30.222 Y10.022 E.02885
G1 X31.199 Y9.767 E.03166
G1 X60.437 Y9.771 E.91674
G1 X61.118 Y9.908 E.02178
G1 X61.809 Y10.212 E.02367
G1 X62.589 Y10.861 E.03181
G1 X63.151 Y11.723 E.03226
G1 X63.427 Y12.75 E.03334
G1 X63.427 Y40.004 E.85453
G1 X63.052 Y41.24 E.0405
G1 X62.773 Y41.662 E.01586
G1 X62.278 Y42.19 E.02269
G1 X62.94 Y42.781 E.02782
G1 X63.393 Y43.518 E.02712
G1 X63.667 Y44.542 E.03324
G1 X63.667 Y71.796 E.85453
G1 X63.313 Y72.986 E.03893
G1 X62.992 Y73.48 E.01847
G1 X62.449 Y74.038 E.02441
G1 X61.663 Y74.515 E.02883
G1 X60.686 Y74.77 E.03166
G1 X31.431 Y74.77 E.91727
G1 X30.24 Y74.415 E.03897
G1 X29.747 Y74.094 E.01845
G1 X29.189 Y73.551 E.02441
G1 X28.712 Y72.765 E.02883
G1 X28.457 Y71.788 E.03166
G1 X28.457 Y44.533 E.85456
G1 X28.834 Y43.294 E.04061
G1 X29.58 Y42.373 E.03716
G1 X29.013 Y41.838 E.02444
G1 X28.519 Y41.079 E.02839
G1 X28.217 Y39.995 E.03528
G1 X28.217 Y12.741 E.85453
G1 X28.533 Y11.679 E.03474
M204 S1000
G1 X28.533 Y11.679 F10800
G1 X28.893 Y11.788
M204 S800
G1 F1200
G1 X28.924 Y11.688 E.00328
G1 X29.655 Y10.807 E.03589
G1 X30.347 Y10.379 E.02551
G1 X31.224 Y10.145 E.02846
G1 X60.417 Y10.148 E.91533
G1 X61.021 Y10.272 E.01933
G1 X61.63 Y10.545 E.02093
G1 X62.323 Y11.13 E.02844
G1 X62.817 Y11.9 E.02868
G1 X63.05 Y12.775 E.02839
G1 X63.05 Y39.976 E.85287
G1 X62.722 Y41.056 E.03539
G1 X62.023 Y41.911 E.03463
G1 X61.664 Y42.157 E.01365
G1 X62.634 Y43.004 E.04038
G1 X63.057 Y43.691 E.0253
G1 X63.29 Y44.566 E.02839
G1 X63.29 Y71.768 E.8529
G1 X62.961 Y72.849 E.03543
G1 X62.708 Y73.232 E.01439
G1 X62.229 Y73.731 E.02169
G1 X61.538 Y74.159 E.02549
G1 X60.66 Y74.393 E.02849
G1 X31.459 Y74.393 E.91558
G1 X30.378 Y74.063 E.03544
G1 X29.995 Y73.81 E.01439
G1 X29.496 Y73.331 E.02169
G1 X29.068 Y72.64 E.02549
G1 X28.834 Y71.762 E.02849
G1 X28.834 Y44.561 E.85287
G1 X29.164 Y43.48 E.03544
G1 X29.862 Y42.626 E.03458
G1 X30.25 Y42.36 E.01475
G1 X29.316 Y41.612 E.03752
G1 X28.851 Y40.898 E.02672
G1 X28.594 Y39.97 E.03019
G1 X28.594 Y12.769 E.85287
G1 X28.876 Y11.846 E.03026
M204 S1000
G1 X28.876 Y11.846 F10800
G1 X29.229 Y11.953
M204 S800
G1 F1200
G1 X29.254 Y11.871 E.00269
G1 X29.878 Y11.112 E.03081
G1 X30.475 Y10.734 E.02216
G1 X31.25 Y10.522 E.02519
G1 X60.397 Y10.525 E.91388
G1 X60.921 Y10.637 E.0168
G1 X61.449 Y10.876 E.01817
G1 X62.057 Y11.397 E.02511
G1 X62.461 Y12.028 E.02349
G1 X62.673 Y12.801 E.02513
G1 X62.673 Y39.948 E.85118
G1 X62.39 Y40.874 E.03036
G1 X62.199 Y41.172 E.0111
G1 X61.765 Y41.635 E.0199
G1 X61.215 Y41.991 E.02054
G1 X60.917 Y42.089 E.00984
G1 X60.927 Y42.372 E.00888
G1 X61.688 Y42.667 E.02559
G1 X62.33 Y43.228 E.02673
G1 X62.701 Y43.819 E.02188
G1 X62.913 Y44.592 E.02513
G1 X62.913 Y71.74 E.85121
G1 X62.631 Y72.666 E.03035
G1 X62.007 Y73.426 E.03083
G1 X61.409 Y73.803 E.02216
G1 X60.634 Y74.016 E.0252
G1 X31.487 Y74.016 E.91388
G1 X30.561 Y73.733 E.03036
G1 X29.801 Y73.109 E.03083
G1 X29.424 Y72.512 E.02214
G1 X29.211 Y71.737 E.0252
G1 X29.211 Y44.589 E.85121
G1 X29.494 Y43.663 E.03036
G1 X29.703 Y43.343 E.01198
G1 X30.119 Y42.903 E.01899
G1 X30.668 Y42.547 E.02052
G1 X31.015 Y42.436 E.01142
G1 X31.016 Y42.162 E.00859
G1 X30.276 Y41.919 E.02442
G1 X29.59 Y41.352 E.02791
G1 X29.184 Y40.719 E.02358
G1 X28.971 Y39.945 E.02517
G1 X28.971 Y12.798 E.85118
G1 X29.211 Y12.011 E.0258
M204 S1000
;WIPE_START
G1 F8640
G1 X29.229 Y11.953 E-.01402
G1 X29.254 Y11.871 E-.01979
G1 X29.878 Y11.112 E-.22688
G1 X30.475 Y10.734 E-.16316
G1 X31.25 Y10.522 E-.18552
G1 X32.076 Y10.522 E-.19063
;WIPE_END
G1 Z.6 F720
G1 X31.517 Y42.691 F10800
G1 Z.2 F720
G1 E.8 F2100
M204 S800
G1 F1200
G1 X60.616 Y42.694 E.91238
G1 X61.059 Y42.792 E.01423
G1 X61.505 Y42.998 E.0154
G1 X62.028 Y43.455 E.02178
G1 X62.347 Y43.951 E.01849
G1 X62.536 Y44.619 E.02177
G1 X62.536 Y71.71 E.84942
G1 X62.28 Y72.525 E.02678
M73 P1 R168
G1 X61.78 Y73.123 E.02444
G1 X61.278 Y73.449 E.01877
G1 X60.607 Y73.638 E.02186
G1 X31.517 Y73.638 E.9121
G1 X30.702 Y73.382 E.02678
M73 Q1 S170
G1 X30.104 Y72.883 E.02442
G1 X29.778 Y72.38 E.01879
G1 X29.588 Y71.71 E.02184
G1 X29.588 Y44.619 E.84942
G1 X29.845 Y43.804 E.02679
G1 X30.344 Y43.206 E.02442
G1 X30.847 Y42.88 E.01879
G1 X31.46 Y42.707 E.01997
M204 S1000
G1 X31.46 Y42.707 F10800
G1 X31.545 Y43.068
M204 S800
G1 F1200
G1 X60.593 Y43.071 E.91078
G1 X61.318 Y43.327 E.02411
G1 X61.758 Y43.719 E.01848
G1 X61.993 Y44.084 E.01361
G1 X62.159 Y44.647 E.0184
G1 X62.159 Y71.681 E.84763
G1 X61.951 Y72.34 E.02167
G1 X61.519 Y72.85 E.02096
G1 X61.144 Y73.095 E.01404
G1 X60.579 Y73.261 E.01846
G1 X31.546 Y73.261 E.91031
G1 X30.887 Y73.053 E.02167
G1 X30.377 Y72.621 E.02096
G1 X30.132 Y72.246 E.01404
G1 X29.965 Y71.682 E.01844
G1 X29.965 Y44.648 E.84763
G1 X30.174 Y43.989 E.02168
G1 X30.605 Y43.479 E.02094
G1 X30.981 Y43.234 E.01407
G1 X31.488 Y43.085 E.01657
M204 S1000
G1 X31.488 Y43.085 F10800
G1 X31.575 Y43.445
M204 S800
G1 F1200
G1 X60.572 Y43.448 E.90918
G1 X61.13 Y43.655 E.01866
G1 X61.485 Y43.98 E.01509
G1 X61.782 Y44.677 E.02376
G1 X61.782 Y71.651 E.84575
G1 X61.62 Y72.157 E.01666
G1 X61.258 Y72.577 E.01739
G1 X61.005 Y72.744 E.0095
G1 X60.55 Y72.884 E.01493
G1 X31.576 Y72.884 E.90846
G1 X31.069 Y72.722 E.01669
G1 X30.649 Y72.36 E.01739
G1 X30.483 Y72.108 E.00946
G1 X30.343 Y71.652 E.01496
G1 X30.343 Y44.678 E.84575
G1 X30.505 Y44.171 E.01669
G1 X30.867 Y43.752 E.01736
G1 X31.119 Y43.585 E.00948
G1 X31.517 Y43.462 E.01306
M204 S1000
G1 X31.517 Y43.462 F10800
G1 X31.606 Y43.822
M204 S800
G1 F1200
G1 X60.549 Y43.825 E.90749
G1 X60.94 Y43.982 E.01321
G1 X61.209 Y44.237 E.01162
G1 X61.405 Y44.709 E.01602
G1 X61.405 Y71.62 E.84378
G1 X61.286 Y71.982 E.01195
G1 X60.996 Y72.305 E.01361
G1 X60.518 Y72.507 E.01627
G1 X31.607 Y72.507 E.90648
G1 X31.245 Y72.388 E.01195
M73 P1 R167
G1 X30.922 Y72.098 E.01361
G1 X30.72 Y71.62 E.01627
G1 X30.72 Y44.709 E.84378
G1 X30.839 Y44.347 E.01195
G1 X31.128 Y44.024 E.01359
G1 X31.551 Y43.845 E.0144
M204 S1000
G1 X31.551 Y43.845 F10800
G1 X31.642 Y44.199
M204 S800
G1 F1200
G1 X60.497 Y44.199 E.90473
G1 X60.928 Y44.489 E.01629
G1 X61.028 Y44.744 E.00859
G1 X61.028 Y71.585 E.84158
G1 X60.952 Y71.798 E.00709
G1 X60.735 Y72.033 E.01003
G1 X60.483 Y72.13 E.00847
G1 X31.642 Y72.13 E.90429
G1 X31.429 Y72.054 E.00709
M73 Q1 S169
G1 X31.194 Y71.837 E.01003
G1 X31.097 Y71.585 E.00847
G1 X31.097 Y44.744 E.84158
G1 X31.173 Y44.531 E.00709
G1 X31.39 Y44.296 E.01003
G1 X31.586 Y44.221 E.00658
M204 S1000
G1 X31.586 Y44.221 F10800
G1 X31.614 Y44.605
M204 S800
G1 F1200
G1 X60.511 Y44.605 E.90605
G1 X60.651 Y44.786 E.00717
G1 X60.651 Y71.543 E.83895
G1 X60.511 Y71.724 E.00717
G1 X31.683 Y71.753 E.90388
G1 X31.502 Y71.613 E.00717
G1 X31.474 Y44.786 E.84114
G1 X31.577 Y44.652 E.0053
M204 S1000
;WIPE_START
G1 F8640
G1 X31.614 Y44.605 E-.01381
G1 X35.019 Y44.605 E-.78619
;WIPE_END
G1 Z.6 F720
G1 X31.577 Y41.847 F10800
G1 Z.2 F720
G1 E.8 F2100
M204 S800
G1 F1200
G1 X31.277 Y41.847 E.00941
G1 X30.462 Y41.59 E.02679
G1 X29.864 Y41.091 E.02442
G1 X29.538 Y40.588 E.01879
G1 X29.348 Y39.918 E.02184
G1 X29.348 Y12.827 E.84942
G1 X29.605 Y12.012 E.02679
G1 X30.104 Y11.414 E.02442
G1 X30.607 Y11.089 E.01878
G1 X31.277 Y10.899 E.02184
G1 X60.375 Y10.902 E.91235
G1 X60.819 Y11 E.01426
G1 X61.265 Y11.206 E.0154
G1 X61.788 Y11.663 E.02178
G1 X62.107 Y12.159 E.01849
G1 X62.296 Y12.827 E.02177
G1 X62.296 Y39.918 E.84942
G1 X62.04 Y40.733 E.02678
G1 X61.54 Y41.331 E.02444
G1 X61.038 Y41.657 E.01877
G1 X60.367 Y41.847 E.02187
G1 X31.637 Y41.847 E.90081
M204 S1000
G1 X31.637 Y41.847 F10800
G1 X31.637 Y41.469
M204 S800
G1 F1200
G1 X31.306 Y41.469 E.01038
G1 X30.647 Y41.261 E.02167
G1 X30.137 Y40.83 E.02094
G1 X29.891 Y40.454 E.01409
G1 X29.725 Y39.89 E.01843
G1 X29.725 Y12.856 E.84763
G1 X29.934 Y12.198 E.02165
G1 X30.365 Y11.687 E.02096
G1 X30.741 Y11.442 E.01407
G1 X31.305 Y11.276 E.01843
G1 X60.353 Y11.279 E.91078
G1 X61.078 Y11.535 E.02411
G1 X61.518 Y11.927 E.01848
G1 X61.753 Y12.292 E.01361
G1 X61.919 Y12.855 E.0184
G1 X61.919 Y39.889 E.84763
G1 X61.71 Y40.548 E.02168
G1 X61.279 Y41.058 E.02094
G1 X60.904 Y41.303 E.01404
G1 X60.339 Y41.469 E.01846
G1 X31.697 Y41.469 E.89805
M204 S1000
G1 X31.697 Y41.469 F10800
G1 X31.697 Y41.092
M204 S800
G1 F1200
G1 X31.336 Y41.092 E.01132
G1 X30.829 Y40.93 E.01669
G1 X30.409 Y40.568 E.01739
G1 X30.243 Y40.316 E.00946
G1 X30.102 Y39.86 E.01497
G1 X30.102 Y12.886 E.84575
G1 X30.265 Y12.38 E.01667
G1 X30.627 Y11.96 E.01739
G1 X30.879 Y11.793 E.00948
G1 X31.335 Y11.653 E.01496
