; generated by PrusaSlicer 2.7.4+linux-x64-GTK3 on 2024-04-26 at 14:41:50 UTC


;
;
; 

; external perimeters extrusion width = 0.45mm
; perimeters extrusion width = 0.45mm
; infill extrusion width = 0.45mm
; solid infill extrusion width = 0.45mm
; top infill extrusion width = 0.40mm
; first layer extrusion width = 0.42mm

M73 P0 R15
M73 Q0 S15
M201 X1000 Y1000 Z200 E5000 ; sets maximum accelerations, mm/sec^2
M203 X200 Y200 Z12 E120 ; sets maximum feedrates, mm / sec
M204 S1250 T1250 ; sets acceleration (S) and retract acceleration (R), mm/sec^2
M205 X8.00 Y8.00 Z0.40 E4.50 ; sets the jerk limits, mm/sec
M205 S0 T0 ; sets the minimum extruding and travel feed rate, mm/sec

; printing object kiwi - omni-wheel middle layer.stl id:0 copy 0
; stop printing object kiwi - omni-wheel middle layer.stl id:0 copy 0

;TYPE:Custom
M862.3 P "MK3" ; printer model check
M862.1 P0.4 ; nozzle diameter check
M115 U3.13.3 ; tell printer latest fw version
G90 ; use absolute coordinates
M83 ; extruder relative mode
M104 S215 ; set extruder temp
M140 S60 ; set bed temp
M190 S60 ; wait for bed temp
M109 S215 ; wait for extruder temp
G28 W ; home all without mesh bed level
G80 X32.4188 Y125.647 W44.8462 H44.8461 ; mesh bed levelling

G1 Z0.2 F720
G1 Y-3 F1000 ; go outside print area
G92 E0
G1 X60 E9 F1000 ; intro line
G1 X100 E12.5 F1000 ; intro line

G92 E0
M221 S95

; Don't change E values below. Excessive value can damage the printer.
M907 E430 ; set extruder motor current
G21 ; set units to millimeters
G90 ; use absolute coordinates
M83 ; use relative distances for extrusion

M900 K0.05 ; Filament gcode LA 1.5
M900 K30 ; Filament gcode LA 1.0




M107
;LAYER_CHANGE
;Z:0.2
;HEIGHT:0.2
G1 E-.8 F2100
G1 Z.6 F720
G1 X40.916 Y126.263 F10800
G1 Z.2 F720
G1 E.8 F2100
M204 S800
;TYPE:Skirt/Brim
;WIDTH:0.42
G1 F1200
G1 X42.275 Y125.836 E.04466
G1 X67.409 Y125.836 E.78806
G1 X68.768 Y126.263 E.04466
G1 X70.64 Y127.578 E.07173
M73 Q1 S15
G1 X72.389 Y129.054 E.07176
G1 X74 Y130.679 E.07175
G1 X75.462 Y132.439 E.07174
G1 X76.65 Y134.145 E.06518
M73 P1 R15
G1 X77.076 Y135.503 E.04462
G1 X77.076 Y160.638 E.78809
G1 X76.65 Y161.996 E.04462
G1 X75.334 Y163.869 E.07177
G1 X74 Y165.462 E.06515
G1 X72.234 Y167.229 E.07833
G1 X70.64 Y168.563 E.06517
G1 X68.768 Y169.878 E.07173
G1 X67.409 Y170.305 E.04466
G1 X42.275 Y170.305 E.78806
G1 X40.916 Y169.878 E.04466
G1 X39.211 Y168.69 E.06516
G1 X37.45 Y167.229 E.07174
G1 X35.684 Y165.462 E.07833
G1 X34.35 Y163.869 E.06515
G1 X33.034 Y161.996 E.07177
G1 X32.607 Y160.638 E.04463
G1 X32.607 Y135.503 E.78809
G1 X33.034 Y134.145 E.04463
G1 X34.222 Y132.439 E.06518
G1 X35.684 Y130.679 E.07174
G1 X37.45 Y128.912 E.07833
G1 X39.044 Y127.578 E.06517
G1 X40.867 Y126.297 E.06986
M204 S1000
;WIPE_START
G1 F8640
G1 X40.916 Y126.263 E-.01377
G1 X42.275 Y125.836 E-.32892
G1 X44.256 Y125.836 E-.45731
;WIPE_END
G1 Z.6 F720
; printing object kiwi - omni-wheel middle layer.stl id:0 copy 0
G1 X71.162 Y160.919 F10800
G1 Z.2 F720
G1 E.8 F2100
M204 S800
;TYPE:Perimeter
;WIDTH:0.419999
G1 F1200
G1 X71.184 Y161.046 E.00404
G1 X71.384 Y161.316 E.01054
G1 X71.727 Y161.425 E.01128
G1 X72.87 Y161.406 E.03584
G1 X73.344 Y161.347 E.01498
G1 X73.159 Y161.528 E.00811
G1 X71.596 Y163.405 E.07658
G1 X70.176 Y164.824 E.06294
G1 X68.476 Y166.241 E.06939
G1 X68.119 Y166.572 E.01526
G1 X68.178 Y166.098 E.01498
G1 X68.196 Y164.955 E.03584
G1 X68.088 Y164.613 E.01125
G1 X67.818 Y164.412 E.01055
G1 X67.631 Y164.38 E.00595
G1 X65.196 Y164.38 E.07635
G1 X65.196 Y160.381 E.12539
G1 X65.182 Y160.256 E.00394
G1 X65.064 Y160.017 E.00836
G1 X64.821 Y159.848 E.00928
G1 X62.301 Y158.949 E.08389
G1 X59.9 Y158.348 E.0776
G1 X57.397 Y157.974 E.07935
G1 X54.814 Y157.847 E.08109
G1 X52.342 Y157.968 E.0776
G1 X49.838 Y158.337 E.07936
G1 X47.33 Y158.965 E.08106
G1 X44.863 Y159.848 E.08216
G1 X44.697 Y159.941 E.00597
M73 Q2 S15
G1 X44.565 Y160.096 E.00638
G1 X44.488 Y160.381 E.00926
G1 X44.488 Y164.38 E.12539
G1 X42.053 Y164.38 E.07635
G1 X41.866 Y164.412 E.00595
M73 P2 R15
G1 X41.596 Y164.613 E.01055
G1 X41.488 Y164.955 E.01125
G1 X41.506 Y166.098 E.03584
G1 X41.565 Y166.572 E.01498
G1 X41.384 Y166.388 E.00809
G1 X39.507 Y164.824 E.0766
G1 X38.088 Y163.405 E.06292
G1 X36.671 Y161.705 E.06939
G1 X36.34 Y161.347 E.01529
G1 X36.814 Y161.406 E.01498
G1 X37.957 Y161.425 E.03584
G1 X38.299 Y161.316 E.01125
G1 X38.5 Y161.046 E.01055
G1 X38.532 Y160.859 E.00595
G1 X38.532 Y158.425 E.07632
G1 X42.532 Y158.425 E.12542
G1 X42.656 Y158.411 E.00391
G1 X42.895 Y158.292 E.00837
G1 X43.064 Y158.05 E.00925
G1 X43.963 Y155.529 E.08392
G1 X44.564 Y153.128 E.0776
M73 P2 R14
G1 X44.938 Y150.626 E.07932
G1 X45.065 Y148.043 E.08109
G1 X44.938 Y145.515 E.07936
G1 X44.575 Y143.067 E.07759
G1 X43.947 Y140.558 E.08109
G1 X43.064 Y138.091 E.08216
G1 X42.971 Y137.926 E.00594
G1 X42.816 Y137.793 E.0064
G1 X42.532 Y137.716 E.00923
G1 X38.532 Y137.716 E.12542
G1 X38.532 Y135.282 E.07632
G1 X38.5 Y135.095 E.00595
G1 X38.299 Y134.825 E.01055
G1 X37.957 Y134.716 E.01125
G1 X36.814 Y134.734 E.03584
G1 X36.34 Y134.793 E.01498
G1 X36.524 Y134.612 E.00809
G1 X38.088 Y132.736 E.07658
G1 X39.507 Y131.317 E.06292
G1 X41.207 Y129.9 E.06939
G1 X41.565 Y129.568 E.01531
G1 X41.506 Y130.043 E.01501
G1 X41.488 Y131.186 E.03584
G1 X41.596 Y131.528 E.01125
G1 X41.866 Y131.729 E.01055
G1 X42.053 Y131.76 E.00594
G1 X44.488 Y131.76 E.07635
G1 X44.488 Y135.76 E.12542
G1 X44.502 Y135.885 E.00394
G1 X44.62 Y136.124 E.00836
G1 X44.863 Y136.293 E.00928
G1 X47.383 Y137.192 E.08389
G1 X49.784 Y137.793 E.0776
G1 X52.287 Y138.167 E.07935
G1 X54.87 Y138.294 E.08109
G1 X57.397 Y138.167 E.07933
G1 X59.845 Y137.804 E.07759
G1 X62.354 Y137.175 E.0811
M73 Q2 S14
G1 X64.821 Y136.293 E.08215
G1 X64.987 Y136.2 E.00597
G1 X65.119 Y136.045 E.00638
G1 X65.196 Y135.76 E.00926
G1 X65.196 Y131.76 E.12542
G1 X67.631 Y131.76 E.07635
G1 X67.818 Y131.729 E.00594
G1 X68.088 Y131.528 E.01055
G1 X68.196 Y131.186 E.01125
G1 X68.178 Y130.043 E.03584
G1 X68.119 Y129.568 E.01501
G1 X68.3 Y129.753 E.00811
G1 X70.176 Y131.317 E.07658
G1 X71.596 Y132.736 E.06294
G1 X73.012 Y134.436 E.06937
G1 X73.344 Y134.793 E.01529
G1 X72.87 Y134.734 E.01498
G1 X71.727 Y134.716 E.03584
G1 X71.384 Y134.825 E.01128
G1 X71.184 Y135.095 E.01054
G1 X71.152 Y135.282 E.00595
G1 X71.152 Y137.716 E.07632
G1 X67.152 Y137.716 E.12542
G1 X67.028 Y137.73 E.00391
G1 X66.789 Y137.849 E.00837
G1 X66.62 Y138.091 E.00925
G1 X65.721 Y140.612 E.08392
G1 X65.119 Y143.012 E.07758
G1 X64.745 Y145.515 E.07935
G1 X64.618 Y148.098 E.08109
G1 X64.74 Y150.57 E.0776
G1 X65.109 Y153.074 E.07936
G1 X65.737 Y155.582 E.08106
G1 X66.62 Y158.05 E.08219
G1 X66.713 Y158.215 E.00594
G1 X66.867 Y158.348 E.00638
G1 X67.152 Y158.425 E.00926
G1 X71.152 Y158.425 E.12542
G1 X71.152 Y160.859 E.07632
M204 S1000
G1 X71.152 Y160.859 F10800
G1 X71.529 Y160.859
M204 S800
;TYPE:External perimeter
G1 F1200
G1 X71.557 Y160.958 E.00323
G1 X71.721 Y161.048 E.00587
G1 X72.864 Y161.029 E.03584
G1 X73.103 Y160.999 E.00755
G1 X73.806 Y160.848 E.02254
G1 X74.28 Y160.872 E.01488
G1 X73.996 Y161.247 E.01475
G1 X73.449 Y161.77 E.02373
G1 X71.875 Y163.659 E.07709
G1 X70.431 Y165.103 E.06403
G1 X68.525 Y166.692 E.07781
G1 X68.018 Y167.225 E.02306
G1 X67.644 Y167.508 E.01471
G1 X67.619 Y167.138 E.01163
G1 X67.733 Y166.6 E.01724
G1 X67.801 Y166.092 E.01607
G1 X67.819 Y164.949 E.03584
G1 X67.783 Y164.835 E.00375
G1 X67.631 Y164.758 E.00534
G1 X64.819 Y164.757 E.08817
G1 X64.819 Y160.381 E.13721
G1 X64.793 Y160.286 E.00309
G1 X64.694 Y160.203 E.00405
G1 X62.209 Y159.315 E.08274
G1 X59.808 Y158.714 E.0776
G1 X57.342 Y158.347 E.07817
G1 X54.833 Y158.224 E.07876
G1 X52.342 Y158.347 E.0782
M73 Q3 S14
G1 X49.876 Y158.714 E.07817
G1 X47.457 Y159.32 E.07819
G1 X44.935 Y160.234 E.08411
M73 P3 R14
G1 X44.865 Y160.381 E.0051
G1 X44.865 Y164.757 E.13721
G1 X42.053 Y164.758 E.08817
G1 X41.954 Y164.785 E.00322
G1 X41.865 Y164.949 E.00585
G1 X41.883 Y166.092 E.03584
G1 X41.913 Y166.331 E.00755
G1 X42.057 Y167.006 E.02164
G1 X42.055 Y167.516 E.01599
G1 X41.666 Y167.225 E.01523
G1 X41.143 Y166.678 E.02373
G1 X39.253 Y165.103 E.07714
G1 X37.809 Y163.659 E.06403
G1 X36.22 Y161.754 E.07778
G1 X35.688 Y161.247 E.02304
G1 X35.404 Y160.873 E.01472
G1 X35.774 Y160.848 E.01163
G1 X36.313 Y160.962 E.01727
G1 X36.82 Y161.029 E.01603
G1 X37.963 Y161.048 E.03584
G1 X38.077 Y161.012 E.00375
G1 X38.155 Y160.859 E.00538
G1 X38.155 Y158.048 E.08814
G1 X42.532 Y158.048 E.13724
G1 X42.627 Y158.022 E.00309
G1 X42.709 Y157.922 E.00405
G1 X43.597 Y155.438 E.08271
G1 X44.199 Y153.037 E.07761
G1 X44.565 Y150.57 E.0782
G1 X44.689 Y148.061 E.07876
G1 X44.565 Y145.571 E.07817
G1 X44.199 Y143.104 E.0782
G1 X43.592 Y140.685 E.0782
G1 X42.678 Y138.163 E.08411
G1 X42.532 Y138.093 E.00508
G1 X38.155 Y138.093 E.13724
G1 X38.155 Y135.282 E.08814
G1 X38.127 Y135.183 E.00323
G1 X37.963 Y135.093 E.00587
G1 X36.82 Y135.112 E.03584
G1 X36.581 Y135.142 E.00755
G1 X35.906 Y135.286 E.02164
G1 X35.397 Y135.284 E.01596
G1 X35.688 Y134.894 E.01526
G1 X36.235 Y134.371 E.02373
G1 X37.809 Y132.481 E.07712
G1 X39.253 Y131.038 E.06401
G1 X41.158 Y129.448 E.0778
G1 X41.666 Y128.916 E.02306
G1 X42.04 Y128.633 E.01471
G1 X42.065 Y129.002 E.0116
G1 X41.95 Y129.541 E.01728
G1 X41.883 Y130.049 E.01607
G1 X41.865 Y131.192 E.03584
G1 X41.901 Y131.306 E.00375
G1 X42.053 Y131.383 E.00534
G1 X44.865 Y131.383 E.08817
G1 X44.865 Y135.76 E.13724
G1 X44.89 Y135.855 E.00308
G1 X44.99 Y135.938 E.00407
G1 X47.475 Y136.826 E.08274
G1 X49.894 Y137.431 E.07818
G1 X52.342 Y137.794 E.07759
G1 X54.851 Y137.917 E.07876
G1 X57.342 Y137.794 E.0782
G1 X59.808 Y137.427 E.07817
G1 X62.227 Y136.82 E.0782
G1 X64.749 Y135.907 E.0841
G1 X64.819 Y135.76 E.0051
G1 X64.819 Y131.383 E.13724
G1 X67.631 Y131.383 E.08817
G1 X67.729 Y131.355 E.0032
G1 X67.819 Y131.192 E.00584
G1 X67.801 Y130.049 E.03584
G1 X67.77 Y129.81 E.00756
G1 X67.627 Y129.135 E.02163
G1 X67.628 Y128.625 E.01599
G1 X68.018 Y128.916 E.01526
G1 X68.541 Y129.463 E.02373
G1 X70.431 Y131.038 E.07714
G1 X71.875 Y132.481 E.06401
G1 X73.464 Y134.387 E.07781
G1 X73.996 Y134.894 E.02304
G1 X74.28 Y135.268 E.01472
G1 X73.91 Y135.293 E.01163
G1 X73.371 Y135.179 E.01727
G1 X72.864 Y135.112 E.01603
G1 X71.721 Y135.093 E.03584
G1 X71.606 Y135.129 E.00378
G1 X71.529 Y135.282 E.00537
G1 X71.529 Y138.093 E.08814
G1 X67.152 Y138.093 E.13724
G1 X67.057 Y138.119 E.00309
G1 X66.975 Y138.218 E.00403
G1 X66.087 Y140.703 E.08274
G1 X65.482 Y143.122 E.07818
G1 X65.118 Y145.571 E.07763
G1 X64.995 Y148.08 E.07876
G1 X65.118 Y150.57 E.07817
G1 X65.485 Y153.037 E.0782
G1 X66.092 Y155.455 E.07817
G1 X67.006 Y157.978 E.08414
G1 X67.152 Y158.048 E.00508
G1 X71.529 Y158.048 E.13724
G1 X71.529 Y160.799 E.08626
M204 S1000
;WIPE_START
G1 F8640
G1 X71.529 Y160.859 E-.01385
G1 X71.557 Y160.958 E-.02376
G1 X71.721 Y161.048 E-.0432
G1 X72.864 Y161.029 E-.26396
G1 X73.103 Y160.999 E-.05562
G1 X73.806 Y160.848 E-.16603
G1 X74.28 Y160.872 E-.10959
G1 X73.996 Y161.247 E-.10862
G1 X73.948 Y161.293 E-.01537
;WIPE_END
G1 Z.6 F720
G1 X72.671 Y134.292 F10800
G1 Z.2 F720
M73 Q4 S14
G1 E.8 F2100
M204 S800
;TYPE:Solid infill
;WIDTH:0.421728
G1 F1200
G1 X69.94 Y131.561 E.12165
G1 X68.523 Y130.38 E.0581
G1 X68.528 Y130.685 E.00961
M73 P4 R14
G1 X72.228 Y134.385 E.16482
G1 X71.689 Y134.382 E.01698
G1 X68.53 Y131.223 E.14072
G1 X68.401 Y131.63 E.01345
G1 X71.283 Y134.511 E.12836
G1 X71.19 Y134.541 E.00308
G1 X70.991 Y134.755 E.0092
G1 X68.157 Y131.921 E.12624
G1 X68.111 Y131.964 E.00198
G1 X67.926 Y132.052 E.00645
G1 X67.777 Y132.077 E.00476
G1 X70.835 Y135.135 E.13622
G1 X70.813 Y135.269 E.00428
G1 X70.813 Y135.648 E.01194
G1 X67.264 Y132.1 E.15807
G1 X66.728 Y132.1 E.01688
G1 X70.813 Y136.184 E.18194
G1 X70.812 Y136.72 E.01688
G1 X66.193 Y132.1 E.20578
G1 X65.657 Y132.1 E.01688
G1 X70.812 Y137.255 E.22963
G1 X70.812 Y137.377 E.00384
G1 X70.398 Y137.377 E.01304
G1 X65.535 Y132.514 E.21662
G1 X65.535 Y133.05 E.01688
G1 X69.863 Y137.377 E.19277
G1 X69.327 Y137.377 E.01688
G1 X65.535 Y133.585 E.16891
G1 X65.535 Y134.121 E.01688
G1 X68.791 Y137.377 E.14504
G1 X68.256 Y137.377 E.01685
G1 X65.535 Y134.657 E.12118
G1 X65.535 Y135.193 E.01688
G1 X67.72 Y137.377 E.09731
G1 X67.184 Y137.377 E.01688
G1 X65.535 Y135.728 E.07345
G1 X65.514 Y135.963 E.00743
G1 X65.435 Y136.163 E.00677
G1 X66.749 Y137.477 E.05853
G1 X66.693 Y137.499 E.0019
G1 X66.447 Y137.711 E.01023
G1 X65.2 Y136.464 E.05555
G1 X64.947 Y136.608 E.00917
G1 X64.845 Y136.645 E.00342
G1 X66.268 Y138.068 E.06339
G1 X66.127 Y138.463 E.01321
G1 X64.45 Y136.785 E.07472
G1 X64.055 Y136.926 E.01321
G1 X65.986 Y138.858 E.08604
G1 X65.846 Y139.253 E.0132
G1 X63.66 Y137.067 E.09738
G1 X63.265 Y137.207 E.0132
G1 X65.705 Y139.648 E.10871
G1 X65.564 Y140.043 E.01321
G1 X62.87 Y137.348 E.12003
G1 X62.475 Y137.489 E.01321
G1 X65.423 Y140.438 E.13134
G1 X65.309 Y140.859 E.01374
G1 X62.053 Y137.603 E.14504
G1 X61.624 Y137.71 E.01393
G1 X65.202 Y141.288 E.15938
G1 X65.095 Y141.716 E.0139
G1 X61.195 Y137.817 E.1737
G1 X60.766 Y137.923 E.01392
G1 X64.988 Y142.145 E.18807
G1 X64.88 Y142.573 E.0139
G1 X60.337 Y138.03 E.20237
G1 X59.908 Y138.137 E.01393
G1 X64.776 Y143.004 E.21682
G1 X64.706 Y143.47 E.01484
G1 X59.442 Y138.207 E.23446
G1 X58.976 Y138.276 E.01484
G1 X64.637 Y143.937 E.25217
G1 X64.568 Y144.403 E.01484
M73 Q5 S14
G1 X58.509 Y138.345 E.26988
G1 X58.042 Y138.414 E.01487
M73 P5 R14
G1 X64.498 Y144.87 E.28758
G1 X64.429 Y145.336 E.01484
G1 X57.576 Y138.483 E.30527
G1 X57.081 Y138.524 E.01564
G1 X64.391 Y145.834 E.32562
G1 X64.366 Y146.344 E.01608
G1 X56.571 Y138.55 E.34721
G1 X56.061 Y138.575 E.01608
G1 X64.341 Y146.855 E.36883
G1 X64.316 Y147.366 E.01611
G1 X55.55 Y138.6 E.39048
G1 X55.04 Y138.625 E.01608
G1 X64.29 Y147.876 E.41206
G1 X64.279 Y148.107 E.00728
G1 X64.294 Y148.416 E.00974
G1 X54.493 Y138.615 E.43658
G1 X53.931 Y138.588 E.01772
G1 X64.322 Y148.979 E.46287
G1 X64.35 Y149.543 E.01779
G1 X53.368 Y138.561 E.48919
G1 X52.805 Y138.534 E.01775
G1 X64.378 Y150.107 E.51552
G1 X64.411 Y150.675 E.01792
G1 X52.238 Y138.502 E.54225
G1 X51.609 Y138.409 E.02003
G1 X64.504 Y151.304 E.57441
G1 X64.597 Y151.932 E.02
M73 P6 R14
M73 Q6 S14
G1 X50.98 Y138.315 E.60657
G1 X50.351 Y138.222 E.02003
G1 X64.69 Y152.561 E.63873
G1 X64.79 Y153.198 E.02031
G1 X49.718 Y138.125 E.6714
G1 X49.004 Y137.947 E.02318
G1 X64.968 Y153.911 E.71112
G1 X65.146 Y154.624 E.02315
G1 X48.29 Y137.768 E.75085
G1 X47.575 Y137.589 E.02322
G1 X65.323 Y155.338 E.79061
G1 X65.393 Y155.619 E.00912
G1 X65.573 Y156.123 E.01686
G1 X46.789 Y137.339 E.83673
G1 X45.957 Y137.043 E.02782
G1 X66.149 Y157.235 E.89945
M204 S1000
;WIPE_START
G1 F8640
M73 P7 R14
M73 Q7 S14
G1 X63.699 Y154.785 E-.8
;WIPE_END
G1 Z.6 F720
G1 X70.187 Y158.594 F10800
G1 Z.2 F720
G1 E.8 F2100
M204 S800
G1 F1200
G1 X70.812 Y159.22 E.02786
G1 X70.813 Y159.755 E.01685
G1 X69.821 Y158.764 E.04417
G1 X69.285 Y158.764 E.01688
G1 X70.982 Y160.461 E.07559
M204 S1000
;WIPE_START
G1 F8640
G1 X69.285 Y158.764 E-.55415
G1 X69.821 Y158.764 E-.12376
G1 X70.195 Y159.138 E-.12209
;WIPE_END
G1 Z.6 F720
G1 X72.11 Y161.588 F10800
G1 Z.2 F720
G1 E.8 F2100
M204 S800
G1 F1200
G1 X72.414 Y161.893 E.01356
G1 X72.171 Y162.185 E.01197
G1 X71.75 Y161.764 E.01875
G1 X71.19 Y161.6 E.01838
G1 X70.948 Y161.339 E.01121
G1 X70.861 Y161.154 E.00644
G1 X70.813 Y160.827 E.01041
G1 X68.75 Y158.764 E.0919
G1 X68.214 Y158.764 E.01688
G1 X71.927 Y162.477 E.1654
G1 X71.684 Y162.769 E.01197
G1 X67.509 Y158.594 E.18598
M204 S1000
;WIPE_START
G1 F8640
G1 X69.959 Y161.044 E-.8
;WIPE_END
G1 Z.6 F720
G1 X44.318 Y132.725 F10800
G1 Z.2 F720
G1 E.8 F2100
M204 S800
G1 F1200
G1 X43.693 Y132.1 E.02784
G1 X43.157 Y132.1 E.01688
G1 X44.148 Y133.091 E.04414
G1 X44.148 Y133.627 E.01688
G1 X42.452 Y131.93 E.07557
M204 S1000
;WIPE_START
G1 F8640
G1 X44.148 Y133.627 E-.55399
G1 X44.148 Y133.091 E-.12376
G1 X43.774 Y132.717 E-.12225
;WIPE_END
G1 Z.6 F720
G1 X41.324 Y130.803 F10800
G1 Z.2 F720
G1 E.8 F2100
M204 S800
G1 F1200
G1 X41.02 Y130.498 E.01356
G1 X40.727 Y130.742 E.01201
G1 X41.149 Y131.163 E.01878
G1 X41.312 Y131.723 E.01837
G1 X41.573 Y131.964 E.01119
G1 X41.758 Y132.052 E.00645
