; generated by PrusaSlicer 2.7.4+linux-x64-GTK3 on 2024-04-29 at 09:22:44 UTC


;
;
; 

; external perimeters extrusion width = 0.45mm
; perimeters extrusion width = 0.45mm
; infill extrusion width = 0.45mm
; solid infill extrusion width = 0.45mm
; top infill extrusion width = 0.40mm
; first layer extrusion width = 0.42mm

; external perimeters extrusion width = 0.45mm
; perimeters extrusion width = 0.45mm
; infill extrusion width = 0.45mm
; solid infill extrusion width = 0.45mm
; top infill extrusion width = 0.40mm
; first layer extrusion width = 0.42mm

M73 P0 R62
M73 Q0 S63
M201 X1000 Y1000 Z200 E5000 ; sets maximum accelerations, mm/sec^2
M203 X200 Y200 Z12 E120 ; sets maximum feedrates, mm / sec
M204 S1250 T1250 ; sets acceleration (S) and retract acceleration (R), mm/sec^2
M205 X8.00 Y8.00 Z0.40 E4.50 ; sets the jerk limits, mm/sec
M205 S0 T0 ; sets the minimum extruding and travel feed rate, mm/sec

; printing object omni-roller-mould.stl id:0 copy 0
; stop printing object omni-roller-mould.stl id:0 copy 0
; printing object omni-roller-mould.stl id:1 copy 0
; stop printing object omni-roller-mould.stl id:1 copy 0

;TYPE:Custom
M862.3 P "MK3" ; printer model check
M862.1 P0.4 ; nozzle diameter check
M115 U3.13.3 ; tell printer latest fw version
G90 ; use absolute coordinates
M83 ; extruder relative mode
M104 S215 ; set extruder temp
M140 S60 ; set bed temp
M190 S60 ; wait for bed temp
M109 S215 ; wait for extruder temp
G28 W ; home all without mesh bed level
G80 X9.15626 Y160.944 W53.9827 H36.0481 ; mesh bed levelling

G1 Z0.2 F720
G1 Y-3 F1000 ; go outside print area
G92 E0
G1 X60 E9 F1000 ; intro line
G1 X100 E12.5 F1000 ; intro line

G92 E0
M221 S95

; Don't change E values below. Excessive value can damage the printer.
M907 E430 ; set extruder motor current
G21 ; set units to millimeters
G90 ; use absolute coordinates
M83 ; use relative distances for extrusion

M900 K0.05 ; Filament gcode LA 1.5
M900 K30 ; Filament gcode LA 1.0




M107
;LAYER_CHANGE
;Z:0.2
;HEIGHT:0.2
G1 E-.8 F2100
G1 Z.6 F720
G1 X11.722 Y161.133 F10800
G1 Z.2 F720
G1 E.8 F2100
M204 S800
;TYPE:Skirt/Brim
;WIDTH:0.42
G1 F1200
G1 X31.722 Y161.133 E.62709
G1 X60.649 Y162.051 E.90744
G1 X61.943 Y162.484 E.04278
G1 X62.786 Y163.557 E.04278
G1 X62.95 Y164.427 E.02776
G1 X62.95 Y194.427 E.94063
G1 X62.559 Y195.734 E.04277
G1 X61.513 Y196.61 E.04278
G1 X60.573 Y196.804 E.03009
G1 X40.573 Y196.804 E.62709
G1 X11.646 Y195.886 E.90744
G1 X10.352 Y195.453 E.04278
G1 X9.51 Y194.38 E.04276
G1 X9.345 Y193.51 E.02776
G1 X9.345 Y163.51 E.94063
G1 X9.736 Y162.203 E.04277
G1 X10.782 Y161.326 E.0428
G1 X11.663 Y161.145 E.0282
M204 S1000
;WIPE_START
G1 F8640
G1 X11.722 Y161.133 E-.0139
G1 X15.126 Y161.133 E-.7861
;WIPE_END
G1 Z.6 F720
; printing object omni-roller-mould.stl id:0 copy 0
G1 X22.322 Y165.069 F10800
G1 Z.2 F720
G1 E.8 F2100
M204 S800
;TYPE:Perimeter
;WIDTH:0.419999
G1 F1200
G1 X22.473 Y165.027 E.00491
G1 X22.946 Y164.706 E.01792
G1 X23.267 Y164.297 E.0163
G1 X30.935 Y164.297 E.24042
G1 X30.935 Y165.646 E.0423
G1 X30.935 Y192.723 E.84898
G1 X12.509 Y192.723 E.57773
G1 X12.509 Y164.297 E.89128
G1 X20.183 Y164.297 E.24061
G1 X20.499 Y164.707 E.01623
M73 Q0 S62
G1 X20.879 Y164.987 E.0148
G1 X21.335 Y165.15 E.01518
G1 X21.912 Y165.183 E.01812
G1 X22.265 Y165.085 E.01149
M204 S1000
G1 X22.265 Y165.085 F10800
G1 X22.126 Y164.747
M204 S800
;TYPE:External perimeter
G1 F1200
G1 X22.22 Y164.728 E.00301
G1 X22.612 Y164.502 E.01419
G1 X22.916 Y164.157 E.01442
G1 X23.024 Y163.92 E.00817
G1 X31.312 Y163.92 E.25986
G1 X31.312 Y165.646 E.05412
G1 X31.312 Y193.1 E.8608
G1 X12.132 Y193.1 E.60137
G1 X12.132 Y163.92 E.91492
G1 X20.412 Y163.92 E.25961
G1 X20.685 Y164.363 E.01632
G1 X21.036 Y164.641 E.01404
G1 X21.325 Y164.763 E.00984
G1 X21.77 Y164.818 E.01406
G1 X22.067 Y164.759 E.00949
M204 S1000
;WIPE_START
G1 F8640
G1 X22.126 Y164.747 E-.0139
G1 X22.22 Y164.728 E-.02214
G1 X22.612 Y164.502 E-.10448
G1 X22.916 Y164.157 E-.10618
G1 X23.024 Y163.92 E-.06014
G1 X25.16 Y163.92 E-.49316
;WIPE_END
G1 Z.6 F720
G1 X28.863 Y168.089 F10800
G1 Z.2 F720
G1 E.8 F2100
M204 S800
;TYPE:Perimeter
G1 F1200
G1 X28.832 Y168.157 E.00234
G1 X28.654 Y168.391 E.00922
G1 X28.452 Y168.557 E.0082
G1 X27.937 Y168.784 E.01765
G1 X27.4 Y168.761 E.01685
G1 X26.986 Y168.563 E.01439
G1 X26.801 Y168.406 E.00761
G1 X26.537 Y168.025 E.01453
G1 X26.433 Y167.563 E.01485
G1 X26.488 Y167.135 E.01353
G1 X26.71 Y166.718 E.01481
G1 X26.877 Y166.542 E.00761
G1 X27.135 Y166.366 E.00979
G1 X27.361 Y166.276 E.00763
G1 X27.761 Y166.218 E.01267
G1 X28.196 Y166.318 E.01399
G1 X28.521 Y166.502 E.01171
G1 X28.832 Y166.862 E.01492
G1 X28.934 Y167.083 E.00763
G1 X29.014 Y167.51 E.01362
G1 X28.934 Y167.937 E.01362
G1 X28.888 Y168.035 E.00339
M204 S1000
G1 X28.888 Y168.035 F10800
G1 X28.529 Y167.932
M204 S800
;TYPE:External perimeter
G1 F1200
G1 X28.286 Y168.218 E.01177
G1 X27.829 Y168.415 E.0156
G1 X27.439 Y168.377 E.01229
G1 X27.163 Y168.23 E.0098
G1 X26.887 Y167.885 E.01385
G1 X26.81 Y167.485 E.01277
G1 X26.875 Y167.175 E.00993
G1 X27.088 Y166.854 E.01208
G1 X27.422 Y166.649 E.01229
G1 X27.812 Y166.602 E.01232
G1 X28.151 Y166.707 E.01113
G1 X28.353 Y166.856 E.00787
G1 X28.566 Y167.164 E.01174
G1 X28.633 Y167.55 E.01228
G1 X28.546 Y167.875 E.01055
M204 S1000
;WIPE_START
G1 F8640
G1 X28.529 Y167.932 E-.01373
G1 X28.286 Y168.218 E-.08666
G1 X27.829 Y168.415 E-.11491
G1 X27.439 Y168.377 E-.09048
G1 X27.163 Y168.23 E-.0722
G1 X26.887 Y167.885 E-.10202
G1 X26.81 Y167.485 E-.09406
G1 X26.875 Y167.175 E-.07314
G1 X27.088 Y166.854 E-.08895
G1 X27.324 Y166.709 E-.06385
;WIPE_END
G1 Z.6 F720
G1 X14.541 Y190.004 F10800
G1 Z.2 F720
G1 E.8 F2100
M204 S800
;TYPE:Perimeter
G1 F1200
G1 X14.51 Y189.937 E.00231
G1 X14.431 Y189.516 E.01343
G1 X14.478 Y189.181 E.01061
G1 X14.71 Y188.718 E.01624
G1 X14.877 Y188.542 E.00761
G1 X15.135 Y188.366 E.00979
G1 X15.361 Y188.276 E.00763
G1 X15.806 Y188.22 E.01406
G1 X16.319 Y188.368 E.01674
G1 X16.654 Y188.628 E.0133
G1 X16.906 Y188.993 E.01391
G1 X17.014 Y189.496 E.01613
G1 X16.934 Y189.937 E.01405
G1 X16.832 Y190.157 E.0076
G1 X16.654 Y190.391 E.00922
G1 X16.452 Y190.557 E.0082
G1 X15.937 Y190.784 E.01765
G1 X15.497 Y190.775 E.0138
G1 X15.263 Y190.71 E.00761
G1 X14.839 Y190.451 E.01558
G1 X14.612 Y190.157 E.01165
G1 X14.566 Y190.058 E.00342
M204 S1000
G1 X14.566 Y190.058 F10800
G1 X14.9 Y189.887
M204 S800
;TYPE:External perimeter
G1 F1200
G1 X14.878 Y189.855 E.00122
G1 X14.81 Y189.485 E.0118
G1 X14.875 Y189.175 E.00993
G1 X15.088 Y188.854 E.01208
G1 X15.422 Y188.649 E.01229
G1 X15.812 Y188.602 E.01232
G1 X16.151 Y188.707 E.01113
G1 X16.353 Y188.856 E.00787
G1 X16.566 Y189.164 E.01174
G1 X16.633 Y189.55 E.01228
G1 X16.566 Y189.855 E.00979
G1 X16.354 Y190.163 E.01172
G1 X15.872 Y190.413 E.01702
G1 X15.439 Y190.377 E.01362
G1 X15.101 Y190.178 E.0123
G1 X14.934 Y189.937 E.00919
M204 S1000
;WIPE_START
G1 F8640
G1 X14.9 Y189.887 E-.01396
G1 X14.878 Y189.855 E-.00897
G1 X14.81 Y189.485 E-.08686
G1 X14.875 Y189.175 E-.07314
G1 X15.088 Y188.854 E-.08895
G1 X15.422 Y188.649 E-.09049
G1 X15.812 Y188.602 E-.0907
G1 X16.151 Y188.707 E-.08194
G1 X16.353 Y188.856 E-.05796
G1 X16.566 Y189.164 E-.08647
G1 X16.633 Y189.55 E-.09046
G1 X16.605 Y189.678 E-.0301
;WIPE_END
G1 Z.6 F720
G1 X29.996 Y164.467 F10800
G1 Z.2 F720
G1 E.8 F2100
M204 S800
;TYPE:Solid infill
;WIDTH:0.423181
G1 F1200
G1 X30.595 Y165.066 E.02678
G1 X30.595 Y165.604 E.01701
G1 X29.628 Y164.636 E.04326
G1 X29.09 Y164.636 E.01701
G1 X30.595 Y166.141 E.0673
G1 X30.595 Y166.679 E.01701
G1 X28.552 Y164.636 E.09135
G1 X28.015 Y164.636 E.01698
G1 X30.595 Y167.217 E.11539
G1 X30.595 Y167.755 E.01701
G1 X27.477 Y164.636 E.13945
G1 X26.939 Y164.636 E.01701
G1 X30.595 Y168.292 E.16348
G1 X30.595 Y168.83 E.01701
G1 X29.348 Y167.583 E.05576
G1 X29.259 Y168.032 E.01447
G1 X30.595 Y169.368 E.05974
G1 X30.595 Y169.906 E.01701
G1 X29.08 Y168.391 E.06774
G1 X28.913 Y168.611 E.00873
G1 X28.831 Y168.679 E.00337
G1 X30.595 Y170.444 E.0789
G1 X30.595 Y170.981 E.01698
G1 X28.517 Y168.903 E.09292
G1 X28.147 Y169.071 E.01285
G1 X30.595 Y171.519 E.10946
G1 X30.595 Y172.057 E.01701
G1 X27.474 Y168.935 E.13958
M204 S1000
;WIPE_START
G1 F8640
G1 X29.924 Y171.385 E-.8
;WIPE_END
G1 Z.6 F720
G1 X27.822 Y166.057 F10800
G1 Z.2 F720
G1 E.8 F2100
M204 S800
G1 F1200
G1 X26.401 Y164.636 E.06354
G1 X25.864 Y164.636 E.01698
G1 X27.204 Y165.977 E.05994
G1 X26.958 Y166.077 E.0084
G1 X26.844 Y166.154 E.00435
G1 X25.326 Y164.636 E.06788
G1 X24.788 Y164.636 E.01701
G1 X26.551 Y166.399 E.07883
G1 X26.427 Y166.529 E.00568
G1 X26.321 Y166.707 E.00655
G1 X24.25 Y164.636 E.09261
G1 X23.713 Y164.636 E.01698
G1 X26.154 Y167.077 E.10915
G1 X26.102 Y167.378 E.00966
G1 X26.095 Y167.556 E.00563
G1 X23.322 Y164.783 E.124
G1 X23.201 Y164.93 E.00602
G1 X23.061 Y165.061 E.00606
G1 X30.595 Y172.595 E.33689
G1 X30.595 Y173.132 E.01698
G1 X22.73 Y165.267 E.35169
G1 X22.64 Y165.323 E.00335
G1 X22.356 Y165.43 E.0096
G1 X30.595 Y173.67 E.36844
G1 X30.595 Y174.208 E.01701
G1 X21.906 Y165.518 E.38856
G1 X21.808 Y165.537 E.00316
G1 X21.335 Y165.485 E.01505
G1 X30.595 Y174.746 E.41409
G1 X30.595 Y175.283 E.01698
G1 X19.948 Y164.636 E.47609
G1 X19.41 Y164.636 E.01701
M73 Q1 S62
G1 X30.595 Y175.821 E.50015
G1 X30.595 Y176.359 E.01701
M73 P1 R62
G1 X18.873 Y164.636 E.52418
G1 X18.335 Y164.636 E.01701
G1 X30.595 Y176.897 E.54824
G1 X30.595 Y177.435 E.01701
G1 X17.797 Y164.636 E.57229
G1 X17.259 Y164.636 E.01701
G1 X30.595 Y177.972 E.59633
G1 X30.595 Y178.51 E.01701
G1 X16.722 Y164.636 E.62036
G1 X16.184 Y164.636 E.01701
G1 X30.595 Y179.048 E.64442
G1 X30.595 Y179.586 E.01701
G1 X15.646 Y164.636 E.66848
G1 X15.108 Y164.636 E.01701
G1 X30.595 Y180.123 E.69251
G1 X30.595 Y180.661 E.01701
G1 X14.57 Y164.636 E.71657
G1 X14.033 Y164.636 E.01698
G1 X30.595 Y181.199 E.74061
G1 X30.595 Y181.737 E.01701
G1 X13.495 Y164.636 E.76466
G1 X12.957 Y164.636 E.01701
G1 X30.595 Y182.275 E.78872
G1 X30.595 Y182.812 E.01698
G1 X12.848 Y165.065 E.79357
G1 X12.848 Y165.603 E.01701
G1 X30.595 Y183.35 E.79357
G1 X30.595 Y183.888 E.01701
G1 X12.848 Y166.141 E.79357
G1 X12.848 Y166.678 E.01698
G1 X30.595 Y184.426 E.79359
G1 X30.595 Y184.963 E.01698
G1 X12.848 Y167.216 E.79357
G1 X12.848 Y167.754 E.01701
M73 P1 R61
G1 X30.595 Y185.501 E.79357
G1 X30.595 Y186.039 E.01701
G1 X12.848 Y168.292 E.79357
G1 X12.848 Y168.83 E.01701
G1 X30.595 Y186.577 E.79357
G1 X30.595 Y187.114 E.01698
G1 X12.848 Y169.367 E.79357
G1 X12.848 Y169.905 E.01701
G1 X30.595 Y187.652 E.79357
G1 X30.595 Y188.19 E.01701
G1 X12.848 Y170.443 E.79357
G1 X12.848 Y170.981 E.01701
G1 X30.595 Y188.728 E.79357
G1 X30.595 Y189.266 E.01701
G1 X12.848 Y171.518 E.79359
G1 X12.848 Y172.056 E.01701
G1 X30.595 Y189.803 E.79357
G1 X30.595 Y190.341 E.01701
G1 X12.848 Y172.594 E.79357
G1 X12.848 Y173.132 E.01701
G1 X30.595 Y190.879 E.79357
G1 X30.595 Y191.417 E.01701
G1 X12.848 Y173.67 E.79357
G1 X12.848 Y174.207 E.01698
G1 X30.595 Y191.954 E.79357
G1 X30.595 Y192.383 E.01356
G1 X30.487 Y192.383 E.00341
G1 X12.848 Y174.745 E.78872
G1 X12.848 Y175.283 E.01701
M73 P2 R61
M73 Q2 S62
G1 X29.949 Y192.383 E.76466
G1 X29.411 Y192.383 E.01701
G1 X12.848 Y175.821 E.74061
G1 X12.848 Y176.358 E.01698
G1 X28.873 Y192.383 E.71657
G1 X28.336 Y192.383 E.01698
G1 X12.848 Y176.896 E.69254
G1 X12.848 Y177.434 E.01701
G1 X27.798 Y192.383 E.66848
G1 X27.26 Y192.383 E.01701
M73 Q2 S61
G1 X12.848 Y177.972 E.64442
G1 X12.848 Y178.509 E.01698
G1 X26.722 Y192.383 E.62039
G1 X26.184 Y192.383 E.01701
G1 X12.848 Y179.047 E.59633
G1 X12.848 Y179.585 E.01701
G1 X25.647 Y192.383 E.57229
G1 X25.109 Y192.383 E.01701
G1 X12.848 Y180.123 E.54824
G1 X12.848 Y180.661 E.01701
G1 X24.571 Y192.383 E.52418
G1 X24.033 Y192.383 E.01701
G1 X12.848 Y181.198 E.50015
G1 X12.848 Y181.736 E.01701
G1 X23.496 Y192.383 E.47611
G1 X22.958 Y192.383 E.01701
G1 X12.848 Y182.274 E.45205
G1 X12.848 Y182.812 E.01701
G1 X22.42 Y192.383 E.428
G1 X21.882 Y192.383 E.01701
G1 X12.848 Y183.349 E.40396
G1 X12.848 Y183.887 E.01701
G1 X21.345 Y192.383 E.37993
G1 X20.807 Y192.383 E.01701
G1 X12.848 Y184.425 E.35587
G1 X12.848 Y184.963 E.01701
G1 X15.769 Y187.883 E.13059
G1 X15.292 Y187.944 E.01521
G1 X12.848 Y185.5 E.10929
G1 X12.848 Y186.038 E.01701
G1 X14.916 Y188.106 E.09247
G1 X14.673 Y188.27 E.00927
G1 X14.609 Y188.337 E.00293
G1 X12.848 Y186.576 E.07874
G1 X12.848 Y187.114 E.01701
G1 X14.366 Y188.631 E.06786
G1 X14.254 Y188.818 E.00689
G1 X14.189 Y188.993 E.0059
G1 X12.848 Y187.652 E.05996
G1 X12.848 Y188.189 E.01698
G1 X14.269 Y189.61 E.06354
M204 S1000
;WIPE_START
G1 F8640
G1 X12.848 Y188.189 E-.46402
G1 X12.848 Y187.652 E-.12399
G1 X13.497 Y188.301 E-.21199
;WIPE_END
G1 Z.6 F720
G1 X17.144 Y189.258 F10800
G1 Z.2 F720
G1 E.8 F2100
M204 S800
G1 F1200
G1 X20.269 Y192.383 E.13974
G1 X19.731 Y192.383 E.01701
G1 X17.282 Y189.934 E.10951
G1 X17.262 Y190.025 E.00295
G1 X17.127 Y190.317 E.01017
G1 X19.193 Y192.383 E.09238
G1 X18.656 Y192.383 E.01698
G1 X16.897 Y190.624 E.07866
G1 X16.598 Y190.863 E.0121
G1 X18.118 Y192.383 E.06797
G1 X17.58 Y192.383 E.01701
G1 X16.237 Y191.04 E.06005
G1 X16 Y191.119 E.0079
G1 X15.789 Y191.13 E.00668
G1 X17.042 Y192.383 E.05603
G1 X16.505 Y192.383 E.01698
G1 X12.848 Y188.727 E.1635
G1 X12.848 Y189.265 E.01701
G1 X15.967 Y192.383 E.13945
G1 X15.429 Y192.383 E.01701
G1 X12.848 Y189.803 E.11539
G1 X12.848 Y190.34 E.01698
G1 X14.891 Y192.383 E.09135
G1 X14.353 Y192.383 E.01701
G1 X12.848 Y190.878 E.0673
G1 X12.848 Y191.416 E.01701
G1 X13.816 Y192.383 E.04326
G1 X13.278 Y192.383 E.01701
G1 X12.679 Y191.784 E.02678
M204 S1000
;WIPE_START
G1 F8640
G1 X13.278 Y192.383 E-.1956
G1 X13.816 Y192.383 E-.12423
G1 X12.848 Y191.416 E-.31593
G1 X12.848 Y190.878 E-.12423
G1 X12.971 Y191.001 E-.04001
;WIPE_END
G1 Z.6 F720
; stop printing object omni-roller-mould.stl id:0 copy 0
; printing object omni-roller-mould.stl id:1 copy 0
G1 X51.174 Y165.986 F10800
G1 Z.2 F720
G1 E.8 F2100
M204 S800
;TYPE:Perimeter
;WIDTH:0.419999
G1 F1200
G1 X51.324 Y165.944 E.00488
G1 X51.797 Y165.623 E.01792
G1 X52.119 Y165.214 E.01632
G1 X59.786 Y165.214 E.24039
G1 X59.786 Y166.563 E.0423
G1 X59.786 Y193.64 E.84898
G1 X41.36 Y193.64 E.57773
G1 X41.36 Y165.214 E.89128
G1 X49.034 Y165.214 E.24061
G1 X49.351 Y165.624 E.01625
G1 X49.731 Y165.904 E.0148
G1 X50.186 Y166.067 E.01515
G1 X50.764 Y166.1 E.01815
G1 X51.116 Y166.002 E.01146
M204 S1000
G1 X51.116 Y166.002 F10800
G1 X50.978 Y165.664
M204 S800
;TYPE:External perimeter
G1 F1200
G1 X51.072 Y165.645 E.00301
G1 X51.463 Y165.419 E.01416
G1 X51.768 Y165.074 E.01444
G1 X51.876 Y164.837 E.00817
G1 X60.163 Y164.837 E.25983
G1 X60.163 Y166.563 E.05412
G1 X60.163 Y194.017 E.8608
G1 X40.983 Y194.017 E.60137
G1 X40.983 Y164.837 E.91492
G1 X49.263 Y164.837 E.25961
G1 X49.536 Y165.28 E.01632
G1 X49.888 Y165.558 E.01406
G1 X50.177 Y165.68 E.00984
G1 X50.621 Y165.735 E.01403
G1 X50.919 Y165.675 E.00953
M204 S1000
;WIPE_START
G1 F8640
G1 X50.978 Y165.664 E-.01386
G1 X51.072 Y165.645 E-.02214
G1 X51.463 Y165.419 E-.10428
G1 X51.768 Y165.074 E-.10633
G1 X51.876 Y164.837 E-.06014
G1 X54.012 Y164.837 E-.49325
;WIPE_END
G1 Z.6 F720
G1 X57.715 Y169.006 F10800
G1 Z.2 F720
G1 E.8 F2100
M204 S800
;TYPE:Perimeter
G1 F1200
G1 X57.683 Y169.074 E.00236
G1 X57.505 Y169.308 E.00922
G1 X57.304 Y169.474 E.00817
G1 X56.789 Y169.701 E.01765
G1 X56.251 Y169.678 E.01688
G1 X55.838 Y169.48 E.01436
G1 X55.653 Y169.323 E.00761
G1 X55.389 Y168.942 E.01453
G1 X55.284 Y168.48 E.01486
G1 X55.339 Y168.051 E.01356
G1 X55.561 Y167.635 E.01478
G1 X55.728 Y167.459 E.00761
G1 X55.987 Y167.283 E.00982
G1 X56.213 Y167.193 E.00763
G1 X56.613 Y167.135 E.01267
G1 X57.048 Y167.235 E.01399
G1 X57.372 Y167.419 E.01168
G1 X57.683 Y167.779 E.01492
G1 X57.785 Y168 E.00763
G1 X57.866 Y168.427 E.01363
G1 X57.785 Y168.853 E.0136
G1 X57.74 Y168.952 E.00341
M204 S1000
G1 X57.74 Y168.952 F10800
G1 X57.381 Y168.849
M204 S800
;TYPE:External perimeter
G1 F1200
G1 X57.138 Y169.135 E.01177
G1 X56.681 Y169.332 E.0156
G1 X56.291 Y169.293 E.01229
G1 X56.015 Y169.147 E.00979
G1 X55.739 Y168.802 E.01385
G1 X55.662 Y168.402 E.01277
G1 X55.726 Y168.092 E.00992
