; generated by PrusaSlicer 2.7.4+linux-x64-GTK3 on 2024-04-29 at 09:15:08 UTC


;
;
; 

; external perimeters extrusion width = 0.45mm
; perimeters extrusion width = 0.45mm
; infill extrusion width = 0.45mm
; solid infill extrusion width = 0.45mm
; top infill extrusion width = 0.40mm
; first layer extrusion width = 0.42mm

; external perimeters extrusion width = 0.45mm
; perimeters extrusion width = 0.45mm
; infill extrusion width = 0.45mm
; solid infill extrusion width = 0.45mm
; top infill extrusion width = 0.40mm
; first layer extrusion width = 0.42mm

M73 P0 R110
M73 Q0 S110
M201 X1000 Y1000 Z200 E5000 ; sets maximum accelerations, mm/sec^2
M203 X200 Y200 Z12 E120 ; sets maximum feedrates, mm / sec
M204 S1250 T1250 ; sets acceleration (S) and retract acceleration (R), mm/sec^2
M205 X8.00 Y8.00 Z0.40 E4.50 ; sets the jerk limits, mm/sec
M205 S0 T0 ; sets the minimum extruding and travel feed rate, mm/sec

; printing object omniwheel_frame1_mould.stl id:0 copy 0
; stop printing object omniwheel_frame1_mould.stl id:0 copy 0
; printing object omniwheel_frame2_mould.stl id:1 copy 0
; stop printing object omniwheel_frame2_mould.stl id:1 copy 0

;TYPE:Custom
M862.3 P "MK3" ; printer model check
M862.1 P0.4 ; nozzle diameter check
M115 U3.13.3 ; tell printer latest fw version
G90 ; use absolute coordinates
M83 ; extruder relative mode
M104 S215 ; set extruder temp
M140 S60 ; set bed temp
M190 S60 ; wait for bed temp
M109 S215 ; wait for extruder temp
G28 W ; home all without mesh bed level
G80 X10.365 Y131.384 W128.857 H65.2355 ; mesh bed levelling

G1 Z0.2 F720
G1 Y-3 F1000 ; go outside print area
G92 E0
G1 X60 E9 F1000 ; intro line
G1 X100 E12.5 F1000 ; intro line

G92 E0
M221 S95

; Don't change E values below. Excessive value can damage the printer.
M907 E430 ; set extruder motor current
G21 ; set units to millimeters
G90 ; use absolute coordinates
M83 ; use relative distances for extrusion

M900 K0.05 ; Filament gcode LA 1.5
M900 K30 ; Filament gcode LA 1.0




M107
;LAYER_CHANGE
;Z:0.2
;HEIGHT:0.2
G1 E-.8 F2100
M73 P0 R109
G1 Z.6 F720
G1 X34.279 Y131.671 F10800
G1 Z.2 F720
G1 E.8 F2100
M204 S800
;TYPE:Skirt/Brim
;WIDTH:0.42
G1 F1200
G1 X34.957 Y131.572 E.02148
G1 X49.258 Y131.573 E.4484
G1 X114.696 Y133.391 E2.05255
G1 X115.308 Y133.488 E.01943
G1 X118.383 Y134.415 E.1007
G1 X121.137 Y135.542 E.0933
G1 X123.98 Y137.037 E.10071
G1 X126.661 Y138.806 E.10071
G1 X129.153 Y140.832 E.1007
G1 X131.433 Y143.094 E.1007
G1 X133.477 Y145.572 E.10072
G1 X135.265 Y148.24 E.1007
G1 X136.78 Y151.072 E.1007
G1 X138.007 Y154.04 E.1007
G1 X138.934 Y157.115 E.1007
G1 X139.033 Y157.793 E.02148
G1 X139.033 Y172.028 E.44633
G1 X138.934 Y172.706 E.02148
G1 X138.007 Y175.781 E.1007
G1 X136.78 Y178.749 E.1007
G1 X135.386 Y181.378 E.0933
G1 X133.617 Y184.059 E.10071
G1 X131.591 Y186.551 E.1007
G1 X129.328 Y188.83 E.1007
G1 X126.661 Y191.014 E.10808
G1 X123.98 Y192.783 E.10071
G1 X121.137 Y194.278 E.10071
G1 X118.161 Y195.483 E.10067
G1 X115.308 Y196.332 E.09333
G1 X114.63 Y196.431 E.02148
G1 X100.329 Y196.43 E.4484
G1 X34.891 Y194.612 E2.05255
G1 X34.279 Y194.515 E.01943
G1 X31.204 Y193.588 E.1007
G1 X28.449 Y192.461 E.09333
G1 X25.606 Y190.966 E.10071
G1 X22.925 Y189.197 E.10071
G1 X20.475 Y187.206 E.09899
G1 X17.996 Y184.734 E.10977
G1 X15.97 Y182.241 E.10072
G1 X14.201 Y179.561 E.10068
G1 X12.806 Y176.931 E.09334
G1 X11.579 Y173.963 E.1007
G1 X10.652 Y170.888 E.1007
G1 X10.554 Y170.21 E.02148
G1 X10.554 Y155.975 E.44633
G1 X10.652 Y155.298 E.02145
G1 X11.579 Y152.222 E.10073
G1 X12.706 Y149.468 E.0933
G1 X14.201 Y146.625 E.10071
G1 X15.97 Y143.944 E.10071
G1 X17.996 Y141.452 E.1007
G1 X20.433 Y139.014 E.10808
G1 X22.925 Y136.989 E.10068
G1 X25.606 Y135.22 E.10071
G1 X28.449 Y133.725 E.10071
G1 X31.204 Y132.598 E.09333
G1 X34.221 Y131.688 E.09881
M204 S1000
;WIPE_START
G1 F8640
G1 X34.279 Y131.671 E-.01396
G1 X34.957 Y131.572 E-.15821
G1 X37.676 Y131.572 E-.62783
;WIPE_END
G1 Z.6 F720
; printing object omniwheel_frame1_mould.stl id:0 copy 0
G1 X34.692 Y177.788 F10800
G1 Z.2 F720
G1 E.8 F2100
M204 S800
;TYPE:Perimeter
;WIDTH:0.419999
G1 F1200
G1 X34.642 Y177.792 E.00157
G1 X34.396 Y177.898 E.0084
G1 X34.241 Y178.076 E.0074
G1 X34.169 Y178.35 E.00888
G1 X34.169 Y191.181 E.40231
G1 X32.366 Y190.644 E.05899
G1 X29.684 Y189.547 E.09085
G1 X27.123 Y188.189 E.09089
G1 X24.71 Y186.584 E.09087
G1 X22.468 Y184.748 E.09086
G1 X20.419 Y182.699 E.09086
G1 X18.583 Y180.457 E.09086
G1 X16.978 Y178.044 E.09087
G1 X15.62 Y175.483 E.09089
G1 X14.522 Y172.801 E.09087
G1 X13.986 Y170.997 E.05901
G1 X26.715 Y170.997 E.39911
G1 X26.909 Y170.99 E.00609
G1 X27.156 Y170.884 E.00843
G1 X27.311 Y170.707 E.00738
G1 X27.382 Y170.432 E.00891
G1 X27.382 Y155.754 E.46022
G1 X27.374 Y155.661 E.00293
G1 X27.269 Y155.414 E.00842
G1 X27.091 Y155.259 E.0074
G1 X26.816 Y155.188 E.00891
G1 X13.986 Y155.188 E.40227
G1 X14.522 Y153.385 E.05898
G1 X15.62 Y150.702 E.0909
G1 X16.978 Y148.142 E.09086
G1 X18.583 Y145.729 E.09087
G1 X20.419 Y143.487 E.09086
G1 X22.468 Y141.438 E.09086
G1 X24.71 Y139.602 E.09086
G1 X27.123 Y137.997 E.09087
G1 X29.684 Y136.639 E.09089
G1 X32.366 Y135.541 E.09087
G1 X34.169 Y135.005 E.05898
G1 X34.169 Y147.734 E.39911
G1 X34.177 Y147.928 E.00609
G1 X34.283 Y148.175 E.00843
G1 X34.46 Y148.33 E.00738
G1 X34.735 Y148.401 E.00891
G1 X49.413 Y148.401 E.46022
G1 X49.506 Y148.393 E.00293
G1 X49.752 Y148.288 E.00839
G1 X49.907 Y148.11 E.0074
G1 X49.979 Y147.835 E.00891
G1 X49.979 Y135.005 E.40227
G1 X51.782 Y135.541 E.05898
G1 X54.465 Y136.639 E.0909
G1 X57.025 Y137.997 E.09086
G1 X59.438 Y139.602 E.09087
G1 X61.68 Y141.438 E.09086
G1 X63.729 Y143.487 E.09086
G1 X65.565 Y145.729 E.09086
G1 X67.17 Y148.142 E.09087
G1 X68.528 Y150.702 E.09086
G1 X69.626 Y153.385 E.0909
G1 X70.162 Y155.188 E.05898
G1 X57.433 Y155.188 E.39911
G1 X57.239 Y155.196 E.00609
G1 X56.992 Y155.301 E.00842
G1 X56.837 Y155.479 E.0074
G1 X56.766 Y155.754 E.00891
G1 X56.766 Y170.432 E.46022
G1 X56.774 Y170.525 E.00293
G1 X56.879 Y170.771 E.00839
G1 X57.057 Y170.926 E.0074
G1 X57.332 Y170.997 E.00891
G1 X70.162 Y170.997 E.40227
G1 X69.645 Y172.737 E.05691
G1 X68.528 Y175.483 E.09295
G1 X67.17 Y178.044 E.09089
G1 X65.565 Y180.457 E.09087
G1 X63.729 Y182.699 E.09086
G1 X61.68 Y184.748 E.09086
G1 X59.438 Y186.584 E.09086
G1 X57.025 Y188.189 E.09087
G1 X54.465 Y189.547 E.09086
G1 X51.782 Y190.644 E.09088
G1 X49.979 Y191.181 E.05899
G1 X49.979 Y178.452 E.39911
G1 X49.971 Y178.257 E.00612
G1 X49.866 Y178.011 E.00839
G1 X49.688 Y177.856 E.0074
G1 X49.413 Y177.785 E.00891
G1 X34.752 Y177.785 E.45968
M204 S1000
G1 X34.752 Y177.785 F10800
G1 X34.735 Y178.162
M204 S800
;TYPE:External perimeter
G1 F1200
G1 X34.614 Y178.206 E.00404
G1 X34.547 Y178.35 E.00498
G1 X34.547 Y191.687 E.41817
G1 X32.24 Y191 E.07547
G1 X29.523 Y189.889 E.09204
G1 X26.93 Y188.513 E.09204
G1 X24.486 Y186.888 E.09202
G1 X22.215 Y185.028 E.09204
G1 X20.139 Y182.952 E.09205
G1 X18.279 Y180.681 E.09204
G1 X16.654 Y178.237 E.09202
G1 X15.278 Y175.643 E.09207
G1 X14.166 Y172.927 E.09202
G1 X13.48 Y170.62 E.07546
G1 X26.816 Y170.62 E.41814
G1 X26.938 Y170.576 E.00407
G1 X27.005 Y170.432 E.00498
G1 X27.005 Y155.754 E.46022
G1 X26.961 Y155.633 E.00404
G1 X26.816 Y155.565 E.00502
G1 X13.48 Y155.565 E.41814
G1 X14.166 Y153.259 E.07543
M73 Q0 S109
G1 X15.278 Y150.542 E.09205
G1 X16.654 Y147.949 E.09204
G1 X18.279 Y145.505 E.09202
G1 X20.139 Y143.234 E.09204
G1 X22.215 Y141.158 E.09205
G1 X24.486 Y139.298 E.09204
G1 X26.93 Y137.672 E.09204
G1 X29.523 Y136.297 E.09202
G1 X32.24 Y135.185 E.09205
G1 X34.547 Y134.499 E.07546
G1 X34.547 Y147.835 E.41814
G1 X34.591 Y147.956 E.00404
G1 X34.735 Y148.024 E.00499
G1 X49.413 Y148.024 E.46022
G1 X49.534 Y147.98 E.00404
G1 X49.602 Y147.835 E.00502
G1 X49.602 Y134.499 E.41814
G1 X51.908 Y135.185 E.07543
G1 X54.625 Y136.297 E.09205
G1 X57.218 Y137.672 E.09202
G1 X59.662 Y139.298 E.09204
G1 X61.933 Y141.158 E.09204
G1 X64.009 Y143.234 E.09205
G1 X65.869 Y145.505 E.09204
G1 X67.495 Y147.949 E.09204
G1 X68.87 Y150.542 E.09202
G1 X69.982 Y153.259 E.09205
G1 X70.668 Y155.565 E.07543
G1 X57.332 Y155.565 E.41814
G1 X57.21 Y155.609 E.00407
G1 X57.143 Y155.754 E.00501
G1 X57.143 Y170.432 E.46022
G1 X57.187 Y170.553 E.00404
G1 X57.332 Y170.62 E.00501
G1 X70.668 Y170.62 E.41814
G1 X70.006 Y172.844 E.07276
G1 X68.87 Y175.643 E.09471
G1 X67.495 Y178.237 E.09205
G1 X65.869 Y180.681 E.09204
G1 X64.009 Y182.952 E.09204
G1 X61.933 Y185.028 E.09205
G1 X59.662 Y186.888 E.09204
G1 X57.218 Y188.513 E.09202
G1 X54.625 Y189.889 E.09204
G1 X51.908 Y191 E.09204
G1 X49.602 Y191.687 E.07544
G1 X49.602 Y178.35 E.41817
G1 X49.557 Y178.229 E.00405
G1 X49.413 Y178.162 E.00498
G1 X34.795 Y178.162 E.45834
M204 S1000
;WIPE_START
G1 F8640
G1 X34.735 Y178.162 E-.01385
G1 X34.614 Y178.206 E-.02973
G1 X34.547 Y178.35 E-.03667
G1 X34.547 Y181.467 E-.71975
;WIPE_END
G1 Z.6 F720
G1 X33.638 Y135.34 F10800
G1 Z.2 F720
G1 E.8 F2100
M204 S800
;TYPE:Solid infill
;WIDTH:0.422333
G1 F1200
G1 X33.83 Y135.532 E.00857
G1 X33.83 Y136.069 E.01694
G1 X33.361 Y135.599 E.02095
G1 X32.947 Y135.722 E.01363
G1 X33.83 Y136.605 E.0394
G1 X33.83 Y137.142 E.01694
G1 X32.534 Y135.845 E.05784
G1 X32.148 Y135.997 E.01309
G1 X33.83 Y137.679 E.07504
G1 X33.83 Y138.215 E.01691
G1 X31.768 Y136.153 E.092
G1 X31.387 Y136.309 E.01299
G1 X33.83 Y138.752 E.109
G1 X33.83 Y139.288 E.01691
G1 X31.006 Y136.464 E.126
G1 X30.625 Y136.62 E.01299
G1 X33.83 Y139.825 E.14299
G1 X33.83 Y140.361 E.01691
G1 X30.245 Y136.776 E.15995
G1 X29.864 Y136.932 E.01299
G1 X33.83 Y140.898 E.17695
G1 X33.83 Y141.435 E.01694
G1 X29.51 Y137.115 E.19274
G1 X29.16 Y137.301 E.0125
G1 X33.83 Y141.971 E.20836
G1 X33.83 Y142.508 E.01694
G1 X28.809 Y137.487 E.22402
G1 X28.459 Y137.673 E.0125
G1 X33.83 Y143.044 E.23963
G1 X33.83 Y143.581 E.01694
G1 X28.108 Y137.859 E.25529
G1 X27.757 Y138.045 E.01253
G1 X33.83 Y144.117 E.27093
G1 X33.83 Y144.654 E.01694
G1 X27.407 Y138.231 E.28657
G1 X27.076 Y138.436 E.01228
G1 X33.83 Y145.191 E.30136
G1 X33.83 Y145.727 E.01691
G1 X26.753 Y138.65 E.31575
G1 X26.431 Y138.865 E.01221
G1 X33.83 Y146.264 E.33011
G1 X33.83 Y146.8 E.01691
G1 X26.109 Y139.079 E.34448
G1 X25.787 Y139.293 E.0122
G1 X34 Y147.507 E.36645
M204 S1000
;WIPE_START
G1 F8640
G1 X31.55 Y145.057 E-.8
;WIPE_END
G1 Z.6 F720
G1 X60.231 Y140.471 F10800
G1 Z.2 F720
G1 E.8 F2100
M204 S800
G1 F1200
G1 X63.485 Y143.724 E.14516
G1 X65.292 Y145.931 E.08999
G1 X65.564 Y146.34 E.0155
G1 X58.827 Y139.603 E.30058
G1 X57.225 Y138.537 E.06071
G1 X66.629 Y147.942 E.41959
G1 X66.878 Y148.316 E.01417
G1 X67.343 Y149.192 E.03129
G1 X55.975 Y137.824 E.5072
G1 X54.832 Y137.218 E.04081
M73 P0 R108
M73 Q1 S109
G1 X67.949 Y150.334 E.58521
G1 X68.22 Y150.846 E.01828
M73 P1 R108
G1 X68.425 Y151.348 E.01711
G1 X53.819 Y136.741 E.65168
G1 X52.911 Y136.37 E.03094
G1 X68.797 Y152.256 E.70877
G1 X69.169 Y153.164 E.03096
G1 X52.003 Y135.998 E.76588
G1 X51.669 Y135.862 E.01138
G1 X51.186 Y135.718 E.0159
G1 X69.449 Y153.981 E.81482
G1 X69.676 Y154.745 E.02514
G1 X50.422 Y135.491 E.85904
G1 X50.318 Y135.46 E.00342
G1 X50.318 Y135.923 E.01461
G1 X69.244 Y154.849 E.8444
G1 X68.707 Y154.849 E.01694
G1 X50.318 Y136.46 E.82044
G1 X50.318 Y136.996 E.01691
G1 X68.171 Y154.849 E.79653
G1 X67.634 Y154.849 E.01694
G1 X50.318 Y137.533 E.77257
G1 X50.318 Y138.069 E.01691
G1 X67.097 Y154.849 E.74864
G1 X66.561 Y154.849 E.01691
G1 X50.318 Y138.606 E.7247
G1 X50.318 Y139.143 E.01694
G1 X66.024 Y154.849 E.70074
G1 X65.488 Y154.849 E.01691
G1 X50.318 Y139.679 E.67683
G1 X50.318 Y140.216 E.01694
G1 X64.951 Y154.849 E.65287
G1 X64.415 Y154.849 E.01691
G1 X50.318 Y140.752 E.62895
G1 X50.318 Y141.289 E.01694
G1 X63.878 Y154.849 E.60499
G1 X63.341 Y154.849 E.01694
G1 X50.318 Y141.825 E.58106
G1 X50.318 Y142.362 E.01694
G1 X62.805 Y154.849 E.55712
G1 X62.268 Y154.849 E.01694
G1 X50.318 Y142.899 E.53316
G1 X50.318 Y143.435 E.01691
G1 X61.732 Y154.849 E.50925
G1 X61.195 Y154.849 E.01694
G1 X50.318 Y143.972 E.48529
G1 X50.318 Y144.508 E.01691
G1 X60.659 Y154.849 E.46137
G1 X60.122 Y154.849 E.01694
G1 X50.318 Y145.045 E.43742
G1 X50.318 Y145.581 E.01691
G1 X59.585 Y154.849 E.41348
G1 X59.049 Y154.849 E.01691
G1 X50.318 Y146.118 E.38954
G1 X50.318 Y146.655 E.01694
G1 X58.512 Y154.849 E.36558
G1 X57.976 Y154.849 E.01691
G1 X50.318 Y147.191 E.34167
G1 X50.318 Y147.728 E.01694
G1 X57.439 Y154.849 E.31771
G1 X57.089 Y154.88 E.01109
G1 X56.985 Y154.931 E.00365
G1 X50.241 Y148.187 E.30089
G1 X50.206 Y148.274 E.00296
G1 X50.106 Y148.419 E.00556
G1 X50.019 Y148.501 E.00377
G1 X56.667 Y155.15 E.29663
G1 X56.607 Y155.209 E.00265
G1 X56.491 Y155.416 E.00749
G1 X56.47 Y155.49 E.00243
G1 X49.679 Y148.698 E.30301
G1 X49.423 Y148.74 E.00818
G1 X49.184 Y148.74 E.00754
G1 X56.427 Y155.983 E.32315
G1 X56.427 Y156.52 E.01694
G1 X48.648 Y148.74 E.34709
G1 X48.111 Y148.74 E.01694
G1 X56.427 Y157.057 E.37105
G1 X56.428 Y157.594 E.01694
G1 X47.575 Y148.74 E.39501
G1 X47.038 Y148.74 E.01694
G1 X56.428 Y158.13 E.41894
G1 X56.429 Y158.667 E.01694
G1 X46.501 Y148.74 E.44293
G1 X45.965 Y148.74 E.01691
G1 X56.429 Y159.204 E.46686
G1 X56.429 Y159.741 E.01694
G1 X45.428 Y148.74 E.49082
G1 X44.892 Y148.74 E.01691
G1 X56.43 Y160.278 E.51478
G1 X56.43 Y160.815 E.01694
G1 X44.355 Y148.74 E.53874
G1 X43.819 Y148.74 E.01691
M73 Q1 S108
G1 X56.43 Y161.352 E.56268
G1 X56.431 Y161.889 E.01694
G1 X43.282 Y148.74 E.58666
G1 X42.746 Y148.74 E.01691
G1 X56.431 Y162.426 E.61059
G1 X56.432 Y162.963 E.01694
G1 X42.209 Y148.74 E.63457
G1 X41.672 Y148.74 E.01694
G1 X56.432 Y163.5 E.65853
G1 X56.432 Y164.037 E.01694
G1 X41.136 Y148.74 E.68247
G1 X40.599 Y148.74 E.01694
G1 X56.433 Y164.574 E.70645
G1 X56.433 Y165.111 E.01694
G1 X40.063 Y148.74 E.73039
G1 X39.526 Y148.74 E.01694
G1 X56.433 Y165.648 E.75435
G1 X56.434 Y166.185 E.01694
G1 X38.99 Y148.74 E.7783
G1 X38.453 Y148.74 E.01694
G1 X56.434 Y166.722 E.80226
G1 X56.435 Y167.258 E.01691
G1 X37.916 Y148.74 E.82622
G1 X37.38 Y148.74 E.01691
G1 X56.435 Y167.795 E.85016
G1 X56.435 Y168.332 E.01694
G1 X36.843 Y148.74 E.87412
G1 X36.307 Y148.74 E.01691
G1 X56.436 Y168.869 E.89808
G1 X56.436 Y169.406 E.01694
G1 X35.77 Y148.74 E.92204
G1 X35.234 Y148.74 E.01691
G1 X56.606 Y170.113 E.95356
M204 S1000
;WIPE_START
G1 F8640
G1 X54.156 Y167.663 E-.8
;WIPE_END
G1 Z.6 F720
G1 X69.465 Y171.167 F10800
G1 Z.2 F720
M73 P1 R107
G1 E.8 F2100
M204 S800
G1 F1200
G1 X69.691 Y171.393 E.01008
G1 X69.567 Y171.806 E.0136
G1 X69.098 Y171.337 E.02092
G1 X68.561 Y171.337 E.01694
G1 X69.444 Y172.22 E.0394
G1 X69.321 Y172.633 E.0136
G1 X68.025 Y171.336 E.05784
G1 X67.488 Y171.336 E.01694
G1 X69.17 Y173.018 E.07504
G1 X69.014 Y173.399 E.01299
G1 X66.951 Y171.336 E.09204
G1 X66.415 Y171.336 E.01691
G1 X68.858 Y173.78 E.10902
G1 X68.703 Y174.161 E.01298
G1 X65.878 Y171.336 E.12604
G1 X65.341 Y171.336 E.01694
G1 X68.547 Y174.542 E.14304
G1 X68.391 Y174.922 E.01296
G1 X64.805 Y171.336 E.15999
G1 X64.268 Y171.336 E.01694
G1 X68.235 Y175.303 E.17699
G1 X68.052 Y175.657 E.01257
G1 X63.731 Y171.336 E.19279
G1 X63.195 Y171.336 E.01691
G1 X67.866 Y176.007 E.2084
G1 X67.68 Y176.358 E.01253
G1 X62.658 Y171.336 E.22406
G1 X62.121 Y171.335 E.01694
G1 X67.494 Y176.708 E.23972
G1 X67.308 Y177.059 E.01253
G1 X61.585 Y171.335 E.25536
G1 X61.048 Y171.335 E.01694
G1 X67.122 Y177.41 E.27102
G1 X66.936 Y177.76 E.0125
G1 X60.511 Y171.335 E.28666
G1 X59.975 Y171.335 E.01691
G1 X66.731 Y178.091 E.30143
G1 X66.516 Y178.414 E.01224
G1 X59.438 Y171.335 E.31581
G1 X58.901 Y171.335 E.01694
G1 X66.302 Y178.736 E.3302
G1 X66.088 Y179.058 E.0122
G1 X58.365 Y171.335 E.34457
G1 X57.828 Y171.335 E.01694
M73 P2 R107
M73 Q2 S108
G1 X65.874 Y179.38 E.35896
G1 X65.659 Y179.703 E.01224
G1 X57.291 Y171.335 E.37335
G1 X56.994 Y171.274 E.00957
G1 X56.753 Y171.129 E.00887
G1 X56.637 Y171.013 E.00518
G1 X56.537 Y170.867 E.00558
G1 X56.437 Y170.581 E.00956
G1 X56.437 Y170.48 E.00319
G1 X34.694 Y148.737 E.97009
G1 X34.584 Y148.728 E.00348
G1 X34.397 Y148.676 E.00612
G1 X34.195 Y148.563 E.0073
G1 X34.095 Y148.476 E.00418
G1 X34.008 Y148.375 E.00421
G1 X33.894 Y148.173 E.00732
G1 X33.842 Y147.986 E.00612
G1 X33.833 Y147.876 E.00348
