; generated by PrusaSlicer 2.7.4+linux-x64-GTK3 on 2024-05-01 at 13:16:55 UTC


;
;
; 

; external perimeters extrusion width = 0.45mm
; perimeters extrusion width = 0.45mm
; infill extrusion width = 0.45mm
; solid infill extrusion width = 0.45mm
; top infill extrusion width = 0.40mm
; first layer extrusion width = 0.42mm

; external perimeters extrusion width = 0.45mm
; perimeters extrusion width = 0.45mm
; infill extrusion width = 0.45mm
; solid infill extrusion width = 0.45mm
; top infill extrusion width = 0.40mm
; first layer extrusion width = 0.42mm

M73 P0 R62
M73 Q0 S63
M201 X1000 Y1000 Z200 E5000 ; sets maximum accelerations, mm/sec^2
M203 X200 Y200 Z12 E120 ; sets maximum feedrates, mm / sec
M204 S1250 T1250 ; sets acceleration (S) and retract acceleration (R), mm/sec^2
M205 X8.00 Y8.00 Z0.40 E4.50 ; sets the jerk limits, mm/sec
M205 S0 T0 ; sets the minimum extruding and travel feed rate, mm/sec

; printing object omni-roller-mould.stl id:0 copy 0
; stop printing object omni-roller-mould.stl id:0 copy 0
; printing object omni-roller-mould.stl id:1 copy 0
; stop printing object omni-roller-mould.stl id:1 copy 0

;TYPE:Custom
M862.3 P "MK3" ; printer model check
M862.1 P0.4 ; nozzle diameter check
M115 U3.13.3 ; tell printer latest fw version
G90 ; use absolute coordinates
M83 ; extruder relative mode
M104 S215 ; set extruder temp
M140 S60 ; set bed temp
M190 S60 ; wait for bed temp
M109 S215 ; wait for extruder temp
G28 W ; home all without mesh bed level
G80 X189.524 Y15.1868 W51.2897 H35.3969 ; mesh bed levelling

G1 Z0.2 F720
G1 Y-3 F1000 ; go outside print area
G92 E0
G1 X60 E9 F1000 ; intro line
G1 X100 E12.5 F1000 ; intro line
M73 Q0 S62

G92 E0
M221 S95

; Don't change E values below. Excessive value can damage the printer.
M907 E430 ; set extruder motor current
G21 ; set units to millimeters
G90 ; use absolute coordinates
M83 ; use relative distances for extrusion

M900 K0.05 ; Filament gcode LA 1.5
M900 K30 ; Filament gcode LA 1.0




M107
;LAYER_CHANGE
;Z:0.2
;HEIGHT:0.2
G1 E-.8 F2100
G1 Z.6 F720
G1 X189.712 Y17.752 F10800
G1 Z.2 F720
G1 E.8 F2100
M204 S800
;TYPE:Skirt/Brim
;WIDTH:0.42
G1 F1200
G1 X190.104 Y16.445 E.04278
G1 X191.149 Y15.569 E.04275
G1 X192.089 Y15.375 E.03009
G1 X212.089 Y15.375 E.62709
G1 X238.272 Y15.641 E.82099
G1 X239.575 Y16.046 E.04278
G1 X240.44 Y17.101 E.04278
G1 X240.625 Y18.018 E.02933
G1 X240.625 Y48.018 E.94063
G1 X240.233 Y49.325 E.04278
G1 X239.187 Y50.202 E.0428
G1 X238.248 Y50.395 E.03006
G1 X218.248 Y50.395 E.62709
G1 X192.065 Y50.129 E.82099
G1 X190.762 Y49.724 E.04278
G1 X189.896 Y48.67 E.04277
G1 X189.712 Y47.752 E.02936
G1 X189.712 Y17.812 E.93875
M204 S1000
;WIPE_START
G1 F8640
G1 X189.712 Y17.752 E-.01385
G1 X190.104 Y16.445 E-.31507
G1 X191.149 Y15.569 E-.31486
G1 X191.812 Y15.432 E-.15622
;WIPE_END
G1 Z.6 F720
; printing object omni-roller-mould.stl id:0 copy 0
G1 X237.461 Y47.231 F10800
G1 Z.2 F720
G1 E.8 F2100
M204 S800
;TYPE:Perimeter
;WIDTH:0.419999
G1 F1200
G1 X219.035 Y47.231 E.57773
G1 X219.035 Y18.805 E.89128
G1 X237.461 Y18.805 E.57773
G1 X237.461 Y20.154 E.0423
G1 X237.461 Y47.171 E.8471
M204 S1000
G1 X237.461 Y47.171 F10800
G1 X237.838 Y47.608
M204 S800
;TYPE:External perimeter
G1 F1200
G1 X218.658 Y47.608 E.60137
G1 X218.658 Y18.428 E.91492
G1 X237.838 Y18.428 E.60137
G1 X237.838 Y20.154 E.05412
G1 X237.838 Y47.548 E.85892
M204 S1000
;WIPE_START
G1 F8640
G1 X237.838 Y47.608 E-.01385
G1 X234.433 Y47.608 E-.78615
;WIPE_END
G1 Z.6 F720
G1 X235.389 Y22.598 F10800
G1 Z.2 F720
G1 E.8 F2100
M204 S800
;TYPE:Perimeter
G1 F1200
G1 X235.357 Y22.666 E.00236
G1 X235.18 Y22.899 E.00917
G1 X234.978 Y23.065 E.0082
G1 X234.463 Y23.292 E.01765
G1 X233.926 Y23.269 E.01685
G1 X233.457 Y23.038 E.01639
G1 X233.138 Y22.666 E.01537
G1 X233.036 Y22.445 E.00763
G1 X232.957 Y22.05 E.01263
G1 X233.004 Y21.689 E.01141
G1 X233.235 Y21.227 E.0162
G1 X233.403 Y21.05 E.00765
G1 X233.661 Y20.875 E.00977
G1 X233.887 Y20.785 E.00763
G1 X234.287 Y20.727 E.01267
G1 X234.722 Y20.826 E.01399
G1 X235.046 Y21.01 E.01168
G1 X235.357 Y21.371 E.01494
G1 X235.46 Y21.591 E.00762
G1 X235.54 Y22.018 E.01362
G1 X235.46 Y22.445 E.01362
G1 X235.414 Y22.544 E.00342
M204 S1000
G1 X235.414 Y22.544 F10800
G1 X235.062 Y22.421
M204 S800
;TYPE:External perimeter
G1 F1200
G1 X235.057 Y22.437 E.00053
G1 X234.812 Y22.727 E.0119
G1 X234.355 Y22.924 E.0156
G1 X233.965 Y22.885 E.01229
G1 X233.627 Y22.686 E.0123
G1 X233.404 Y22.364 E.01228
G1 X233.334 Y22.033 E.01061
G1 X233.401 Y21.683 E.01117
G1 X233.614 Y21.362 E.01208
G1 X233.948 Y21.157 E.01229
G1 X234.337 Y21.111 E.01228
G1 X234.676 Y21.215 E.01112
G1 X234.879 Y21.364 E.0079
G1 X235.091 Y21.672 E.01172
G1 X235.158 Y22.059 E.01231
G1 X235.077 Y22.363 E.00986
M204 S1000
;WIPE_START
G1 F8640
G1 X235.062 Y22.421 E-.01383
G1 X235.057 Y22.437 E-.00387
G1 X234.812 Y22.727 E-.08766
G1 X234.355 Y22.924 E-.11491
G1 X233.965 Y22.885 E-.0905
G1 X233.627 Y22.686 E-.09057
G1 X233.404 Y22.364 E-.09044
G1 X233.334 Y22.033 E-.07812
G1 X233.401 Y21.683 E-.08228
G1 X233.614 Y21.362 E-.08895
G1 X233.831 Y21.229 E-.05887
;WIPE_END
G1 Z.6 F720
G1 X223.389 Y44.598 F10800
G1 Z.2 F720
G1 E.8 F2100
M204 S800
;TYPE:Perimeter
G1 F1200
G1 X223.357 Y44.666 E.00236
G1 X223.18 Y44.9 E.0092
G1 X222.978 Y45.065 E.00818
G1 X222.463 Y45.292 E.01765
G1 X222.023 Y45.283 E.0138
G1 X221.788 Y45.218 E.00764
G1 X221.365 Y44.959 E.01555
G1 X221.138 Y44.666 E.01162
G1 X221.036 Y44.445 E.00763
G1 X220.97 Y44.146 E.0096
G1 X220.964 Y43.933 E.00668
G1 X221.077 Y43.489 E.01437
G1 X221.235 Y43.227 E.00959
G1 X221.403 Y43.05 E.00765
G1 X221.661 Y42.875 E.00977
G1 X221.887 Y42.785 E.00763
G1 X222.332 Y42.729 E.01406
G1 X222.844 Y42.876 E.0167
G1 X223.179 Y43.136 E.0133
G1 X223.432 Y43.501 E.01392
G1 X223.54 Y44.005 E.01616
G1 X223.46 Y44.445 E.01402
G1 X223.414 Y44.543 E.00339
M204 S1000
G1 X223.414 Y44.543 F10800
G1 X223.055 Y44.44
M204 S800
;TYPE:External perimeter
G1 F1200
G1 X222.812 Y44.727 E.01179
G1 X222.355 Y44.924 E.0156
G1 X221.965 Y44.885 E.01229
G1 X221.627 Y44.686 E.0123
G1 X221.404 Y44.364 E.01228
G1 X221.338 Y44.065 E.0096
G1 X221.401 Y43.683 E.01214
G1 X221.614 Y43.362 E.01208
G1 X221.948 Y43.157 E.01229
G1 X222.337 Y43.111 E.01228
G1 X222.676 Y43.215 E.01112
G1 X222.879 Y43.364 E.0079
G1 X223.091 Y43.672 E.01172
G1 X223.158 Y44.059 E.01231
G1 X223.072 Y44.383 E.01051
M204 S1000
;WIPE_START
G1 F8640
G1 X223.055 Y44.44 E-.01373
G1 X222.812 Y44.727 E-.08683
G1 X222.355 Y44.924 E-.11491
G1 X221.965 Y44.885 E-.0905
G1 X221.627 Y44.686 E-.09057
G1 X221.404 Y44.364 E-.09044
G1 X221.338 Y44.065 E-.0707
G1 X221.401 Y43.683 E-.0894
G1 X221.614 Y43.362 E-.08895
G1 X221.85 Y43.217 E-.06397
;WIPE_END
G1 Z.6 F720
G1 X236.522 Y18.975 F10800
G1 Z.2 F720
G1 E.8 F2100
M204 S800
;TYPE:Solid infill
;WIDTH:0.423181
G1 F1200
G1 X237.121 Y19.574 E.02678
G1 X237.121 Y20.112 E.01701
G1 X236.154 Y19.145 E.04324
G1 X235.616 Y19.145 E.01701
G1 X237.121 Y20.65 E.0673
G1 X237.121 Y21.187 E.01698
G1 X235.078 Y19.145 E.09133
G1 X234.54 Y19.145 E.01701
G1 X237.121 Y21.725 E.11539
G1 X237.121 Y22.263 E.01701
G1 X234.003 Y19.145 E.13942
G1 X233.465 Y19.145 E.01701
G1 X237.121 Y22.801 E.16348
G1 X237.121 Y23.339 E.01701
G1 X235.874 Y22.091 E.05578
G1 X235.785 Y22.54 E.01447
G1 X237.121 Y23.876 E.05974
G1 X237.121 Y24.414 E.01701
G1 X235.606 Y22.899 E.06774
G1 X235.439 Y23.119 E.00873
G1 X235.356 Y23.187 E.00339
G1 X237.121 Y24.952 E.07892
G1 X237.121 Y25.49 E.01701
G1 X235.043 Y23.411 E.09294
G1 X234.673 Y23.579 E.01285
G1 X237.121 Y26.027 E.10946
G1 X237.121 Y26.565 E.01701
G1 X233.999 Y23.443 E.1396
M204 S1000
;WIPE_START
G1 F8640
G1 X236.449 Y25.893 E-.8
;WIPE_END
G1 Z.6 F720
G1 X234.348 Y20.566 F10800
G1 Z.2 F720
G1 E.8 F2100
M204 S800
G1 F1200
G1 X232.927 Y19.145 E.06354
G1 X232.389 Y19.145 E.01701
G1 X233.73 Y20.485 E.05994
G1 X233.484 Y20.585 E.0084
G1 X233.37 Y20.662 E.00435
G1 X231.852 Y19.145 E.06786
G1 X231.314 Y19.145 E.01701
G1 X233.077 Y20.907 E.07881
G1 X232.953 Y21.038 E.0057
G1 X232.846 Y21.215 E.00654
G1 X230.776 Y19.145 E.09256
G1 X230.238 Y19.145 E.01701
G1 X232.683 Y21.589 E.10931
G1 X232.617 Y22.061 E.01507
G1 X229.7 Y19.145 E.13041
G1 X229.163 Y19.145 E.01698
G1 X237.121 Y27.103 E.35585
G1 X237.121 Y27.641 E.01701
G1 X228.625 Y19.145 E.37991
G1 X228.087 Y19.145 E.01701
G1 X237.121 Y28.178 E.40394
G1 X237.121 Y28.716 E.01701
G1 X227.549 Y19.145 E.428
G1 X227.012 Y19.145 E.01698
G1 X237.121 Y29.254 E.45203
G1 X237.121 Y29.792 E.01701
G1 X226.474 Y19.145 E.47609
G1 X225.936 Y19.145 E.01701
M73 P1 R62
M73 Q1 S62
G1 X237.121 Y30.33 E.50015
G1 X237.121 Y30.867 E.01698
M73 P1 R61
G1 X225.398 Y19.145 E.52418
G1 X224.861 Y19.145 E.01698
G1 X237.121 Y31.405 E.54822
G1 X237.121 Y31.943 E.01701
G1 X224.323 Y19.145 E.57227
G1 X223.785 Y19.145 E.01701
G1 X237.121 Y32.481 E.59633
G1 X237.121 Y33.018 E.01698
G1 X223.247 Y19.145 E.62036
G1 X222.709 Y19.145 E.01701
G1 X237.121 Y33.556 E.64442
G1 X237.121 Y34.094 E.01701
G1 X222.172 Y19.145 E.66846
G1 X221.634 Y19.145 E.01701
G1 X237.121 Y34.632 E.69251
G1 X237.121 Y35.17 E.01701
G1 X221.096 Y19.145 E.71657
G1 X220.558 Y19.145 E.01701
G1 X237.121 Y35.707 E.74061
G1 X237.121 Y36.245 E.01701
G1 X220.021 Y19.145 E.76464
G1 X219.483 Y19.145 E.01701
G1 X237.121 Y36.783 E.7887
G1 X237.121 Y37.321 E.01701
G1 X219.374 Y19.573 E.79359
G1 X219.374 Y20.111 E.01701
G1 X237.121 Y37.858 E.79357
G1 X237.121 Y38.396 E.01701
G1 X219.374 Y20.649 E.79357
G1 X219.374 Y21.187 E.01701
G1 X237.121 Y38.934 E.79357
G1 X237.121 Y39.472 E.01701
G1 X219.374 Y21.725 E.79357
G1 X219.374 Y22.262 E.01698
G1 X237.121 Y40.009 E.79357
G1 X237.121 Y40.547 E.01701
G1 X219.374 Y22.8 E.79357
G1 X219.374 Y23.338 E.01701
M73 Q1 S61
G1 X237.121 Y41.085 E.79357
G1 X237.121 Y41.623 E.01701
G1 X219.374 Y23.876 E.79357
G1 X219.374 Y24.413 E.01698
G1 X237.121 Y42.161 E.79359
G1 X237.121 Y42.698 E.01698
G1 X219.374 Y24.951 E.79357
G1 X219.374 Y25.489 E.01701
G1 X237.121 Y43.236 E.79357
G1 X237.121 Y43.774 E.01701
G1 X219.374 Y26.027 E.79357
G1 X219.374 Y26.565 E.01701
G1 X237.121 Y44.312 E.79357
G1 X237.121 Y44.849 E.01698
G1 X219.374 Y27.102 E.79357
G1 X219.374 Y27.64 E.01701
G1 X237.121 Y45.387 E.79357
G1 X237.121 Y45.925 E.01701
G1 X219.374 Y28.178 E.79357
G1 X219.374 Y28.716 E.01701
G1 X237.121 Y46.463 E.79357
G1 X237.121 Y46.892 E.01356
G1 X237.012 Y46.892 E.00345
G1 X219.374 Y29.253 E.78872
G1 X219.374 Y29.791 E.01701
M73 P2 R61
M73 Q2 S61
G1 X236.475 Y46.892 E.76468
G1 X235.937 Y46.892 E.01701
G1 X219.374 Y30.329 E.74063
G1 X219.374 Y30.867 E.01701
G1 X235.399 Y46.892 E.71657
G1 X234.861 Y46.892 E.01701
G1 X219.374 Y31.404 E.69254
G1 X219.374 Y31.942 E.01701
G1 X234.323 Y46.892 E.66848
G1 X233.786 Y46.892 E.01698
G1 X219.374 Y32.48 E.64444
G1 X219.374 Y33.018 E.01701
G1 X233.248 Y46.892 E.62039
G1 X232.71 Y46.892 E.01701
G1 X219.374 Y33.556 E.59633
G1 X219.374 Y34.093 E.01698
G1 X232.172 Y46.892 E.57229
G1 X231.635 Y46.892 E.01698
G1 X219.374 Y34.631 E.54826
G1 X219.374 Y35.169 E.01701
G1 X231.097 Y46.892 E.5242
G1 X230.559 Y46.892 E.01701
G1 X219.374 Y35.707 E.50015
G1 X219.374 Y36.244 E.01698
G1 X230.021 Y46.892 E.47611
G1 X229.484 Y46.892 E.01698
G1 X219.374 Y36.782 E.45208
G1 X219.374 Y37.32 E.01701
G1 X228.946 Y46.892 E.42802
G1 X228.408 Y46.892 E.01701
G1 X219.374 Y37.858 E.40396
G1 X219.374 Y38.395 E.01698
G1 X227.87 Y46.892 E.37993
G1 X227.332 Y46.892 E.01701
G1 X219.374 Y38.933 E.35587
G1 X219.374 Y39.471 E.01701
G1 X222.295 Y42.392 E.13061
G1 X221.818 Y42.452 E.0152
G1 X219.374 Y40.009 E.10926
G1 X219.374 Y40.547 E.01701
G1 X221.441 Y42.614 E.09243
G1 X221.199 Y42.778 E.00924
G1 X221.135 Y42.845 E.00293
G1 X219.374 Y41.084 E.07874
G1 X219.374 Y41.622 E.01701
G1 X220.892 Y43.14 E.06788
G1 X220.779 Y43.326 E.00688
G1 X220.715 Y43.501 E.00589
G1 X219.374 Y42.16 E.05996
G1 X219.374 Y42.698 E.01701
G1 X220.795 Y44.119 E.06354
M204 S1000
;WIPE_START
G1 F8640
G1 X219.374 Y42.698 E-.46402
G1 X219.374 Y42.16 E-.12423
G1 X220.023 Y42.808 E-.21175
;WIPE_END
G1 Z.6 F720
G1 X223.669 Y43.766 F10800
G1 Z.2 F720
G1 E.8 F2100
M204 S800
G1 F1200
G1 X226.795 Y46.892 E.13978
G1 X226.257 Y46.892 E.01701
G1 X223.808 Y44.442 E.10953
G1 X223.787 Y44.534 E.00298
G1 X223.653 Y44.825 E.01013
G1 X225.719 Y46.892 E.09241
G1 X225.181 Y46.892 E.01701
G1 X223.422 Y45.133 E.07866
G1 X223.124 Y45.372 E.01208
G1 X224.644 Y46.892 E.06797
G1 X224.106 Y46.892 E.01701
G1 X222.763 Y45.548 E.06008
G1 X222.526 Y45.627 E.0079
G1 X222.314 Y45.638 E.00671
G1 X223.568 Y46.892 E.05607
G1 X223.03 Y46.892 E.01701
G1 X219.374 Y43.235 E.1635
G1 X219.374 Y43.773 E.01701
G1 X222.493 Y46.892 E.13947
G1 X221.955 Y46.892 E.01701
G1 X219.374 Y44.311 E.11541
G1 X219.374 Y44.849 E.01701
G1 X221.417 Y46.892 E.09135
G1 X220.879 Y46.892 E.01701
G1 X219.374 Y45.386 E.06732
G1 X219.374 Y45.924 E.01701
G1 X220.341 Y46.892 E.04326
G1 X219.804 Y46.892 E.01698
G1 X219.204 Y46.292 E.02683
M204 S1000
;WIPE_START
G1 F8640
G1 X219.804 Y46.892 E-.19593
G1 X220.341 Y46.892 E-.12399
G1 X219.374 Y45.924 E-.31593
G1 X219.374 Y45.386 E-.12423
G1 X219.496 Y45.508 E-.03992
;WIPE_END
G1 Z.6 F720
; stop printing object omni-roller-mould.stl id:0 copy 0
; printing object omni-roller-mould.stl id:1 copy 0
G1 X211.302 Y46.965 F10800
G1 Z.2 F720
G1 E.8 F2100
M204 S800
;TYPE:Perimeter
;WIDTH:0.419999
G1 F1200
G1 X192.876 Y46.965 E.57773
G1 X192.876 Y18.539 E.89128
M73 P2 R60
G1 X211.302 Y18.539 E.57773
G1 X211.302 Y19.888 E.0423
G1 X211.302 Y46.905 E.8471
M204 S1000
G1 X211.302 Y46.905 F10800
G1 X211.679 Y47.342
M204 S800
;TYPE:External perimeter
G1 F1200
G1 X192.499 Y47.342 E.60137
G1 X192.499 Y18.162 E.91492
G1 X211.679 Y18.162 E.60137
G1 X211.679 Y19.888 E.05412
G1 X211.679 Y47.282 E.85892
M204 S1000
;WIPE_START
G1 F8640
G1 X211.679 Y47.342 E-.01385
G1 X208.274 Y47.342 E-.78615
;WIPE_END
G1 Z.6 F720
G1 X209.23 Y22.333 F10800
G1 Z.2 F720
G1 E.8 F2100
M204 S800
;TYPE:Perimeter
G1 F1200
G1 X209.199 Y22.4 E.00231
G1 X209.021 Y22.634 E.00922
G1 X208.819 Y22.8 E.0082
G1 X208.304 Y23.027 E.01765
G1 X207.767 Y23.004 E.01685
G1 X207.299 Y22.773 E.01636
G1 X206.979 Y22.4 E.01541
G1 X206.877 Y22.179 E.00763
G1 X206.799 Y21.784 E.01262
G1 X206.845 Y21.423 E.01141
G1 X207.077 Y20.961 E.01621
G1 X207.244 Y20.784 E.00763
G1 X207.503 Y20.609 E.0098
G1 X207.729 Y20.519 E.00763
G1 X208.128 Y20.461 E.01264
G1 X208.564 Y20.56 E.01402
G1 X208.888 Y20.745 E.0117
G1 X209.199 Y21.105 E.01492
G1 X209.301 Y21.326 E.00763
G1 X209.382 Y21.752 E.0136
G1 X209.301 Y22.179 E.01363
G1 X209.255 Y22.278 E.00342
M204 S1000
G1 X209.255 Y22.278 F10800
G1 X208.903 Y22.155
M204 S800
;TYPE:External perimeter
G1 F1200
G1 X208.899 Y22.172 E.00055
G1 X208.654 Y22.461 E.01188
G1 X208.197 Y22.658 E.0156
G1 X207.806 Y22.619 E.01232
G1 X207.469 Y22.42 E.01227
G1 X207.245 Y22.098 E.0123
G1 X207.175 Y21.767 E.01061
G1 X207.242 Y21.418 E.01114
G1 X207.456 Y21.097 E.0121
G1 X207.79 Y20.891 E.0123
G1 X208.179 Y20.845 E.01228
G1 X208.518 Y20.949 E.01112
G1 X208.721 Y21.099 E.00791
G1 X208.933 Y21.407 E.01172
G1 X209 Y21.793 E.01228
G1 X208.919 Y22.098 E.00989
M204 S1000
;WIPE_START
G1 F8640
G1 X208.903 Y22.155 E-.01367
G1 X208.899 Y22.172 E-.00403
G1 X208.654 Y22.461 E-.08748
G1 X208.197 Y22.658 E-.11491
G1 X207.806 Y22.619 E-.09073
G1 X207.469 Y22.42 E-.09037
G1 X207.245 Y22.098 E-.09057
G1 X207.175 Y21.767 E-.07812
G1 X207.242 Y21.418 E-.08206
G1 X207.456 Y21.097 E-.08908
G1 X207.673 Y20.963 E-.05898
;WIPE_END
G1 Z.6 F720
G1 X197.23 Y44.332 F10800
G1 Z.2 F720
G1 E.8 F2100
M204 S800
;TYPE:Perimeter
G1 F1200
G1 X197.199 Y44.4 E.00234
G1 X197.021 Y44.634 E.00922
G1 X196.819 Y44.8 E.0082
G1 X196.304 Y45.027 E.01765
G1 X195.864 Y45.017 E.0138
G1 X195.63 Y44.952 E.00761
G1 X195.207 Y44.694 E.01554
G1 X194.979 Y44.4 E.01167
G1 X194.877 Y44.179 E.00763
G1 X194.811 Y43.88 E.0096
G1 X194.806 Y43.667 E.00668
G1 X194.919 Y43.223 E.01437
G1 X195.077 Y42.961 E.00959
G1 X195.244 Y42.784 E.00763
G1 X195.503 Y42.609 E.0098
G1 X195.729 Y42.519 E.00763
G1 X196.173 Y42.463 E.01403
G1 X196.686 Y42.611 E.01674
G1 X197.021 Y42.87 E.01328
G1 X197.273 Y43.235 E.01391
G1 X197.381 Y43.739 E.01616
G1 X197.301 Y44.179 E.01402
