; generated by PrusaSlicer 2.7.4+linux-x64-GTK3 on 2024-05-09 at 13:16:13 UTC


;
;
; 

; external perimeters extrusion width = 0.45mm
; perimeters extrusion width = 0.45mm
; infill extrusion width = 0.45mm
; solid infill extrusion width = 0.45mm
; top infill extrusion width = 0.40mm
; first layer extrusion width = 0.42mm

; external perimeters extrusion width = 0.45mm
; perimeters extrusion width = 0.45mm
; infill extrusion width = 0.45mm
; solid infill extrusion width = 0.45mm
; top infill extrusion width = 0.40mm
; first layer extrusion width = 0.42mm

; external perimeters extrusion width = 0.45mm
; perimeters extrusion width = 0.45mm
; infill extrusion width = 0.45mm
; solid infill extrusion width = 0.45mm
; top infill extrusion width = 0.40mm
; first layer extrusion width = 0.42mm

; external perimeters extrusion width = 0.45mm
; perimeters extrusion width = 0.45mm
; infill extrusion width = 0.45mm
; solid infill extrusion width = 0.45mm
; top infill extrusion width = 0.40mm
; first layer extrusion width = 0.42mm

; external perimeters extrusion width = 0.45mm
; perimeters extrusion width = 0.45mm
; infill extrusion width = 0.45mm
; solid infill extrusion width = 0.45mm
; top infill extrusion width = 0.40mm
; first layer extrusion width = 0.42mm

; external perimeters extrusion width = 0.45mm
; perimeters extrusion width = 0.45mm
; infill extrusion width = 0.45mm
; solid infill extrusion width = 0.45mm
; top infill extrusion width = 0.40mm
; first layer extrusion width = 0.42mm

; external perimeters extrusion width = 0.45mm
; perimeters extrusion width = 0.45mm
; infill extrusion width = 0.45mm
; solid infill extrusion width = 0.45mm
; top infill extrusion width = 0.40mm
; first layer extrusion width = 0.42mm

; external perimeters extrusion width = 0.45mm
; perimeters extrusion width = 0.45mm
; infill extrusion width = 0.45mm
; solid infill extrusion width = 0.45mm
; top infill extrusion width = 0.40mm
; first layer extrusion width = 0.42mm

; external perimeters extrusion width = 0.45mm
; perimeters extrusion width = 0.45mm
; infill extrusion width = 0.45mm
; solid infill extrusion width = 0.45mm
; top infill extrusion width = 0.40mm
; first layer extrusion width = 0.42mm

; external perimeters extrusion width = 0.45mm
; perimeters extrusion width = 0.45mm
; infill extrusion width = 0.45mm
; solid infill extrusion width = 0.45mm
; top infill extrusion width = 0.40mm
; first layer extrusion width = 0.42mm

; external perimeters extrusion width = 0.45mm
; perimeters extrusion width = 0.45mm
; infill extrusion width = 0.45mm
; solid infill extrusion width = 0.45mm
; top infill extrusion width = 0.40mm
; first layer extrusion width = 0.42mm

; external perimeters extrusion width = 0.45mm
; perimeters extrusion width = 0.45mm
; infill extrusion width = 0.45mm
; solid infill extrusion width = 0.45mm
; top infill extrusion width = 0.40mm
; first layer extrusion width = 0.42mm

M73 P0 R9
M73 Q0 S9
M201 X1000 Y1000 Z200 E5000 ; sets maximum accelerations, mm/sec^2
M203 X200 Y200 Z12 E120 ; sets maximum feedrates, mm / sec
M204 S1250 T1250 ; sets acceleration (S) and retract acceleration (R), mm/sec^2
M205 X8.00 Y8.00 Z0.40 E4.50 ; sets the jerk limits, mm/sec
M205 S0 T0 ; sets the minimum extruding and travel feed rate, mm/sec

; printing object Pi Spacer.stl id:1 copy 0
; stop printing object Pi Spacer.stl id:1 copy 0
; printing object Pi Spacer.stl id:0 copy 0
; stop printing object Pi Spacer.stl id:0 copy 0
; printing object Pi Spacer.stl id:4 copy 0
; stop printing object Pi Spacer.stl id:4 copy 0
; printing object Pi Spacer.stl id:7 copy 0
; stop printing object Pi Spacer.stl id:7 copy 0
; printing object Pi Spacer.stl id:10 copy 0
; stop printing object Pi Spacer.stl id:10 copy 0
; printing object Pi Spacer.stl id:3 copy 0
; stop printing object Pi Spacer.stl id:3 copy 0
; printing object Pi Spacer.stl id:2 copy 0
; stop printing object Pi Spacer.stl id:2 copy 0
; printing object Pi Spacer.stl id:6 copy 0
; stop printing object Pi Spacer.stl id:6 copy 0
; printing object Pi Spacer.stl id:5 copy 0
; stop printing object Pi Spacer.stl id:5 copy 0
; printing object Pi Spacer.stl id:9 copy 0
; stop printing object Pi Spacer.stl id:9 copy 0
; printing object Pi Spacer.stl id:11 copy 0
; stop printing object Pi Spacer.stl id:11 copy 0
; printing object Pi Spacer.stl id:8 copy 0
; stop printing object Pi Spacer.stl id:8 copy 0

;TYPE:Custom
M862.3 P "MK3" ; printer model check
M862.1 P0.4 ; nozzle diameter check
M115 U3.13.3 ; tell printer latest fw version
G90 ; use absolute coordinates
M83 ; extruder relative mode
M104 S215 ; set extruder temp
M140 S60 ; set bed temp
M190 S60 ; wait for bed temp
M109 S215 ; wait for extruder temp
G28 W ; home all without mesh bed level
G80 X79.1075 Y4.51657 W41.3077 H31.3568 ; mesh bed levelling

G1 Z0.2 F720
G1 Y-3 F1000 ; go outside print area
G92 E0
G1 X60 E9 F1000 ; intro line
G1 X100 E12.5 F1000 ; intro line

G92 E0
M221 S95

; Don't change E values below. Excessive value can damage the printer.
M907 E430 ; set extruder motor current
G21 ; set units to millimeters
G90 ; use absolute coordinates
M83 ; use relative distances for extrusion

M900 K0.05 ; Filament gcode LA 1.5
M900 K30 ; Filament gcode LA 1.0




M107
;LAYER_CHANGE
;Z:0.2
;HEIGHT:0.2
G1 E-.8 F2100
M73 P1 R8
M73 Q1 S9
G1 Z.6 F720
G1 X79.399 Y9.374 F10800
G1 Z.2 F720
G1 E.8 F2100
M204 S800
;TYPE:Skirt/Brim
;WIDTH:0.42
G1 F1200
G1 X79.452 Y8.924 E.01421
G1 X79.85 Y7.832 E.03644
G1 X80.473 Y6.851 E.03644
G1 X81.54 Y5.838 E.04613
G1 X82.564 Y5.261 E.03685
G1 X83.676 Y4.923 E.03644
G1 X84.481 Y4.833 E.0254
G1 X95.191 Y4.705 E.33583
G1 X115.269 Y4.954 E.62958
G1 X116.163 Y5.101 E.02841
G1 X117.253 Y5.505 E.03645
G1 X118.23 Y6.134 E.03643
G1 X119.05 Y6.959 E.03647
G1 X119.52 Y7.653 E.02628
G1 X119.901 Y8.476 E.02844
G1 X120.125 Y9.284 E.02629
G1 X120.223 Y10.185 E.02842
G1 X120.162 Y20.103 E.31098
G1 X119.8 Y29.805 E.30441
G1 X119.646 Y30.957 E.03644
G1 X119.249 Y32.049 E.03643
G1 X118.626 Y33.03 E.03644
G1 X117.807 Y33.855 E.03645
G1 X116.535 Y34.62 E.04654
G1 X115.74 Y34.888 E.0263
G1 X114.845 Y35.035 E.02844
G1 X94.531 Y35.685 E.63726
G1 X84.297 Y35.498 E.32093
M73 P2 R8
M73 Q2 S9
G1 X83.478 Y35.318 E.02629
G1 X82.409 Y34.862 E.03644
G1 X81.659 Y34.353 E.02842
G1 X80.84 Y33.529 E.03643
G1 X80.369 Y32.835 E.0263
G1 X79.988 Y32.012 E.02844
G1 X79.764 Y31.204 E.02629
G1 X79.666 Y30.303 E.02842
G1 X79.296 Y10.249 E.62889
G1 X79.392 Y9.434 E.02573
M204 S1000
;WIPE_START
G1 F8640
G1 X79.399 Y9.374 E-.01395
G1 X79.452 Y8.924 E-.10462
G1 X79.85 Y7.832 E-.26837
G1 X80.473 Y6.851 E-.26833
G1 X80.928 Y6.419 E-.14473
;WIPE_END
G1 Z.6 F720
; printing object Pi Spacer.stl id:1 copy 0
G1 X94.596 Y7.609 F10800
G1 Z.2 F720
M73 Q2 S8
G1 E.8 F2100
M204 S800
;TYPE:External perimeter
;WIDTH:0.579226
G1 F1200
G1 X94.63 Y7.601 E.00156
G1 X95.171 Y7.575 E.02415
;WIDTH:0.574565
G1 X95.705 Y7.669 E.02397
G1 X96.206 Y7.876 E.02396
G1 X96.652 Y8.185 E.02399
G1 X97.02 Y8.583 E.02396
G1 X97.295 Y9.051 E.024
;WIDTH:0.580457
G1 X97.458 Y9.566 E.02414
G1 X97.517 Y10.106 E.02428
;WIDTH:0.569566
G1 X97.452 Y10.645 E.02377
G1 X97.273 Y11.158 E.02379
;WIDTH:0.579227
G1 X96.983 Y11.617 E.02421
G1 X96.608 Y12.008 E.02416
;WIDTH:0.574565
G1 X96.156 Y12.307 E.02396
;WIDTH:0.580555
G1 X95.649 Y12.499 E.02424
G1 X95.114 Y12.586 E.02423
;WIDTH:0.569566
G1 X94.572 Y12.55 E.02379
G1 X94.051 Y12.399 E.02375
;WIDTH:0.579228
G1 X93.577 Y12.135 E.0242
G1 X93.166 Y11.781 E.02419
;WIDTH:0.574567
G1 X92.843 Y11.346 E.02395
G1 X92.621 Y10.851 E.02398
G1 X92.51 Y10.32 E.02398
;WIDTH:0.580558
G1 X92.52 Y9.778 E.02423
G1 X92.637 Y9.249 E.02422
;WIDTH:0.569565
G1 X92.87 Y8.759 E.02376
G1 X93.204 Y8.331 E.02377
G1 X93.621 Y7.984 E.02376
G1 X94.104 Y7.735 E.0238
;WIDTH:0.579226
G1 X94.538 Y7.624 E.01998
M204 S1000
;WIPE_START
G1 F8640
G1 X94.596 Y7.609 E-.01383
G1 X94.63 Y7.601 E-.00807
G1 X95.171 Y7.575 E-.12506
G1 X95.705 Y7.669 E-.1252
G1 X96.206 Y7.876 E-.12517
G1 X96.652 Y8.185 E-.12528
G1 X97.02 Y8.583 E-.12516
G1 X97.295 Y9.051 E-.12534
G1 X97.33 Y9.162 E-.02689
;WIPE_END
G1 Z.6 F720
G1 X95.441 Y8.153 F10800
G1 Z.2 F720
G1 E.8 F2100
M204 S800
;WIDTH:0.564472
G1 F1200
G1 X95.766 Y8.248 E.01468
G1 X96.142 Y8.454 E.01859
G1 X96.464 Y8.736 E.01856
G1 X96.718 Y9.08 E.01854
;WIDTH:0.566651
G1 X96.89 Y9.467 E.01844
;WIDTH:0.568435
G1 X96.987 Y10.034 E.02514
G1 X96.937 Y10.532 E.02187
G1 X96.787 Y10.948 E.01932
G1 X96.473 Y11.409 E.02437
;WIDTH:0.566402
G1 X96.096 Y11.733 E.02164
;WIDTH:0.566615
G1 X95.718 Y11.925 E.01846
;WIDTH:0.568477
G1 X95.158 Y12.053 E.0251
G1 X94.658 Y12.03 E.02187
G1 X94.234 Y11.903 E.01934
G1 X93.757 Y11.614 E.02437
;WIDTH:0.574567
G1 X93.571 Y11.438 E.01132
G1 X93.312 Y11.097 E.01893
G1 X93.132 Y10.709 E.01891
G1 X93.04 Y10.291 E.01892
;WIDTH:0.580558
G1 X93.048 Y9.878 E.01847
G1 X93.136 Y9.418 E.02094
;WIDTH:0.567991
G1 X93.322 Y9.031 E.01875
G1 X93.586 Y8.694 E.01869
G1 X93.917 Y8.421 E.01873
;WIDTH:0.568435
G1 X94.312 Y8.222 E.01933
G1 X94.857 Y8.103 E.02438
;WIDTH:0.566403
G1 X95.355 Y8.127 E.0217
;WIDTH:0.564472
G1 X95.384 Y8.136 E.00132
M204 S1000
;WIPE_START
G1 F8640
G1 X95.441 Y8.153 E-.01373
G1 X95.766 Y8.248 E-.07818
G1 X96.142 Y8.454 E-.099
G1 X96.464 Y8.736 E-.09883
G1 X96.718 Y9.08 E-.09874
G1 X96.89 Y9.467 E-.09779
G1 X96.987 Y10.034 E-.13282
G1 X96.937 Y10.532 E-.11557
G1 X96.841 Y10.798 E-.06534
;WIPE_END
G1 Z.6 F720
; stop printing object Pi Spacer.stl id:1 copy 0
; printing object Pi Spacer.stl id:5 copy 0
G1 X94.289 Y17.805 F10800
G1 Z.2 F720
G1 E.8 F2100
M204 S800
;WIDTH:0.579226
G1 F1200
G1 X94.323 Y17.796 E.00157
G1 X94.864 Y17.771 E.02415
;WIDTH:0.574565
G1 X95.398 Y17.865 E.02397
G1 X95.9 Y18.071 E.02399
G1 X96.345 Y18.381 E.02397
G1 X96.713 Y18.779 E.02396
G1 X96.988 Y19.246 E.02396
;WIDTH:0.580457
G1 X97.152 Y19.761 E.02416
G1 X97.21 Y20.302 E.02432
M73 P3 R8
;WIDTH:0.569566
G1 X97.145 Y20.841 E.02377
G1 X96.966 Y21.353 E.02375
;WIDTH:0.579227
G1 X96.677 Y21.812 E.02419
G1 X96.301 Y22.203 E.02419
;WIDTH:0.574565
G1 X95.849 Y22.502 E.02396
;WIDTH:0.580555
G1 X95.342 Y22.694 E.02424
G1 X94.807 Y22.781 E.02423
M73 Q3 S8
;WIDTH:0.569566
G1 X94.266 Y22.746 E.02374
G1 X93.744 Y22.595 E.0238
;WIDTH:0.579228
G1 X93.27 Y22.331 E.0242
G1 X92.859 Y21.977 E.02419
;WIDTH:0.574567
G1 X92.536 Y21.541 E.02399
G1 X92.314 Y21.047 E.02394
G1 X92.204 Y20.516 E.02397
;WIDTH:0.580558
G1 X92.213 Y19.974 E.02423
G1 X92.33 Y19.445 E.02422
;WIDTH:0.569565
G1 X92.563 Y18.955 E.02376
G1 X92.897 Y18.526 E.02381
G1 X93.315 Y18.18 E.02376
G1 X93.797 Y17.931 E.02376
;WIDTH:0.579226
G1 X94.231 Y17.82 E.01998
M204 S1000
;WIPE_START
G1 F8640
G1 X94.289 Y17.805 E-.01383
G1 X94.323 Y17.796 E-.00812
G1 X94.864 Y17.771 E-.12505
G1 X95.398 Y17.865 E-.1252
G1 X95.9 Y18.071 E-.12529
G1 X96.345 Y18.381 E-.12523
G1 X96.713 Y18.779 E-.12516
G1 X96.988 Y19.246 E-.12514
G1 X97.023 Y19.357 E-.02698
;WIPE_END
G1 Z.6 F720
G1 X95.135 Y18.348 F10800
G1 Z.2 F720
G1 E.8 F2100
M204 S800
;WIDTH:0.564472
G1 F1200
G1 X95.459 Y18.443 E.01464
G1 X95.835 Y18.649 E.01859
G1 X96.157 Y18.931 E.01856
G1 X96.411 Y19.275 E.01854
;WIDTH:0.566651
G1 X96.583 Y19.663 E.01848
;WIDTH:0.568435
G1 X96.681 Y20.229 E.0251
G1 X96.63 Y20.727 E.02187
G1 X96.48 Y21.143 E.01932
G1 X96.166 Y21.604 E.02437
;WIDTH:0.566402
G1 X95.789 Y21.928 E.02164
;WIDTH:0.566615
G1 X95.411 Y22.121 E.01848
;WIDTH:0.568477
G1 X94.851 Y22.249 E.0251
G1 X94.351 Y22.225 E.02188
G1 X93.928 Y22.098 E.0193
G1 X93.45 Y21.81 E.02439
;WIDTH:0.574567
G1 X93.264 Y21.633 E.01135
G1 X93.005 Y21.293 E.01889
G1 X92.826 Y20.905 E.01889
G1 X92.733 Y20.486 E.01897
;WIDTH:0.580558
G1 X92.741 Y20.073 E.01847
G1 X92.83 Y19.613 E.02095
;WIDTH:0.567991
G1 X93.015 Y19.227 E.01869
G1 X93.28 Y18.889 E.01875
G1 X93.61 Y18.616 E.0187
;WIDTH:0.568435
G1 X94.005 Y18.417 E.01933
G1 X94.55 Y18.298 E.02438
;WIDTH:0.566403
G1 X95.048 Y18.323 E.0217
;WIDTH:0.564472
G1 X95.077 Y18.331 E.0013
M204 S1000
;WIPE_START
G1 F8640
G1 X95.135 Y18.348 E-.01396
G1 X95.459 Y18.443 E-.07796
G1 X95.835 Y18.649 E-.099
G1 X96.157 Y18.931 E-.09883
G1 X96.411 Y19.275 E-.09874
G1 X96.583 Y19.663 E-.098
G1 X96.681 Y20.229 E-.13264
G1 X96.63 Y20.727 E-.11559
G1 X96.534 Y20.993 E-.06528
;WIPE_END
G1 Z.6 F720
; stop printing object Pi Spacer.stl id:5 copy 0
; printing object Pi Spacer.stl id:4 copy 0
G1 X84.496 Y17.449 F10800
G1 Z.2 F720
G1 E.8 F2100
M204 S800
;WIDTH:0.579226
G1 F1200
G1 X84.53 Y17.44 E.00157
G1 X85.071 Y17.414 E.02415
;WIDTH:0.574565
G1 X85.605 Y17.508 E.02397
G1 X86.107 Y17.715 E.024
G1 X86.552 Y18.024 E.02395
G1 X86.92 Y18.422 E.02396
G1 X87.195 Y18.89 E.024
;WIDTH:0.580457
G1 X87.358 Y19.405 E.02414
G1 X87.417 Y19.945 E.02428
;WIDTH:0.569566
G1 X87.352 Y20.484 E.02377
G1 X87.173 Y20.997 E.02379
;WIDTH:0.579227
G1 X86.883 Y21.456 E.02421
G1 X86.508 Y21.847 E.02416
;WIDTH:0.574565
G1 X86.056 Y22.146 E.02396
;WIDTH:0.580555
G1 X85.549 Y22.338 E.02424
G1 X85.014 Y22.425 E.02423
;WIDTH:0.569566
G1 X84.472 Y22.389 E.02379
G1 X83.951 Y22.238 E.02375
;WIDTH:0.579228
G1 X83.477 Y21.974 E.0242
G1 X83.066 Y21.621 E.02416
;WIDTH:0.574567
G1 X82.743 Y21.185 E.02399
G1 X82.521 Y20.69 E.02398
G1 X82.41 Y20.159 E.02398
;WIDTH:0.580558
G1 X82.42 Y19.617 E.02423
G1 X82.537 Y19.088 E.02422
;WIDTH:0.569565
G1 X82.77 Y18.598 E.02376
G1 X83.104 Y18.17 E.02377
G1 X83.521 Y17.823 E.02376
G1 X84.004 Y17.574 E.0238
;WIDTH:0.579226
G1 X84.438 Y17.463 E.01998
M204 S1000
;WIPE_START
G1 F8640
G1 X84.496 Y17.449 E-.01378
G1 X84.53 Y17.44 E-.00812
G1 X85.071 Y17.414 E-.12506
G1 X85.605 Y17.508 E-.1252
G1 X86.107 Y17.715 E-.12538
G1 X86.552 Y18.024 E-.12509
G1 X86.92 Y18.422 E-.12516
G1 X87.195 Y18.89 E-.12534
G1 X87.23 Y19.001 E-.02687
;WIPE_END
G1 Z.6 F720
G1 X85.342 Y17.992 F10800
G1 Z.2 F720
G1 E.8 F2100
M204 S800
;WIDTH:0.564472
G1 F1200
G1 X85.666 Y18.087 E.01464
G1 X86.042 Y18.293 E.01859
G1 X86.364 Y18.575 E.01856
G1 X86.618 Y18.919 E.01854
;WIDTH:0.566651
G1 X86.79 Y19.306 E.01844
;WIDTH:0.568435
G1 X86.887 Y19.873 E.02514
G1 X86.837 Y20.371 E.02187
G1 X86.687 Y20.787 E.01932
G1 X86.373 Y21.248 E.02437
;WIDTH:0.566402
G1 X85.996 Y21.572 E.02164
;WIDTH:0.566615
G1 X85.618 Y21.764 E.01846
;WIDTH:0.568477
G1 X85.058 Y21.892 E.0251
G1 X84.558 Y21.869 E.02187
G1 X84.134 Y21.742 E.01934
G1 X83.657 Y21.454 E.02435
;WIDTH:0.574567
G1 X83.471 Y21.277 E.01135
G1 X83.212 Y20.936 E.01893
G1 X83.032 Y20.548 E.01891
G1 X82.94 Y20.13 E.01892
;WIDTH:0.580558
G1 X82.948 Y19.717 E.01847
G1 X83.037 Y19.257 E.02095
;WIDTH:0.567991
G1 X83.222 Y18.87 E.01873
G1 X83.487 Y18.533 E.01872
G1 X83.817 Y18.26 E.0187
;WIDTH:0.568435
G1 X84.212 Y18.061 E.01933
G1 X84.757 Y17.942 E.02438
;WIDTH:0.566403
G1 X85.255 Y17.966 E.0217
;WIDTH:0.564472
G1 X85.284 Y17.975 E.00132
M204 S1000
;WIPE_START
G1 F8640
G1 X85.342 Y17.992 E-.01396
G1 X85.666 Y18.087 E-.07796
G1 X86.042 Y18.293 E-.099
G1 X86.364 Y18.575 E-.09883
G1 X86.618 Y18.919 E-.09874
G1 X86.79 Y19.306 E-.09779
G1 X86.887 Y19.873 E-.13282
G1 X86.837 Y20.371 E-.11557
G1 X86.741 Y20.637 E-.06533
;WIPE_END
G1 Z.6 F720
; stop printing object Pi Spacer.stl id:4 copy 0
; printing object Pi Spacer.stl id:0 copy 0
G1 X84.262 Y7.737 F10800
G1 Z.2 F720
G1 E.8 F2100
M204 S800
;WIDTH:0.579226
G1 F1200
G1 X84.296 Y7.728 E.00157
G1 X84.837 Y7.703 E.02415
;WIDTH:0.574565
G1 X85.371 Y7.797 E.02397
G1 X85.873 Y8.003 E.02399
G1 X86.318 Y8.312 E.02395
G1 X86.686 Y8.71 E.02396
G1 X86.961 Y9.178 E.024
;WIDTH:0.580457
G1 X87.124 Y9.693 E.02414
G1 X87.183 Y10.234 E.02432
;WIDTH:0.569566
G1 X87.118 Y10.773 E.02377
G1 X86.939 Y11.285 E.02375
;WIDTH:0.579227
G1 X86.65 Y11.744 E.02419
G1 X86.274 Y12.135 E.02419
;WIDTH:0.574565
G1 X85.822 Y12.434 E.02396
;WIDTH:0.580555
G1 X85.315 Y12.626 E.02424
G1 X84.78 Y12.713 E.02423
;WIDTH:0.569566
G1 X84.238 Y12.678 E.02378
G1 X83.717 Y12.527 E.02375
;WIDTH:0.579228
G1 X83.243 Y12.262 E.02422
G1 X82.832 Y11.909 E.02416
;WIDTH:0.574567
G1 X82.509 Y11.473 E.02399
G1 X82.287 Y10.979 E.02394
G1 X82.176 Y10.448 E.02398
;WIDTH:0.580558
G1 X82.186 Y9.905 E.02428
G1 X82.303 Y9.377 E.02418
;WIDTH:0.569565
G1 X82.536 Y8.887 E.02376
