; generated by PrusaSlicer 2.7.4+linux-x64-GTK3 on 2024-05-07 at 15:47:52 UTC


;
;
; 

; external perimeters extrusion width = 0.45mm
; perimeters extrusion width = 0.45mm
; infill extrusion width = 0.45mm
; solid infill extrusion width = 0.45mm
; top infill extrusion width = 0.40mm
; first layer extrusion width = 0.42mm

; external perimeters extrusion width = 0.45mm
; perimeters extrusion width = 0.45mm
; infill extrusion width = 0.45mm
; solid infill extrusion width = 0.45mm
; top infill extrusion width = 0.40mm
; first layer extrusion width = 0.42mm

M73 P0 R11
M73 Q0 S11
M201 X1000 Y1000 Z200 E5000 ; sets maximum accelerations, mm/sec^2
M203 X200 Y200 Z12 E120 ; sets maximum feedrates, mm / sec
M204 S1250 T1250 ; sets acceleration (S) and retract acceleration (R), mm/sec^2
M205 X8.00 Y8.00 Z0.40 E4.50 ; sets the jerk limits, mm/sec
M205 S0 T0 ; sets the minimum extruding and travel feed rate, mm/sec

; printing object washer_out.stl id:1 copy 0
; stop printing object washer_out.stl id:1 copy 0
; printing object washer_in.stl id:0 copy 0
; stop printing object washer_in.stl id:0 copy 0

;TYPE:Custom
M862.3 P "MK3" ; printer model check
M862.1 P0.4 ; nozzle diameter check
M115 U3.13.3 ; tell printer latest fw version
G90 ; use absolute coordinates
M83 ; extruder relative mode
M104 S215 ; set extruder temp
M140 S60 ; set bed temp
M190 S60 ; wait for bed temp
M109 S215 ; wait for extruder temp
G28 W ; home all without mesh bed level
G80 X21.2303 Y78.444 W16.0377 H33.3817 ; mesh bed levelling

G1 Z0.2 F720
G1 Y-3 F1000 ; go outside print area
G92 E0
G1 X60 E9 F1000 ; intro line
G1 X100 E12.5 F1000 ; intro line

G92 E0
M221 S95

; Don't change E values below. Excessive value can damage the printer.
M907 E430 ; set extruder motor current
G21 ; set units to millimeters
G90 ; use absolute coordinates
M83 ; use relative distances for extrusion

M900 K0.05 ; Filament gcode LA 1.5
M900 K30 ; Filament gcode LA 1.0




M107
;LAYER_CHANGE
;Z:0.2
;HEIGHT:0.2
G1 E-.8 F2100
G1 Z.6 F720
G1 X26.223 Y78.917 F10800
G1 Z.2 F720
M73 P1 R11
M73 Q1 S11
G1 E.8 F2100
M204 S800
;TYPE:Skirt/Brim
;WIDTH:0.42
G1 F1200
G1 X27.228 Y78.695 E.03227
G1 X28.687 Y78.649 E.04577
G1 X29.412 Y78.744 E.02293
G1 X30.533 Y79.055 E.03648
G1 X31.466 Y79.487 E.03224
G1 X32.429 Y80.14 E.03648
G1 X32.971 Y80.631 E.02293
G1 X33.637 Y81.415 E.03225
G1 X34.237 Y82.411 E.03646
G1 X34.617 Y83.367 E.03226
G1 X34.885 Y84.629 E.04045
G1 X37.08 Y103.741 E.60318
G1 X36.933 Y105.396 E.0521
G1 X36.626 Y106.506 E.03611
G1 X35.894 Y108.014 E.05256
G1 X34.859 Y109.322 E.0523
G1 X33.802 Y110.221 E.04351
G1 X32.337 Y111.035 E.05255
G1 X30.734 Y111.514 E.05246
G1 X29.6 Y111.637 E.03576
G1 X28.223 Y111.562 E.04324
G1 X26.6 Y111.145 E.05254
G1 X25.104 Y110.389 E.05256
G1 X23.806 Y109.328 E.05256
G1 X22.766 Y108.014 E.05254
G1 X22.233 Y107.009 E.03567
G1 X21.729 Y105.411 E.05254
G1 X21.576 Y103.914 E.04718
G1 X21.419 Y85.404 E.58039
G1 X21.478 Y84.503 E.02831
G1 X21.729 Y83.367 E.03648
G1 X22.109 Y82.411 E.03226
G1 X22.709 Y81.414 E.03648
G1 X23.375 Y80.63 E.03225
G1 X24.261 Y79.877 E.03646
G1 X25.143 Y79.347 E.03226
G1 X26.168 Y78.939 E.03459
M204 S1000
G1 X26.168 Y78.939 F10800
G1 X26.307 Y79.289
M204 S800
G1 F1200
G1 X26.344 Y79.274 E.00125
G1 X27.269 Y79.07 E.0297
G1 X28.646 Y79.024 E.0432
G1 X29.331 Y79.112 E.02165
G1 X30.413 Y79.412 E.03521
G1 X31.272 Y79.81 E.02968
G1 X32.201 Y80.44 E.03519
G1 X32.712 Y80.904 E.02164
G1 X33.325 Y81.626 E.0297
G1 X33.903 Y82.588 E.03519
G1 X34.254 Y83.468 E.02971
G1 X34.51 Y84.672 E.03859
G1 X36.703 Y103.762 E.60249
G1 X36.561 Y105.335 E.04952
G1 X36.276 Y106.367 E.03357
G1 X35.581 Y107.802 E.04999
G1 X34.6 Y109.049 E.04975
G1 X33.574 Y109.921 E.04222
G1 X32.178 Y110.693 E.05002
G1 X30.652 Y111.145 E.0499
G1 X29.6 Y111.26 E.03318
G1 X28.264 Y111.188 E.04195
G1 X26.72 Y110.788 E.05001
G1 X25.298 Y110.066 E.05
G1 X24.065 Y109.055 E.04999
G1 X23.078 Y107.802 E.05001
G1 X22.584 Y106.87 E.03307
G1 X22.101 Y105.35 E.05001
G1 X21.953 Y103.91 E.04539
G1 X21.796 Y85.401 E.58036
G1 X21.976 Y83.885 E.04787
M73 P2 R11
M73 Q2 S11
G1 X22.334 Y82.821 E.0352
G1 X23.005 Y81.65 E.04232
G1 X23.634 Y80.904 E.0306
G1 X24.49 Y80.178 E.03519
G1 X25.301 Y79.689 E.02969
G1 X26.251 Y79.311 E.03206
M204 S1000
;WIPE_START
G1 F8640
G1 X26.307 Y79.289 E-.01389
G1 X26.344 Y79.274 E-.00922
G1 X27.269 Y79.07 E-.21872
G1 X28.646 Y79.024 E-.31813
G1 X29.331 Y79.112 E-.15947
G1 X29.667 Y79.205 E-.08057
;WIPE_END
G1 Z.6 F720
; printing object washer_in.stl id:0 copy 0
G1 X30.518 Y99.853 F10800
G1 Z.2 F720
G1 E.8 F2100
M204 S800
;TYPE:Perimeter
;WIDTH:0.419999
G1 F1200
G1 X31.033 Y100.044 E.01722
G1 X31.557 Y100.322 E.0186
G1 X32.005 Y100.641 E.01724
G1 X32.387 Y100.994 E.01631
G1 X32.719 Y101.395 E.01632
G1 X33.013 Y101.86 E.01725
G1 X33.262 Y102.398 E.01859
G1 X33.426 Y102.923 E.01725
G1 X33.517 Y103.435 E.0163
G1 X33.538 Y103.955 E.01632
G1 X33.469 Y104.639 E.02156
G1 X33.338 Y105.173 E.01724
G1 X33.152 Y105.659 E.01632
G1 X32.902 Y106.115 E.01631
G1 X32.58 Y106.56 E.01722
G1 X32.172 Y106.991 E.01861
G1 X31.745 Y107.337 E.01723
G1 X31.302 Y107.611 E.01633
G1 X30.827 Y107.824 E.01632
G1 X30.301 Y107.983 E.01723
G1 X29.716 Y108.079 E.01859
G1 X29.166 Y108.096 E.01725
G1 X28.648 Y108.047 E.01631
G1 X28.142 Y107.928 E.0163
G1 X27.626 Y107.736 E.01726
G1 X27.108 Y107.461 E.01839
G1 X26.655 Y107.14 E.01741
G1 X26.272 Y106.787 E.01633
G1 X25.941 Y106.386 E.0163
G1 X25.626 Y105.883 E.01861
G1 X25.413 Y105.423 E.01589
G1 X25.234 Y104.858 E.01858
G1 X25.143 Y104.346 E.0163
G1 X25.121 Y103.826 E.01632
G1 X25.175 Y103.236 E.01858
G1 X25.284 Y102.74 E.01592
G1 X25.483 Y102.182 E.01857
G1 X25.721 Y101.719 E.01632
G1 X26.018 Y101.292 E.01631
G1 X26.415 Y100.859 E.01842
G1 X26.801 Y100.53 E.0159
G1 X27.302 Y100.202 E.01878
G1 X27.771 Y99.978 E.0163
G1 X28.266 Y99.818 E.01631
G1 X28.765 Y99.721 E.01594
G1 X29.493 Y99.685 E.02285
G1 X30.011 Y99.734 E.01631
G1 X30.459 Y99.839 E.01443
M204 S1000
G1 X30.459 Y99.839 F10800
G1 X30.618 Y99.5
M204 S800
;TYPE:External perimeter
G1 F1200
G1 X30.858 Y99.57 E.00784
G1 X31.402 Y99.8 E.01852
G1 X31.905 Y100.092 E.01824
G1 X32.362 Y100.451 E.01822
G1 X32.778 Y100.871 E.01854
G1 X33.108 Y101.297 E.0169
G1 X33.391 Y101.767 E.0172
G1 X33.612 Y102.258 E.01688
G1 X33.789 Y102.822 E.01853
G1 X33.892 Y103.394 E.01822
G1 X33.914 Y103.975 E.01823
G1 X33.841 Y104.7 E.02285
G1 X33.702 Y105.274 E.01852
G1 X33.495 Y105.817 E.01822
G1 X33.214 Y106.327 E.01826
G1 X32.867 Y106.805 E.01852
G1 X32.5 Y107.199 E.01688
G1 X32.082 Y107.554 E.01719
G1 X31.633 Y107.853 E.01691
G1 X31.105 Y108.118 E.01852
G1 X30.557 Y108.312 E.01823
G1 X29.988 Y108.428 E.01821
G1 X29.399 Y108.473 E.01852
G1 X28.86 Y108.449 E.01692
G1 X28.319 Y108.36 E.01719
G1 X27.801 Y108.211 E.0169
G1 X27.257 Y107.981 E.01852
G1 X26.754 Y107.689 E.01824
G1 X26.297 Y107.33 E.01822
G1 X25.92 Y106.954 E.01669
G1 X25.522 Y106.441 E.02036
G1 X25.249 Y105.976 E.01691
G1 X25.012 Y105.435 E.01852
G1 X24.848 Y104.877 E.01824
G1 X24.763 Y104.302 E.01822
G1 X24.75 Y103.711 E.01853
G1 X24.803 Y103.175 E.01689
G1 X24.921 Y102.639 E.01721
G1 X25.098 Y102.13 E.0169
G1 X25.357 Y101.599 E.01852
G1 X25.676 Y101.113 E.01823
G1 X26.059 Y100.676 E.01822
G1 X26.497 Y100.287 E.01837
G1 X26.949 Y99.974 E.01724
G1 X27.434 Y99.718 E.0172
G1 X27.932 Y99.526 E.01673
G1 X28.504 Y99.38 E.01851
G1 X29.081 Y99.308 E.01823
G1 X29.663 Y99.317 E.01825
G1 X30.34 Y99.42 E.02147
G1 X30.56 Y99.484 E.00718
M204 S1000
;WIPE_START
G1 F8640
G1 X30.618 Y99.5 E-.01389
G1 X30.858 Y99.57 E-.05773
G1 X31.402 Y99.8 E-.13638
G1 X31.905 Y100.092 E-.1343
G1 X32.362 Y100.451 E-.13419
G1 X32.778 Y100.871 E-.1365
G1 X33.108 Y101.297 E-.12443
G1 X33.248 Y101.529 E-.06258
;WIPE_END
G1 Z.6 F720
G1 X28.993 Y102.097 F10800
G1 Z.2 F720
G1 E.8 F2100
M204 S800
;TYPE:Perimeter
G1 F1200
G1 X29.505 Y102.069 E.01608
G1 X29.981 Y102.172 E.01527
G1 X30.41 Y102.406 E.01532
G1 X30.704 Y102.673 E.01245
G1 X30.934 Y102.997 E.01246
G1 X31.088 Y103.362 E.01242
G1 X31.156 Y103.83 E.01483
G1 X31.109 Y104.345 E.01621
G1 X30.969 Y104.716 E.01243
G1 X30.754 Y105.05 E.01245
G1 X30.471 Y105.329 E.01246
G1 X30.135 Y105.54 E.01244
G1 X29.762 Y105.675 E.01244
G1 X29.368 Y105.726 E.01246
G1 X28.972 Y105.691 E.01246
G1 X28.594 Y105.572 E.01243
G1 X28.193 Y105.321 E.01483
G1 X27.832 Y104.952 E.01619
G1 X27.639 Y104.605 E.01245
G1 X27.528 Y104.255 E.01151
G1 X27.495 Y103.829 E.0134
G1 X27.551 Y103.436 E.01245
G1 X27.69 Y103.064 E.01245
G1 X27.906 Y102.731 E.01245
G1 X28.185 Y102.456 E.01228
G1 X28.529 Y102.238 E.01277
G1 X28.934 Y102.107 E.01335
M204 S1000
G1 X28.934 Y102.107 F10800
G1 X29.013 Y102.474
M204 S800
;TYPE:External perimeter
G1 F1200
G1 X29.525 Y102.446 E.01608
G1 X29.889 Y102.541 E.0118
G1 X30.271 Y102.782 E.01416
G1 X30.582 Y103.137 E.0148
G1 X30.75 Y103.578 E.0148
G1 X30.779 Y103.811 E.00736
G1 X30.751 Y104.224 E.01298
G1 X30.575 Y104.64 E.01416
G1 X30.276 Y105.004 E.01477
G1 X29.868 Y105.241 E.01479
G1 X29.409 Y105.349 E.01478
G1 X28.941 Y105.291 E.01479
G1 X28.514 Y105.102 E.01464
G1 X28.155 Y104.758 E.01559
G1 X27.952 Y104.355 E.01415
G1 X27.901 Y104.194 E.0053
G1 X27.884 Y103.733 E.01446
G1 X28.003 Y103.277 E.01478
G1 X28.274 Y102.891 E.01479
G1 X28.65 Y102.597 E.01497
G1 X28.955 Y102.485 E.01019
M204 S1000
;WIPE_START
G1 F8640
G1 X29.013 Y102.474 E-.01363
G1 X29.525 Y102.446 E-.1184
G1 X29.889 Y102.541 E-.08686
G1 X30.271 Y102.782 E-.10429
G1 X30.582 Y103.137 E-.10898
G1 X30.75 Y103.578 E-.10897
G1 X30.779 Y103.811 E-.05422
G1 X30.751 Y104.224 E-.09558
G1 X30.575 Y104.64 E-.1043
G1 X30.562 Y104.656 E-.00477
;WIPE_END
G1 Z.6 F720
G1 X31.23 Y100.324 F10800
G1 Z.2 F720
G1 E.8 F2100
M204 S800
;TYPE:Solid infill
;WIDTH:0.429512
G1 F1200
G1 X32.177 Y101.271 E.04305
G1 X32.412 Y101.547 E.01165
G1 X32.647 Y101.894 E.01347
G1 X32.844 Y102.265 E.0135
G1 X32.989 Y102.629 E.0126
G1 X30.598 Y100.238 E.1087
G1 X30.366 Y100.16 E.00787
G1 X29.876 Y100.063 E.01606
G1 X33.158 Y103.345 E.1492
G1 X33.199 Y103.933 E.01895
M73 Q3 S11
G1 X29.29 Y100.024 E.1777
M73 P3 R11
G1 X28.781 Y100.061 E.01641
G1 X33.158 Y104.438 E.19898
G1 X33.062 Y104.889 E.01482
G1 X31.396 Y103.223 E.07574
G1 X31.379 Y103.152 E.00235
G1 X31.148 Y102.696 E.01643
G1 X30.88 Y102.361 E.01379
G1 X30.515 Y102.063 E.01515
G1 X30.096 Y101.852 E.01508
G1 X29.997 Y101.824 E.00331
G1 X28.325 Y100.153 E.07599
G1 X27.914 Y100.288 E.01391
G1 X29.364 Y101.737 E.06589
G1 X28.852 Y101.772 E.0165
G1 X27.539 Y100.459 E.05969
G1 X27.195 Y100.662 E.01284
G1 X28.444 Y101.912 E.0568
G1 X28.313 Y101.964 E.00453
G1 X28.095 Y102.109 E.00842
G1 X26.881 Y100.895 E.05519
G1 X26.595 Y101.156 E.01245
G1 X27.799 Y102.359 E.05471
G1 X27.623 Y102.537 E.00805
G1 X27.548 Y102.655 E.00449
G1 X26.336 Y101.443 E.0551
G1 X26.104 Y101.758 E.01258
G1 X27.352 Y103.006 E.05673
G1 X27.21 Y103.411 E.0138
G1 X25.903 Y102.104 E.05942
G1 X25.731 Y102.478 E.01323
G1 X27.344 Y104.091 E.07333
M204 S1000
;WIPE_START
G1 F8640
G1 X25.731 Y102.478 E-.52672
G1 X25.903 Y102.104 E-.09505
G1 X26.449 Y102.65 E-.17823
;WIPE_END
G1 Z.6 F720
G1 X31.32 Y103.694 F10800
G1 Z.2 F720
G1 E.8 F2100
M204 S800
G1 F1200
G1 X32.929 Y105.303 E.07315
G1 X32.758 Y105.678 E.01325
G1 X31.449 Y104.369 E.05951
G1 X31.315 Y104.782 E.01396
G1 X32.555 Y106.022 E.05637
G1 X32.324 Y106.338 E.01258
G1 X31.117 Y105.13 E.05489
G1 X30.863 Y105.423 E.01246
G1 X32.064 Y106.625 E.05462
G1 X31.778 Y106.886 E.01245
G1 X30.565 Y105.673 E.05514
G1 X30.349 Y105.816 E.00833
G1 X30.215 Y105.869 E.00463
G1 X31.464 Y107.118 E.05678
G1 X31.121 Y107.322 E.01283
G1 X29.806 Y106.007 E.05978
G1 X29.448 Y106.066 E.01166
G1 X29.312 Y106.059 E.00438
G1 X30.745 Y107.493 E.06517
G1 X30.334 Y107.628 E.01391
G1 X28.655 Y105.949 E.07633
G1 X28.525 Y105.915 E.00432
G1 X28.151 Y105.721 E.01354
G1 X28.006 Y105.611 E.00585
G1 X27.597 Y105.211 E.01839
G1 X27.352 Y104.805 E.01524
G1 X27.272 Y104.566 E.0081
G1 X25.595 Y102.889 E.07624
G1 X25.502 Y103.343 E.0149
G1 X29.879 Y107.72 E.19898
G1 X29.369 Y107.757 E.01644
G1 X25.46 Y103.848 E.1777
G1 X25.501 Y104.436 E.01895
G1 X28.786 Y107.72 E.14931
G1 X28.294 Y107.621 E.01613
G1 X28.062 Y107.543 E.00787
G1 X25.67 Y105.152 E.10872
G1 X25.761 Y105.38 E.00789
G1 X26.013 Y105.888 E.01823
G1 X26.247 Y106.233 E.0134
G1 X26.483 Y106.511 E.01172
G1 X27.429 Y107.457 E.04301
M204 S1000
;WIPE_START
G1 F8640
G1 X26.483 Y106.511 E-.30891
G1 X26.247 Y106.233 E-.0842
G1 X26.013 Y105.888 E-.09626
G1 X25.761 Y105.38 E-.13094
G1 X25.67 Y105.152 E-.05668
G1 X26.047 Y105.529 E-.12301
;WIPE_END
G1 Z.6 F720
; stop printing object washer_in.stl id:0 copy 0
; printing object washer_out.stl id:1 copy 0
G1 X30.251 Y87.827 F10800
G1 Z.2 F720
G1 E.8 F2100
M204 S800
;TYPE:Perimeter
;WIDTH:0.419999
G1 F1200
G1 X29.676 Y88.216 E.02177
G1 X29.031 Y88.473 E.02177
G1 X28.347 Y88.585 E.02173
G1 X27.654 Y88.548 E.02176
G1 X26.985 Y88.362 E.02177
G1 X26.372 Y88.037 E.02175
G1 X25.843 Y87.588 E.02176
G1 X25.423 Y87.035 E.02177
G1 X25.132 Y86.406 E.02173
G1 X24.982 Y85.728 E.02177
G1 X24.982 Y85.034 E.02176
G1 X25.132 Y84.356 E.02177
G1 X25.423 Y83.726 E.02176
G1 X25.832 Y83.186 E.02124
G1 X26.373 Y82.724 E.02231
G1 X26.985 Y82.399 E.02173
G1 X27.654 Y82.214 E.02176
G1 X28.347 Y82.176 E.02176
G1 X29.032 Y82.289 E.02177
G1 X29.676 Y82.545 E.02173
G1 X30.251 Y82.935 E.02178
G1 X30.676 Y83.384 E.01938
G1 X30.976 Y83.851 E.0174
G1 X31.153 Y84.235 E.01326
G1 X31.315 Y84.765 E.01738
G1 X31.382 Y85.381 E.01943
G1 X31.307 Y86.071 E.02176
G1 X31.086 Y86.728 E.02173
G1 X30.728 Y87.323 E.02177
G1 X30.292 Y87.783 E.01987
M204 S1000
G1 X30.292 Y87.783 F10800
M73 Q4 S11
G1 X30.496 Y88.116
M204 S800
;TYPE:External perimeter
G1 F1200
G1 X29.854 Y88.551 E.02431
G1 X29.133 Y88.839 E.02434
G1 X28.367 Y88.964 E.02434
M73 P4 R11
G1 X27.592 Y88.922 E.02434
G1 X26.845 Y88.714 E.02431
G1 X26.159 Y88.351 E.02433
G1 X25.568 Y87.849 E.02431
G1 X25.098 Y87.231 E.02434
G1 X24.772 Y86.527 E.02433
G1 X24.605 Y85.769 E.02434
G1 X24.605 Y84.993 E.02433
G1 X24.772 Y84.235 E.02434
G1 X25.098 Y83.531 E.02433
G1 X25.556 Y82.926 E.02379
G1 X26.159 Y82.41 E.02488
G1 X26.845 Y82.047 E.02433
G1 X27.592 Y81.84 E.0243
G1 X28.367 Y81.798 E.02434
G1 X29.133 Y81.923 E.02434
G1 X29.854 Y82.21 E.02433
G1 X30.496 Y82.646 E.02433
G1 X31.03 Y83.209 E.02433
G1 X31.37 Y83.775 E.0207
G1 X31.554 Y84.242 E.01574
G1 X31.69 Y84.724 E.0157
G1 X31.761 Y85.381 E.02072
G1 X31.678 Y86.152 E.02431
G1 X31.43 Y86.888 E.02435
G1 X31.03 Y87.552 E.02431
G1 X30.537 Y88.072 E.02247
M204 S1000
;WIPE_START
G1 F8640
G1 X30.496 Y88.116 E-.01389
G1 X29.854 Y88.551 E-.17906
G1 X29.133 Y88.839 E-.17927
G1 X28.367 Y88.964 E-.17921
G1 X27.592 Y88.922 E-.17921
G1 X27.302 Y88.842 E-.06936
;WIPE_END
G1 Z.6 F720
G1 X27.913 Y83.573 F10800
G1 Z.2 F720
G1 E.8 F2100
M204 S800
;TYPE:Perimeter
G1 F1200
G1 X28.396 Y83.559 E.01515
G1 X28.909 Y83.699 E.01667
G1 X29.253 Y83.896 E.01243
G1 X29.547 Y84.163 E.01245
G1 X29.777 Y84.487 E.01246
G1 X29.931 Y84.853 E.01245
G1 X30.002 Y85.266 E.01314
G1 X29.968 Y85.776 E.01603
G1 X29.813 Y86.207 E.01436
G1 X29.597 Y86.54 E.01245
G1 X29.314 Y86.819 E.01246
G1 X28.978 Y87.031 E.01246
G1 X28.605 Y87.165 E.01243
G1 X28.211 Y87.216 E.01246
G1 X27.816 Y87.182 E.01243
G1 X27.437 Y87.063 E.01246
G1 X27.077 Y86.849 E.01313
G1 X26.709 Y86.493 E.01605
G1 X26.482 Y86.096 E.01434
G1 X26.378 Y85.776 E.01055
G1 X26.338 Y85.32 E.01435
G1 X26.394 Y84.927 E.01245
G1 X26.533 Y84.555 E.01245
G1 X26.833 Y84.133 E.01623
G1 X27.148 Y83.865 E.01297
G1 X27.495 Y83.68 E.01233
G1 X27.854 Y83.58 E.01168
M204 S1000
G1 X27.854 Y83.58 F10800
G1 X28.012 Y83.946
M204 S800
;TYPE:External perimeter
G1 F1200
G1 X28.429 Y83.943 E.01308
G1 X28.854 Y84.096 E.01416
G1 X29.234 Y84.376 E.0148
G1 X29.492 Y84.77 E.01477
G1 X29.624 Y85.217 E.01461
G1 X29.595 Y85.715 E.01564
G1 X29.49 Y86.012 E.00988
G1 X29.323 Y86.281 E.00993
G1 X29.103 Y86.507 E.00989
G1 X28.839 Y86.68 E.0099
G1 X28.544 Y86.793 E.0099
G1 X28.232 Y86.84 E.00989
G1 X27.917 Y86.818 E.0099
G1 X27.614 Y86.73 E.00989
G1 X27.335 Y86.574 E.01002
G1 X26.998 Y86.248 E.0147
G1 X26.795 Y85.845 E.01415
G1 X26.746 Y85.695 E.00495
G1 X26.728 Y85.224 E.01478
