; generated by PrusaSlicer 2.7.4+linux-x64-GTK3 on 2024-05-07 at 15:17:18 UTC


;
;
; 

; external perimeters extrusion width = 0.45mm
; perimeters extrusion width = 0.45mm
; infill extrusion width = 0.45mm
; solid infill extrusion width = 0.45mm
; top infill extrusion width = 0.40mm
; first layer extrusion width = 0.42mm

; external perimeters extrusion width = 0.45mm
; perimeters extrusion width = 0.45mm
; infill extrusion width = 0.45mm
; solid infill extrusion width = 0.45mm
; top infill extrusion width = 0.40mm
; first layer extrusion width = 0.42mm

M73 P0 R6
M73 Q0 S6
M201 X1000 Y1000 Z200 E5000 ; sets maximum accelerations, mm/sec^2
M203 X200 Y200 Z12 E120 ; sets maximum feedrates, mm / sec
M204 S1250 T1250 ; sets acceleration (S) and retract acceleration (R), mm/sec^2
M205 X8.00 Y8.00 Z0.40 E4.50 ; sets the jerk limits, mm/sec
M205 S0 T0 ; sets the minimum extruding and travel feed rate, mm/sec

; printing object washer steps.stl id:1 copy 0
; stop printing object washer steps.stl id:1 copy 0
; printing object washer steps.stl id:0 copy 0
; stop printing object washer steps.stl id:0 copy 0

;TYPE:Custom
M862.3 P "MK3" ; printer model check
M862.1 P0.4 ; nozzle diameter check
M115 U3.13.3 ; tell printer latest fw version
G90 ; use absolute coordinates
M83 ; extruder relative mode
M104 S215 ; set extruder temp
M140 S60 ; set bed temp
M190 S60 ; wait for bed temp
M109 S215 ; wait for extruder temp
G28 W ; home all without mesh bed level
G80 X12.9759 Y7.35429 W225.488 H184.63 ; mesh bed levelling

G1 Z0.2 F720
G1 Y-3 F1000 ; go outside print area
G92 E0
G1 X60 E9 F1000 ; intro line
G1 X100 E12.5 F1000 ; intro line
M73 P1 R6

G92 E0
M221 S95

; Don't change E values below. Excessive value can damage the printer.
M907 E430 ; set extruder motor current
G21 ; set units to millimeters
G90 ; use absolute coordinates
M83 ; use relative distances for extrusion

M900 K0.05 ; Filament gcode LA 1.5
M900 K30 ; Filament gcode LA 1.0




M107
;LAYER_CHANGE
;Z:0.2
;HEIGHT:0.2
G1 E-.8 F2100
M73 Q1 S6
G1 Z.6 F720
G1 X93.563 Y116.11 F10800
G1 Z.2 F720
G1 E.8 F2100
M204 S800
;TYPE:Skirt/Brim
;WIDTH:0.42
G1 F1200
M73 Q2 S6
G1 X226.174 Y9.251 E5.33986
G1 X227.335 Y8.458 E.04408
M73 P4 R5
M73 Q4 S6
G1 X228.806 Y7.842 E.05
G1 X230.26 Y7.569 E.04639
G1 X231.43 Y7.557 E.03669
G1 X232.678 Y7.757 E.03963
G1 X233.512 Y8.015 E.02737
G1 X234.47 Y8.458 E.03309
G1 X235.578 Y9.209 E.04197
G1 X236.344 Y9.935 E.03309
G1 X237.154 Y11.001 E.04198
G1 X237.541 Y11.7 E.02505
G1 X237.931 Y12.68 E.03307
G1 X238.215 Y13.961 E.04114
G1 X238.276 Y14.784 E.02588
G1 X238.219 Y15.838 E.0331
G1 X237.931 Y17.145 E.04196
G1 X237.649 Y17.892 E.02504
G1 X237.154 Y18.824 E.03309
G1 X236.344 Y19.89 E.04198
G1 X235.631 Y20.574 E.03098
G1 X25.213 Y190.129 E8.47289
G1 X24.105 Y190.881 E.04199
M73 P8 R5
M73 Q8 S5
G1 X22.634 Y191.497 E.05
G1 X21.065 Y191.782 E.05
G1 X19.472 Y191.723 E.04998
G1 X17.928 Y191.324 E.05
G1 X16.97 Y190.881 E.03309
G1 X15.862 Y190.129 E.04199
G1 X14.746 Y188.991 E.04998
G1 X13.9 Y187.639 E.05001
G1 X13.509 Y186.659 E.03308
G1 X13.221 Y185.351 E.04199
G1 X13.194 Y183.757 E.04999
G1 X13.502 Y182.22 E.04915
G1 X13.9 Y181.213 E.03395
G1 X14.746 Y179.861 E.05001
G1 X15.809 Y178.764 E.04789
G1 X93.516 Y116.148 E3.12902
M204 S1000
;WIPE_START
G1 F8640
M73 P9 R5
M73 Q9 S5
G1 X93.563 Y116.11 E-.01396
G1 X96.214 Y113.974 E-.78604
;WIPE_END
G1 Z.6 F720
; printing object washer steps.stl id:0 copy 0
G1 X17.926 Y187.721 F10800
G1 Z.2 F720
M73 P10 R5
G1 E.8 F2100
M204 S800
;TYPE:Perimeter
;WIDTH:0.419999
G1 F1200
G1 X17.811 Y187.636 E.00448
G1 X17.419 Y187.251 E.01723
G1 X17.094 Y186.841 E.0164
G1 X16.791 Y186.338 E.01841
G1 X16.571 Y185.832 E.0173
G1 X16.429 Y185.346 E.01588
G1 X16.347 Y184.813 E.01691
G1 X16.335 Y184.265 E.01719
G1 X16.398 Y183.68 E.01845
G1 X16.529 Y183.145 E.01727
G1 X16.715 Y182.658 E.01635
G1 X16.966 Y182.2 E.01638
G1 X17.29 Y181.754 E.01728
G1 X17.69 Y181.331 E.01825
G1 X18.122 Y180.98 E.01745
G1 X18.565 Y180.705 E.01635
G1 X19.041 Y180.493 E.01634
M73 Q10 S5
G1 X19.569 Y180.333 E.0173
G1 X20.118 Y180.241 E.01745
G1 X20.7 Y180.221 E.01826
G1 X21.219 Y180.27 E.01635
G1 X21.727 Y180.389 E.01636
G1 X22.244 Y180.582 E.0173
G1 X22.763 Y180.857 E.01842
G1 X23.212 Y181.176 E.01727
G1 X23.596 Y181.53 E.01638
G1 X23.928 Y181.932 E.01635
G1 X24.222 Y182.398 E.01728
G1 X24.469 Y182.931 E.01842
G1 X24.633 Y183.457 E.01728
G1 X24.725 Y183.971 E.01637
G1 X24.746 Y184.492 E.01635
G1 X24.662 Y185.267 E.02444
G1 X24.529 Y185.771 E.01634
G1 X24.33 Y186.253 E.01635
G1 X24.036 Y186.762 E.01843
G1 X23.724 Y187.172 E.01615
G1 X23.312 Y187.591 E.01842
G1 X22.901 Y187.912 E.01635
G1 X22.451 Y188.175 E.01634
G1 X21.909 Y188.402 E.01842
G1 X21.413 Y188.54 E.01614
G1 X20.831 Y188.625 E.01844
G1 X20.31 Y188.632 E.01634
G1 X19.792 Y188.568 E.01636
G1 X19.223 Y188.421 E.01843
G1 X18.745 Y188.23 E.01614
G1 X18.23 Y187.946 E.01844
G1 X17.974 Y187.756 E.01
M204 S1000
G1 X17.974 Y187.756 F10800
G1 X17.707 Y188.024
M204 S800
;TYPE:External perimeter
G1 F1200
G1 X17.504 Y187.865 E.00808
G1 X17.002 Y187.343 E.02271
G1 X16.654 Y186.864 E.01856
G1 X16.373 Y186.353 E.01828
G1 X16.166 Y185.808 E.01828
G1 X16.029 Y185.244 E.0182
G1 X15.963 Y184.704 E.01706
G1 X15.963 Y184.148 E.01743
G1 X16.026 Y183.619 E.0167
G1 X16.166 Y183.044 E.01856
G1 X16.373 Y182.499 E.01828
G1 X16.654 Y181.989 E.01826
G1 X17.002 Y181.51 E.01856
G1 X17.361 Y181.124 E.01653
G1 X17.784 Y180.763 E.01744
G1 X18.237 Y180.463 E.01704
G1 X18.761 Y180.199 E.0184
G1 X19.31 Y180.004 E.01827
G1 X19.881 Y179.888 E.01827
G1 X20.441 Y179.844 E.01761
G1 X20.963 Y179.863 E.01638
G1 X21.552 Y179.957 E.0187
G1 X22.064 Y180.105 E.01671
G1 X22.609 Y180.335 E.01855
G1 X23.113 Y180.628 E.01828
G1 X23.572 Y180.988 E.01829
G1 X23.988 Y181.409 E.01856
G1 X24.314 Y181.83 E.01669
G1 X24.601 Y182.306 E.01743
G1 X24.819 Y182.791 E.01667
G1 X24.997 Y183.356 E.01857
G1 X25.1 Y183.93 E.01828
G1 X25.123 Y184.513 E.01829
G1 X25.049 Y185.233 E.02269
G1 X24.91 Y185.808 E.01855
G1 X24.703 Y186.353 E.01828
G1 X24.422 Y186.864 E.01828
G1 X24.073 Y187.343 E.01858
G1 X23.711 Y187.733 E.01668
G1 X23.287 Y188.093 E.01744
G1 X22.844 Y188.387 E.01667
G1 X22.315 Y188.653 E.01857
G1 X21.766 Y188.848 E.01827
G1 X21.194 Y188.964 E.0183
G1 X20.604 Y189.009 E.01855
G1 X20.072 Y188.985 E.0167
G1 X19.523 Y188.895 E.01744
G1 X19.012 Y188.748 E.01667
G1 X18.466 Y188.517 E.01859
G1 X17.962 Y188.225 E.01826
G1 X17.754 Y188.061 E.00831
M204 S1000
;WIPE_START
G1 F8640
G1 X17.707 Y188.024 E-.01381
G1 X17.504 Y187.865 E-.05954
G1 X17.002 Y187.343 E-.16722
M73 P11 R5
G1 X16.654 Y186.864 E-.13671
G1 X16.373 Y186.353 E-.13465
G1 X16.166 Y185.808 E-.13461
G1 X16.029 Y185.244 E-.13402
G1 X16.019 Y185.16 E-.01944
;WIPE_END
G1 Z.6 F720
G1 X21.021 Y182.717 F10800
G1 Z.2 F720
G1 E.8 F2100
M204 S800
;TYPE:Perimeter
G1 F1200
G1 X21.255 Y182.791 E.0077
G1 X21.59 Y182.983 E.01211
G1 X21.876 Y183.243 E.01212
G1 X22.099 Y183.558 E.0121
G1 X22.249 Y183.914 E.01211
G1 X22.315 Y184.365 E.01429
G1 X22.268 Y184.87 E.0159
G1 X22.132 Y185.231 E.0121
G1 X21.922 Y185.555 E.01211
G1 X21.647 Y185.826 E.01211
G1 X21.32 Y186.032 E.01212
G1 X20.956 Y186.163 E.01213
G1 X20.573 Y186.212 E.01211
G1 X20.189 Y186.178 E.01209
G1 X19.82 Y186.062 E.01213
G1 X19.434 Y185.82 E.01428
G1 X19.08 Y185.458 E.01588
G1 X18.892 Y185.12 E.01213
G1 X18.781 Y184.75 E.01211
G1 X18.753 Y184.365 E.0121
G1 X18.808 Y183.983 E.0121
G1 X18.943 Y183.621 E.01211
G1 X19.154 Y183.297 E.01212
G1 X19.425 Y183.03 E.01193
G1 X19.761 Y182.818 E.01246
G1 X20.119 Y182.69 E.01192
G1 X20.459 Y182.645 E.01075
G1 X20.887 Y182.674 E.01345
G1 X20.964 Y182.699 E.00254
M204 S1000
G1 X20.964 Y182.699 F10800
G1 X20.811 Y183.062
M204 S800
;TYPE:External perimeter
G1 F1200
G1 X20.913 Y183.073 E.00322
G1 X21.338 Y183.264 E.01461
G1 X21.656 Y183.576 E.01397
G1 X21.878 Y183.985 E.01459
G1 X21.938 Y184.346 E.01147
G1 X21.911 Y184.749 E.01266
G1 X21.741 Y185.15 E.01366
G1 X21.443 Y185.508 E.0146
G1 X21.058 Y185.731 E.01395
G1 X20.604 Y185.836 E.01461
G1 X20.162 Y185.779 E.01397
G1 X19.743 Y185.591 E.0144
G1 X19.403 Y185.263 E.01481
G1 X19.249 Y185 E.00956
G1 X19.142 Y184.575 E.01374
G1 X19.162 Y184.113 E.0145
G1 X19.335 Y183.702 E.01398
G1 X19.628 Y183.348 E.01441
G1 X20.018 Y183.122 E.01413
G1 X20.447 Y183.022 E.01381
G1 X20.751 Y183.055 E.00959
M204 S1000
;WIPE_START
G1 F8640
M73 Q11 S5
G1 X20.811 Y183.062 E-.01395
G1 X20.913 Y183.073 E-.02369
G1 X21.338 Y183.264 E-.10759
G1 X21.656 Y183.576 E-.10287
G1 X21.878 Y183.985 E-.10745
G1 X21.938 Y184.346 E-.0845
G1 X21.911 Y184.749 E-.09326
G1 X21.741 Y185.15 E-.10057
G1 X21.443 Y185.508 E-.10755
G1 X21.223 Y185.635 E-.05857
;WIPE_END
G1 Z.6 F720
G1 X22.438 Y180.86 F10800
G1 Z.2 F720
G1 E.8 F2100
M204 S800
;TYPE:Solid infill
;WIDTH:0.429512
G1 F1200
G1 X23.385 Y181.807 E.04305
G1 X23.62 Y182.083 E.01165
G1 X23.855 Y182.43 E.01347
G1 X24.052 Y182.8 E.01347
G1 X24.197 Y183.165 E.01262
G1 X21.806 Y180.774 E.1087
G1 X21.574 Y180.695 E.00788
G1 X21.083 Y180.598 E.01609
G1 X24.366 Y183.881 E.14925
G1 X24.407 Y184.469 E.01895
G1 X20.499 Y180.56 E.17768
G1 X19.989 Y180.597 E.01644
G1 X24.366 Y184.974 E.19898
G1 X24.272 Y185.427 E.01487
G1 X22.518 Y183.673 E.07974
G1 X22.403 Y183.407 E.00932
G1 X22.226 Y183.143 E.01022
G1 X22.02 Y182.902 E.01019
G1 X21.732 Y182.664 E.01201
G1 X21.282 Y182.437 E.0162
G1 X19.534 Y180.688 E.07949
G1 X19.122 Y180.823 E.01394
G1 X20.612 Y182.314 E.06776
G1 X20.404 Y182.305 E.00669
G1 X20.105 Y182.353 E.00973
M73 P12 R5
G1 X18.747 Y180.995 E.06174
G1 X18.403 Y181.198 E.01284
G1 X19.691 Y182.486 E.05855
G1 X19.544 Y182.545 E.00509
G1 X19.341 Y182.682 E.00787
G1 X18.089 Y181.431 E.05689
G1 X17.803 Y181.691 E.01242
G1 X19.04 Y182.928 E.05623
G1 X18.899 Y183.073 E.0065
G1 X18.795 Y183.23 E.00605
G1 X17.544 Y181.979 E.05687
G1 X17.312 Y182.294 E.01258
G1 X18.592 Y183.574 E.05819
G1 X18.458 Y183.987 E.01396
G1 X17.112 Y182.641 E.06119
G1 X16.939 Y183.014 E.01322
G1 X18.607 Y184.682 E.07583
M204 S1000
;WIPE_START
G1 F8640
G1 X16.939 Y183.014 E-.54468
G1 X17.112 Y182.641 E-.09494
G1 X17.603 Y183.132 E-.16038
;WIPE_END
G1 Z.6 F720
G1 X22.471 Y184.173 F10800
G1 Z.2 F720
G1 E.8 F2100
M204 S800
G1 F1200
G1 X24.137 Y185.838 E.07571
G1 X23.966 Y186.214 E.01328
G1 X22.616 Y184.864 E.06137
M73 Q12 S5
G1 X22.484 Y185.279 E.014
G1 X23.763 Y186.558 E.05814
G1 X23.532 Y186.873 E.01256
G1 X22.282 Y185.624 E.0568
G1 X22.206 Y185.747 E.00465
G1 X22.036 Y185.924 E.00789
G1 X23.273 Y187.161 E.05623
G1 X22.986 Y187.421 E.01245
G1 X21.736 Y186.171 E.05683
G1 X21.535 Y186.307 E.0078
G1 X21.385 Y186.367 E.00519
G1 X22.672 Y187.654 E.05851
G1 X22.329 Y187.857 E.01281
G1 X20.971 Y186.5 E.06171
G1 X20.653 Y186.552 E.01036
G1 X20.466 Y186.542 E.00602
G1 X21.954 Y188.029 E.06762
G1 X21.542 Y188.164 E.01394
G1 X19.799 Y186.421 E.07924
G1 X19.388 Y186.216 E.01476
G1 X19.243 Y186.106 E.00585
G1 X18.872 Y185.751 E.01651
G1 X18.625 Y185.359 E.01489
G1 X18.564 Y185.187 E.00587
G1 X16.803 Y183.425 E.08008
G1 X16.71 Y183.879 E.0149
G1 X21.087 Y188.256 E.19898
G1 X20.577 Y188.292 E.01643
G1 X16.668 Y184.384 E.17768
G1 X16.71 Y184.972 E.01895
G1 X19.994 Y188.256 E.14929
M73 P13 R5
G1 X19.502 Y188.157 E.01613
G1 X19.27 Y188.079 E.00787
G1 X16.879 Y185.688 E.1087
G1 X17.024 Y186.052 E.0126
G1 X17.22 Y186.422 E.01346
G1 X17.455 Y186.769 E.01347
G1 X17.691 Y187.047 E.01172
G1 X18.637 Y187.993 E.04301
M204 S1000
;WIPE_START
G1 F8640
G1 X17.691 Y187.047 E-.30891
G1 X17.455 Y186.769 E-.0842
G1 X17.22 Y186.422 E-.09677
G1 X17.024 Y186.052 E-.09668
G1 X16.879 Y185.688 E-.09047
G1 X17.256 Y186.065 E-.12297
;WIPE_END
G1 Z.6 F720
; stop printing object washer steps.stl id:0 copy 0
; printing object washer steps.stl id:1 copy 0
G1 X228.29 Y18.207 F10800
G1 Z.2 F720
M73 Q13 S5
G1 E.8 F2100
M204 S800
;TYPE:Perimeter
;WIDTH:0.419999
G1 F1200
G1 X228.176 Y18.123 E.00444
G1 X227.784 Y17.737 E.01725
G1 X227.459 Y17.327 E.0164
G1 X227.156 Y16.824 E.01841
G1 X226.936 Y16.319 E.01727
G1 X226.793 Y15.833 E.01588
G1 X226.712 Y15.299 E.01693
G1 X226.699 Y14.751 E.01719
G1 X226.763 Y14.167 E.01842
G1 X226.894 Y13.631 E.0173
G1 X227.08 Y13.144 E.01635
G1 X227.331 Y12.687 E.01635
G1 X227.654 Y12.24 E.01729
G1 X228.054 Y11.818 E.01823
G1 X228.486 Y11.466 E.01747
G1 X228.93 Y11.191 E.01638
G1 X229.406 Y10.979 E.01634
G1 X229.934 Y10.82 E.01729
G1 X230.483 Y10.728 E.01745
G1 X231.065 Y10.707 E.01826
G1 X231.584 Y10.756 E.01635
G1 X232.092 Y10.875 E.01636
G1 X232.608 Y11.068 E.01727
G1 X233.127 Y11.343 E.01842
G1 X233.577 Y11.663 E.01731
G1 X233.96 Y12.016 E.01633
G1 X234.292 Y12.418 E.01635
G1 X234.587 Y12.884 E.01729
G1 X234.834 Y13.417 E.01842
G1 X234.998 Y13.944 E.01731
G1 X235.09 Y14.457 E.01634
G1 X235.111 Y14.978 E.01635
G1 X235.026 Y15.753 E.02445
G1 X234.894 Y16.257 E.01634
G1 X234.694 Y16.739 E.01636
G1 X234.4 Y17.248 E.01843
G1 X234.088 Y17.658 E.01615
G1 X233.677 Y18.077 E.0184
G1 X233.266 Y18.399 E.01637
G1 X232.816 Y18.661 E.01633
G1 X232.274 Y18.888 E.01842
M73 P14 R5
G1 X231.777 Y19.026 E.01617
G1 X231.196 Y19.111 E.01841
G1 X230.674 Y19.118 E.01637
G1 X230.157 Y19.055 E.01633
G1 X229.588 Y18.908 E.01843
G1 X229.109 Y18.717 E.01617
G1 X228.595 Y18.432 E.01843
G1 X228.339 Y18.243 E.00998
M204 S1000
G1 X228.339 Y18.243 F10800
G1 X228.071 Y18.51
M204 S800
;TYPE:External perimeter
G1 F1200
G1 X227.869 Y18.351 E.00806
G1 X227.367 Y17.829 E.02271
G1 X227.018 Y17.35 E.01858
G1 X226.737 Y16.84 E.01826
G1 X226.53 Y16.295 E.01828
G1 X226.394 Y15.73 E.01822
G1 X226.328 Y15.191 E.01703
G1 X226.328 Y14.635 E.01743
G1 X226.391 Y14.106 E.0167
G1 X226.53 Y13.53 E.01858
G1 X226.737 Y12.986 E.01825
G1 X227.018 Y12.475 E.01828
G1 X227.367 Y11.996 E.01858
G1 X227.725 Y11.61 E.01651
G1 X228.149 Y11.249 E.01746
G1 X228.601 Y10.949 E.01701
G1 X229.125 Y10.685 E.0184
G1 X229.675 Y10.49 E.0183
G1 X230.246 Y10.374 E.01827
G1 X230.806 Y10.33 E.01761
G1 X231.328 Y10.349 E.01638
G1 X231.917 Y10.443 E.0187
G1 X232.428 Y10.591 E.01668
G1 X232.974 Y10.822 E.01859
G1 X233.478 Y11.114 E.01826
G1 X233.936 Y11.474 E.01827
G1 X234.352 Y11.895 E.01856
G1 X234.679 Y12.316 E.01671
G1 X234.965 Y12.793 E.01744
G1 X235.184 Y13.278 E.01669
G1 X235.361 Y13.843 E.01856
G1 X235.465 Y14.416 E.01826
G1 X235.487 Y14.999 E.01829
G1 X235.414 Y15.719 E.02269
G1 X235.275 Y16.295 E.01858
G1 X235.068 Y16.84 E.01828
G1 X234.787 Y17.35 E.01826
G1 X234.438 Y17.829 E.01858
G1 X234.076 Y18.219 E.01668
G1 X233.652 Y18.579 E.01744
G1 X233.208 Y18.873 E.0167
G1 X232.679 Y19.14 E.01858
M73 Q14 S5
G1 X232.13 Y19.335 E.01827
G1 X231.559 Y19.451 E.01827
G1 X230.969 Y19.495 E.01855
G1 X230.437 Y19.472 E.0167
G1 X229.888 Y19.382 E.01744
G1 X229.377 Y19.234 E.01668
G1 X228.831 Y19.004 E.01858
G1 X228.327 Y18.711 E.01828
G1 X228.118 Y18.547 E.00833
M204 S1000
;WIPE_START
G1 F8640
G1 X228.071 Y18.51 E-.01381
G1 X227.869 Y18.351 E-.05936
G1 X227.367 Y17.829 E-.16722
G1 X227.018 Y17.35 E-.13685
G1 X226.737 Y16.84 E-.13445
G1 X226.53 Y16.295 E-.13461
G1 X226.394 Y15.73 E-.13419
G1 X226.384 Y15.646 E-.01951
;WIPE_END
G1 Z.6 F720
G1 X231.386 Y13.203 F10800
G1 Z.2 F720
G1 E.8 F2100
M204 S800
;TYPE:Perimeter
G1 F1200
G1 X231.62 Y13.277 E.0077
G1 X231.955 Y13.469 E.01211
G1 X232.24 Y13.729 E.0121
G1 X232.464 Y14.045 E.01214
G1 X232.614 Y14.401 E.01211
G1 X232.679 Y14.852 E.01429
G1 X232.633 Y15.356 E.01587
G1 X232.497 Y15.718 E.01212
G1 X232.287 Y16.042 E.01211
G1 X232.011 Y16.313 E.01213
G1 X231.685 Y16.518 E.01207
G1 X231.321 Y16.649 E.01213
G1 X230.938 Y16.698 E.01211
G1 X230.553 Y16.664 E.01212
G1 X230.185 Y16.548 E.0121
G1 X229.799 Y16.306 E.01428
G1 X229.444 Y15.944 E.0159
G1 X229.257 Y15.607 E.01208
G1 X229.146 Y15.237 E.01211
G1 X229.117 Y14.851 E.01214
G1 X229.172 Y14.469 E.0121
G1 X229.308 Y14.108 E.0121
G1 X229.518 Y13.784 E.01211
G1 X229.79 Y13.516 E.01197
G1 X230.125 Y13.305 E.01241
G1 X230.484 Y13.176 E.01196
G1 X230.823 Y13.131 E.01072
G1 X231.251 Y13.161 E.01345
G1 X231.328 Y13.185 E.00253
M204 S1000
G1 X231.328 Y13.185 F10800
G1 X231.176 Y13.548
M204 S800
;TYPE:External perimeter
G1 F1200
G1 X231.278 Y13.56 E.00322
G1 X231.703 Y13.75 E.0146
G1 X232.02 Y14.063 E.01397
